( pcb2gcode 2.5.0 )
( Software-independent Gcode )

( This file uses 7 drill bit sizes. )
( Bit sizes: [0.0275591inch] [0.0314961inch] [0.0354331inch] [0.0393701inch] [0.0433071inch] [0.0468504inch] [0.0511811inch] )

G94       (Inches per minute feed rate.)
G20       (Units == INCHES.)
G91.1     (Incremental arc distance mode.)
G90       (Absolute coordinates.)
G00 S8000     (RPM spindle speed.)

G00 Z0.39370 (Retract)
T1
M5      (Spindle stop.)
G04 P1.00000
(MSG, Change tool bit to drill size 0.0275591inch)
M0      (Temporary machine stop.)
M3      (Spindle on clockwise.)
G0 Z0.07874
G04 P1.00000

G1 F3.93701
G0 X0.47933 Y0.84055
G1 Z-0.09843
G1 Z0.07874
G0 X0.47933 Y1.14055
G1 Z-0.09843
G1 Z0.07874
G0 X0.81398 Y0.75906
G1 Z-0.09843
G1 Z0.07874
G0 X0.95177 Y0.76654
G1 Z-0.09843
G1 Z0.07874
G0 X0.95177 Y0.46654
G1 Z-0.09843
G1 Z0.07874
G0 X0.81398 Y0.45906
G1 Z-0.09843
G1 Z0.07874
G0 X0.81398 Y0.32126
G1 Z-0.09843
G1 Z0.07874
G0 X0.81398 Y0.02126
G1 Z-0.09843
G1 Z0.07874
G0 X1.68012 Y0.01378
G1 Z-0.09843
G1 Z0.07874
G0 X1.68012 Y0.31378
G1 Z-0.09843
G1 Z0.07874
G0 X1.68012 Y0.46654
G1 Z-0.09843
G1 Z0.07874
G0 X1.56201 Y0.45906
G1 Z-0.09843
G1 Z0.07874
G0 X1.30610 Y0.45433
G1 Z-0.09843
G1 Z0.07874
G0 X1.30610 Y0.75433
G1 Z-0.09843
G1 Z0.07874
G0 X1.56201 Y0.75906
G1 Z-0.09843
G1 Z0.07874
G0 X1.68012 Y0.76654
G1 Z-0.09843
G1 Z0.07874

G00 Z0.39370 (Retract)
T2
M5      (Spindle stop.)
G04 P1.00000
(MSG, Change tool bit to drill size 0.0314961inch)
M0      (Temporary machine stop.)
M3      (Spindle on clockwise.)
G0 Z0.07874
G04 P1.00000

G1 F3.93701
G0 X0.74508 Y1.99449
G1 Z-0.09843
G1 Z0.07874
G0 X0.84350 Y1.99449
G1 Z-0.09843
G1 Z0.07874

G00 Z0.39370 (Retract)
T3
M5      (Spindle stop.)
G04 P1.00000
(MSG, Change tool bit to drill size 0.0354331inch)
M0      (Temporary machine stop.)
M3      (Spindle on clockwise.)
G0 Z0.07874
G04 P1.00000

G1 F3.93701
G0 X0.06594 Y0.18189
G1 Z-0.09843
G1 Z0.07874
G0 X0.06594 Y0.28189
G1 Z-0.09843
G1 Z0.07874
G0 X0.06594 Y0.45906
G1 Z-0.09843
G1 Z0.07874
G0 X0.06594 Y0.55906
G1 Z-0.09843
G1 Z0.07874
G0 X2.38878 Y0.59843
G1 Z-0.09843
G1 Z0.07874
G0 X2.38878 Y0.49843
G1 Z-0.09843
G1 Z0.07874
G0 X2.38878 Y0.28189
G1 Z-0.09843
G1 Z0.07874
G0 X2.38878 Y0.18189
G1 Z-0.09843
G1 Z0.07874

G00 Z0.39370 (Retract)
T4
M5      (Spindle stop.)
G04 P1.00000
(MSG, Change tool bit to drill size 0.0393701inch)
M0      (Temporary machine stop.)
M3      (Spindle on clockwise.)
G0 Z0.07874
G04 P1.00000

G1 F3.93701
G0 X1.30295 Y1.27638
G1 Z-0.09843
G1 Z0.07874
G0 X1.20295 Y1.27638
G1 Z-0.09843
G1 Z0.07874
G0 X1.10295 Y1.27638
G1 Z-0.09843
G1 Z0.07874
G0 X1.00295 Y1.27638
G1 Z-0.09843
G1 Z0.07874
G0 X0.90295 Y1.27638
G1 Z-0.09843
G1 Z0.07874
G0 X0.80295 Y1.27638
G1 Z-0.09843
G1 Z0.07874
G0 X0.70295 Y1.27638
G1 Z-0.09843
G1 Z0.07874
G0 X0.60295 Y1.27638
G1 Z-0.09843
G1 Z0.07874
G0 X0.50295 Y1.27638
G1 Z-0.09843
G1 Z0.07874
G0 X0.40295 Y1.27638
G1 Z-0.09843
G1 Z0.07874
G0 X0.30295 Y1.27638
G1 Z-0.09843
G1 Z0.07874
G0 X0.20295 Y1.27638
G1 Z-0.09843
G1 Z0.07874
G0 X0.10295 Y1.27638
G1 Z-0.09843
G1 Z0.07874
G0 X0.10295 Y1.87638
G1 Z-0.09843
G1 Z0.07874
G0 X0.20295 Y1.87638
G1 Z-0.09843
G1 Z0.07874
G0 X0.30295 Y1.87638
G1 Z-0.09843
G1 Z0.07874
G0 X0.40295 Y1.87638
G1 Z-0.09843
G1 Z0.07874
G0 X0.50295 Y1.87638
G1 Z-0.09843
G1 Z0.07874
G0 X0.59744 Y2.18122
G1 Z-0.09843
G1 Z0.07874
G0 X0.60295 Y1.87638
G1 Z-0.09843
G1 Z0.07874
G0 X0.70295 Y1.87638
G1 Z-0.09843
G1 Z0.07874
G0 X0.80295 Y1.87638
G1 Z-0.09843
G1 Z0.07874
G0 X0.90295 Y1.87638
G1 Z-0.09843
G1 Z0.07874
G0 X1.00295 Y1.87638
G1 Z-0.09843
G1 Z0.07874
G0 X1.18799 Y2.18122
G1 Z-0.09843
G1 Z0.07874
G0 X1.10295 Y1.87638
G1 Z-0.09843
G1 Z0.07874
G0 X1.20295 Y1.87638
G1 Z-0.09843
G1 Z0.07874
G0 X1.30295 Y1.87638
G1 Z-0.09843
G1 Z0.07874
G0 X1.40295 Y1.87638
G1 Z-0.09843
G1 Z0.07874
G0 X1.50295 Y1.87638
G1 Z-0.09843
G1 Z0.07874
G0 X1.40295 Y1.27638
G1 Z-0.09843
G1 Z0.07874
G0 X1.50295 Y1.27638
G1 Z-0.09843
G1 Z0.07874
G0 X2.25098 Y1.13228
G1 Z-0.09843
G1 Z0.07874
G0 X2.25098 Y0.83307
G1 Z-0.09843
G1 Z0.07874

G00 Z0.39370 (Retract)
T5
M5      (Spindle stop.)
G04 P1.00000
(MSG, Change tool bit to drill size 0.0433071inch)
M0      (Temporary machine stop.)
M3      (Spindle on clockwise.)
G0 Z0.07874
G04 P1.00000

G1 F3.93701
G0 X0.59744 Y0.06969
G1 Z-0.09843
G1 Z0.07874
G0 X0.59744 Y0.16969
G1 Z-0.09843
G1 Z0.07874
G0 X0.59744 Y0.26969
G1 Z-0.09843
G1 Z0.07874
G0 X0.59744 Y0.49843
G1 Z-0.09843
G1 Z0.07874
G0 X0.59744 Y0.59843
G1 Z-0.09843
G1 Z0.07874
G0 X0.59744 Y0.69843
G1 Z-0.09843
G1 Z0.07874
G0 X1.89665 Y0.71811
G1 Z-0.09843
G1 Z0.07874
G0 X1.89665 Y0.61811
G1 Z-0.09843
G1 Z0.07874
G0 X1.89665 Y0.51811
G1 Z-0.09843
G1 Z0.07874
G0 X1.89665 Y0.26220
G1 Z-0.09843
G1 Z0.07874
G0 X1.89665 Y0.16220
G1 Z-0.09843
G1 Z0.07874
G0 X1.89665 Y0.06220
G1 Z-0.09843
G1 Z0.07874

G00 Z0.39370 (Retract)
T6
M5      (Spindle stop.)
G04 P1.00000
(MSG, Change tool bit to drill size 0.0468504inch)
M0      (Temporary machine stop.)
M3      (Spindle on clockwise.)
G0 Z0.07874
G04 P1.00000

G1 F3.93701
G0 X0.36122 Y0.29843
G1 Z-0.09843
G1 Z0.07874
G0 X0.36122 Y0.39843
G1 Z-0.09843
G1 Z0.07874
G0 X0.36122 Y0.49843
G1 Z-0.09843
G1 Z0.07874
G0 X0.08406 Y0.93150
G1 Z-0.09843
G1 Z0.07874
G0 X0.18406 Y0.93150
G1 Z-0.09843
G1 Z0.07874
G0 X0.02343 Y2.19134
G1 Z-0.09843
G1 Z0.07874
G0 X0.12343 Y2.19134
G1 Z-0.09843
G1 Z0.07874
G0 X0.22343 Y2.19134
G1 Z-0.09843
G1 Z0.07874
G0 X0.32343 Y2.19134
G1 Z-0.09843
G1 Z0.07874
G0 X2.11319 Y0.47874
G1 Z-0.09843
G1 Z0.07874
G0 X2.11319 Y0.37874
G1 Z-0.09843
G1 Z0.07874
G0 X2.11319 Y0.27874
G1 Z-0.09843
G1 Z0.07874

G00 Z0.39370 (Retract)
T7
M5      (Spindle stop.)
G04 P1.00000
(MSG, Change tool bit to drill size 0.0511811inch)
M0      (Temporary machine stop.)
M3      (Spindle on clockwise.)
G0 Z0.07874
G04 P1.00000

G1 F3.93701
G0 X1.89665 Y2.03386
G1 Z-0.09843
G1 Z0.07874
G0 X1.89665 Y2.23071
G1 Z-0.09843
G1 Z0.07874
G0 X2.38878 Y2.23071
G1 Z-0.09843
G1 Z0.07874
G0 X2.38878 Y2.03386
G1 Z-0.09843
G1 Z0.07874

G00 Z0.394 ( All done -- retract )

M5      (Spindle off.)
G04 P1.000000
M9      (Coolant off.)
M2      (Program end.)

