(Block-name: Header)
(Block-expand: 0)
(Block-enable: 1)
( pcb2gcode 2.5.0 )
( Software-independent Gcode )

G94 ( Inches per minute feed rate. )
G20 ( Units == INCHES. )

G90 ( Absolute coordinates. )
(Block-name: block [autolevel:2])
(Block-expand: 0)
(Block-enable: 1)
G00 S12000 ( RPM spindle speed. )
G01 F7.87402 ( Feedrate. )


G0X0.0508Y1.4764Z0.3644
G0X0.0312Y0.8366Z0.3495
G0X0.0115Y0.1969Z0.3334
G0X0.0059Y0.0128Z0.3288
(Block-name: block [autolevel:2])
(Block-expand: 0)
(Block-enable: 1)
T0
M5      (Spindle stop.)
G04 P1.00000 (Wait for spindle to stop)
(MSG, Change tool bit to mill diameter 0.00787in)
M0      (Temporary machine stop.)
M3 ( Spindle on clockwise. )
G04 P1.00000 (Wait for spindle to get up to speed)
G04 P0 ( dwell for no time -- G64 should not smooth over this point )
G0X0.0059Y0.0128Z0.0139

G0X0.0164Y0.1969Z0.015
G0X0.0164Y0.1969Z0.015
G0X0.0528Y0.8366Z0.0192
G0X0.065Y1.0499Z0.0202
G0X0.0893Y1.4764Z0.0217
G0X0.1136Y1.9029Z0.023
G0X0.1257Y2.1161Z0.0237
G0X0.1427Y2.4142Z0.0252
G01 F3.93701
( Mill infeed pass 1/1 )
G1X0.1427Y2.4142Z-0.0594
G04 P0 ( dwell for no time -- G64 should not smooth over this point )
G01 F7.87402
G1X0.1427Y2.4142Z-0.0594
G1X0.1459Y2.3841Z-0.0595
G1X0.1553Y2.3551Z-0.0594
G1X0.1705Y2.3287Z-0.0593
G1X0.1909Y2.3061Z-0.0591
G1X0.1969Y2.3018Z-0.0591
G1X0.1969Y2.3018Z-0.0591
G1X0.2156Y2.2882Z-0.0588
G1X0.2434Y2.2758Z-0.0584
G1X0.2732Y2.2695Z-0.058
G1X0.3028Y2.2695Z-0.0575
G1X0.304Y2.2696Z-0.0575
G1X0.333Y2.2757Z-0.057
G1X0.3342Y2.2761Z-0.057
G1X0.3612Y2.2882Z-0.0565
G1X0.3855Y2.3059Z-0.0559
G1X0.3864Y2.3067Z-0.0559
G1X0.4062Y2.3287Z-0.0555
G1X0.4215Y2.3551Z-0.0551
G1X0.4309Y2.3841Z-0.0548
G1X0.4341Y2.4144Z-0.0546
G1X0.4309Y2.4447Z-0.0544
G1X0.4215Y2.4736Z-0.0544
G1X0.4062Y2.5Z-0.0546
G1X0.3859Y2.5226Z-0.0548
G1X0.3612Y2.5405Z-0.0551
G1X0.3334Y2.5529Z-0.0556
G1X0.3036Y2.5592Z-0.056
G1X0.274Y2.5593Z-0.0565
G1X0.2728Y2.5592Z-0.0565
G1X0.2434Y2.5529Z-0.0571
G1X0.2163Y2.5409Z-0.0576
G1X0.2152Y2.5403Z-0.0576
G1X0.1969Y2.5269Z-0.058
G1X0.1969Y2.5269Z-0.058
G1X0.1913Y2.5229Z-0.0581
G1X0.1903Y2.522Z-0.0581
G1X0.1705Y2.5Z-0.0586
G1X0.1553Y2.4736Z-0.0589
G1X0.1459Y2.4447Z-0.0593
G1X0.1427Y2.4142Z-0.0594
G1X0.1447Y2.4142Z-0.0594
G1X0.1478Y2.4442Z-0.0592
G1X0.157Y2.4724Z-0.0589
G1X0.1719Y2.4985Z-0.0586
G1X0.1921Y2.521Z-0.0581
G1X0.1969Y2.5245Z-0.0581
G1X0.1969Y2.5245Z-0.0581
G1X0.2164Y2.5387Z-0.0576
G1X0.244Y2.551Z-0.0571
G1X0.2736Y2.5573Z-0.0565
G1X0.3034Y2.5573Z-0.056
G1X0.3328Y2.551Z-0.0556
G1X0.3602Y2.5388Z-0.0551
G1X0.3848Y2.5209Z-0.0549
G1X0.4049Y2.4985Z-0.0546
G1X0.4197Y2.4728Z-0.0545
G1X0.4288Y2.4447Z-0.0545
G1X0.4321Y2.4144Z-0.0546
G1X0.4289Y2.3845Z-0.0549
G1X0.4197Y2.3559Z-0.0551
G1X0.4044Y2.3296Z-0.0556
G1X0.3847Y2.3077Z-0.0559
G1X0.3606Y2.2902Z-0.0565
G1X0.333Y2.2778Z-0.057
G1X0.3028Y2.2714Z-0.0575
G1X0.2734Y2.2715Z-0.0579
G1X0.244Y2.2777Z-0.0584
G1X0.2162Y2.2902Z-0.0587
G1X0.1969Y2.3042Z-0.059
G1X0.1969Y2.3042Z-0.059
G1X0.1922Y2.3076Z-0.0591
G1X0.1721Y2.3299Z-0.0593
G1X0.157Y2.3563Z-0.0594
G1X0.1478Y2.3845Z-0.0595
G1X0.1447Y2.4142Z-0.0594
G04 P0 ( dwell for no time -- G64 should not smooth over this point )
G0X0.1447Y2.4142Z0.0252
(Block-name: block [autolevel:2])
(Block-expand: 0)
(Block-enable: 1)

G0X0.1565Y2.4144Z0.0255
G01 F3.93701
( Mill infeed pass 1/1 )
G1X0.1565Y2.4144Z-0.0591
G04 P0 ( dwell for no time -- G64 should not smooth over this point )
G01 F7.87402
G1X0.1565Y2.4144Z-0.0591
G1X0.1594Y2.387Z-0.0593
G1X0.1679Y2.3607Z-0.0593
G1X0.1817Y2.3369Z-0.0591
G1X0.1969Y2.3202Z-0.0589
G1X0.1969Y2.3201Z-0.0589
G1X0.2002Y2.3164Z-0.0589
G1X0.2225Y2.3002Z-0.0586
G1X0.2476Y2.289Z-0.0582
G1X0.2746Y2.2832Z-0.0579
G1X0.3022Y2.2832Z-0.0574
G1X0.3291Y2.289Z-0.057
G1X0.3543Y2.3002Z-0.0565
G1X0.3766Y2.3164Z-0.0561
G1X0.3951Y2.3369Z-0.0556
G1X0.4088Y2.3607Z-0.0553
G1X0.4174Y2.387Z-0.055
G1X0.4202Y2.4144Z-0.0548
G1X0.4174Y2.4418Z-0.0547
G1X0.4088Y2.468Z-0.0547
G1X0.3951Y2.4919Z-0.0548
G1X0.3766Y2.5124Z-0.0551
G1X0.3543Y2.5286Z-0.0553
G1X0.3291Y2.5398Z-0.0556
G1X0.3022Y2.5455Z-0.0561
G1X0.2746Y2.5455Z-0.0565
G1X0.2476Y2.5398Z-0.057
G1X0.2225Y2.5286Z-0.0576
G1X0.2002Y2.5124Z-0.0581
G1X0.1969Y2.5087Z-0.0581
G1X0.1969Y2.5086Z-0.0581
G1X0.1817Y2.4919Z-0.0584
G1X0.1679Y2.468Z-0.0588
G1X0.1594Y2.4418Z-0.059
G1X0.1565Y2.4144Z-0.0591
G1X0.1585Y2.4144Z-0.0591
G1X0.1613Y2.4414Z-0.059
G1X0.1697Y2.4672Z-0.0588
G1X0.1833Y2.4907Z-0.0584
G1X0.1969Y2.5057Z-0.0581
G1X0.1969Y2.5058Z-0.0581
G1X0.2015Y2.5109Z-0.058
G1X0.2234Y2.5269Z-0.0576
G1X0.2482Y2.5379Z-0.057
G1X0.2748Y2.5436Z-0.0566
G1X0.302Y2.5436Z-0.0561
G1X0.3285Y2.5379Z-0.0557
G1X0.3533Y2.5269Z-0.0553
G1X0.3753Y2.5109Z-0.0551
G1X0.3935Y2.4907Z-0.0549
G1X0.407Y2.4672Z-0.0547
G1X0.4154Y2.4414Z-0.0547
G1X0.4183Y2.4144Z-0.0549
G1X0.4154Y2.3874Z-0.0551
G1X0.407Y2.3615Z-0.0553
G1X0.3935Y2.338Z-0.0556
G1X0.3753Y2.3178Z-0.0561
G1X0.3533Y2.3019Z-0.0565
G1X0.3285Y2.2908Z-0.057
G1X0.302Y2.2852Z-0.0574
G1X0.2748Y2.2852Z-0.0579
G1X0.2482Y2.2908Z-0.0582
G1X0.2234Y2.3019Z-0.0586
G1X0.2015Y2.3178Z-0.0589
G1X0.1969Y2.323Z-0.0589
G1X0.1969Y2.3231Z-0.0589
G1X0.1833Y2.338Z-0.0591
G1X0.1697Y2.3615Z-0.0592
G1X0.1613Y2.3874Z-0.0593
G1X0.1585Y2.4144Z-0.0591
G04 P0 ( dwell for no time -- G64 should not smooth over this point )
G0X0.1585Y2.4144Z0.0255
(Block-name: block [autolevel:2])
(Block-expand: 0)
(Block-enable: 1)

G0X0.1969Y2.4242Z0.0262
G0X0.1969Y2.4242Z0.0262
G0X0.7726Y2.572Z0.0368
G01 F3.93701
( Mill infeed pass 1/1 )
G1X0.7726Y2.572Z-0.0479
G04 P0 ( dwell for no time -- G64 should not smooth over this point )
G01 F7.87402
G1X0.7726Y2.572Z-0.0479
G1X0.7741Y2.5858Z-0.0477
G1X0.7784Y2.5991Z-0.0475
G1X0.7854Y2.6112Z-0.0473
G1X0.7948Y2.6216Z-0.0471
G1X0.8061Y2.6298Z-0.0468
G1X0.8189Y2.6355Z-0.0466
G1X0.8326Y2.6384Z-0.0463
G1X0.8366Y2.6384Z-0.0463
G1X0.8457Y2.6385Z-0.0462
G1X0.8469Y2.6383Z-0.0461
G1X0.8602Y2.6355Z-0.046
G1X0.8723Y2.6302Z-0.0458
G1X0.8734Y2.6296Z-0.0458
G1X0.884Y2.6218Z-0.0458
G1X0.8849Y2.621Z-0.0458
G1X0.8937Y2.6112Z-0.0457
G1X0.9007Y2.5991Z-0.0457
G1X0.905Y2.5858Z-0.0457
G1X0.9065Y2.5718Z-0.0458
G1X0.905Y2.5579Z-0.0459
G1X0.9007Y2.5446Z-0.0461
G1X0.8937Y2.5325Z-0.0463
G1X0.8843Y2.5221Z-0.0465
G1X0.873Y2.5139Z-0.0467
G1X0.8602Y2.5082Z-0.0469
G1X0.8466Y2.5053Z-0.0471
G1X0.8366Y2.5053Z-0.0472
G1X0.8334Y2.5053Z-0.0473
G1X0.8322Y2.5054Z-0.0473
G1X0.8189Y2.5082Z-0.0475
G1X0.8068Y2.5135Z-0.0477
G1X0.8058Y2.5141Z-0.0477
G1X0.7951Y2.5219Z-0.0478
G1X0.7942Y2.5227Z-0.0479
G1X0.7854Y2.5325Z-0.0479
G1X0.7787Y2.5441Z-0.048
G1X0.7782Y2.5452Z-0.048
G1X0.7741Y2.5579Z-0.0479
G1X0.7726Y2.572Z-0.0479
G1X0.7746Y2.572Z-0.0478
G1X0.776Y2.5854Z-0.0477
G1X0.7804Y2.5986Z-0.0475
G1X0.7873Y2.6103Z-0.0473
G1X0.7961Y2.6201Z-0.0471
G1X0.8067Y2.6279Z-0.0468
G1X0.8195Y2.6336Z-0.0466
G1X0.8328Y2.6365Z-0.0464
G1X0.8366Y2.6365Z-0.0463
G1X0.8461Y2.6365Z-0.0462
G1X0.86Y2.6335Z-0.046
G1X0.8719Y2.6282Z-0.0458
G1X0.8829Y2.6202Z-0.0458
G1X0.8919Y2.6103Z-0.0457
G1X0.8989Y2.5983Z-0.0457
G1X0.9031Y2.5854Z-0.0457
G1X0.9045Y2.5718Z-0.0458
G1X0.903Y2.5579Z-0.0459
G1X0.8989Y2.5454Z-0.0461
G1X0.8923Y2.534Z-0.0463
G1X0.8833Y2.5239Z-0.0465
G1X0.872Y2.5156Z-0.0467
G1X0.8596Y2.5101Z-0.0469
G1X0.8459Y2.5072Z-0.0471
G1X0.8366Y2.5072Z-0.0472
G1X0.833Y2.5072Z-0.0473
G1X0.8199Y2.51Z-0.0475
G1X0.8073Y2.5155Z-0.0477
G1X0.7963Y2.5235Z-0.0478
G1X0.787Y2.5337Z-0.0479
G1X0.7802Y2.5454Z-0.0479
G1X0.776Y2.5583Z-0.0479
G1X0.7746Y2.572Z-0.0478
G04 P0 ( dwell for no time -- G64 should not smooth over this point )
G0X0.7746Y2.572Z0.0368
(Block-name: block [autolevel:2])
(Block-expand: 0)
(Block-enable: 1)

G0X0.7864Y2.5718Z0.037
G01 F3.93701
( Mill infeed pass 1/1 )
G1X0.7864Y2.5718Z-0.0477
G04 P0 ( dwell for no time -- G64 should not smooth over this point )
G01 F7.87402
G1X0.7864Y2.5718Z-0.0477
G1X0.7876Y2.5829Z-0.0475
G1X0.791Y2.5935Z-0.0474
G1X0.7966Y2.6031Z-0.0472
G1X0.804Y2.6113Z-0.047
G1X0.813Y2.6178Z-0.0468
G1X0.8232Y2.6224Z-0.0466
G1X0.834Y2.6247Z-0.0464
G1X0.8366Y2.6247Z-0.0463
G1X0.8451Y2.6247Z-0.0462
G1X0.856Y2.6224Z-0.0462
G1X0.8661Y2.6178Z-0.046
G1X0.8751Y2.6113Z-0.046
G1X0.8825Y2.6031Z-0.0459
G1X0.8881Y2.5935Z-0.0459
G1X0.8915Y2.5829Z-0.0459
G1X0.8927Y2.5718Z-0.046
G1X0.8915Y2.5608Z-0.0461
G1X0.8881Y2.5502Z-0.0462
G1X0.8825Y2.5406Z-0.0463
G1X0.8751Y2.5324Z-0.0465
G1X0.8661Y2.5258Z-0.0467
G1X0.856Y2.5213Z-0.0469
G1X0.8451Y2.519Z-0.047
G1X0.8366Y2.519Z-0.0472
G1X0.834Y2.519Z-0.0472
G1X0.8232Y2.5213Z-0.0473
G1X0.813Y2.5258Z-0.0475
G1X0.804Y2.5324Z-0.0476
G1X0.7966Y2.5406Z-0.0477
G1X0.791Y2.5502Z-0.0477
G1X0.7876Y2.5608Z-0.0477
G1X0.7864Y2.5718Z-0.0477
G1X0.7884Y2.5718Z-0.0475
G1X0.7895Y2.5612Z-0.0477
G1X0.7928Y2.5511Z-0.0477
G1X0.7982Y2.5418Z-0.0477
G1X0.8053Y2.5338Z-0.0475
G1X0.814Y2.5276Z-0.0475
G1X0.8238Y2.5232Z-0.0473
G1X0.8342Y2.521Z-0.0472
G1X0.8366Y2.521Z-0.0472
G1X0.8449Y2.521Z-0.047
G1X0.8554Y2.5232Z-0.0469
G1X0.8651Y2.5276Z-0.0467
G1X0.8738Y2.5338Z-0.0465
G1X0.881Y2.5418Z-0.0463
G1X0.8863Y2.5511Z-0.0462
G1X0.8896Y2.5612Z-0.0461
G1X0.8907Y2.5718Z-0.046
G1X0.8896Y2.5825Z-0.0459
G1X0.8863Y2.5927Z-0.0459
G1X0.881Y2.6019Z-0.0459
G1X0.8738Y2.6099Z-0.046
G1X0.8651Y2.6162Z-0.046
G1X0.8554Y2.6205Z-0.0462
G1X0.8449Y2.6227Z-0.0463
G1X0.8366Y2.6227Z-0.0464
G1X0.8342Y2.6227Z-0.0464
G1X0.8238Y2.6205Z-0.0466
G1X0.814Y2.6162Z-0.0468
G1X0.8053Y2.6099Z-0.047
G1X0.7982Y2.6019Z-0.0472
G1X0.7928Y2.5927Z-0.0473
G1X0.7895Y2.5825Z-0.0475
G1X0.7884Y2.5718Z-0.0475
G04 P0 ( dwell for no time -- G64 should not smooth over this point )
G0X0.7884Y2.5718Z0.0371
(Block-name: block [autolevel:2])
(Block-expand: 0)
(Block-enable: 1)

G0X0.8366Y2.5718Z0.0379
G0X1.0499Y2.5719Z0.0409
G0X1.4764Y2.5719Z0.0456
G0X1.9029Y2.572Z0.0497
G0X2.0325Y2.572Z0.0508
G01 F3.93701
( Mill infeed pass 1/1 )
G1X2.0325Y2.572Z-0.0339
G04 P0 ( dwell for no time -- G64 should not smooth over this point )
G01 F7.87402
G1X2.0325Y2.572Z-0.0339
G1X2.0339Y2.5858Z-0.0338
G1X2.0383Y2.5991Z-0.0336
G1X2.0453Y2.6112Z-0.0335
G1X2.0546Y2.6216Z-0.0333
G1X2.0659Y2.6298Z-0.0331
G1X2.0787Y2.6355Z-0.033
G1X2.0924Y2.6384Z-0.0328
G1X2.1056Y2.6385Z-0.0328
G1X2.1068Y2.6383Z-0.0328
G1X2.1161Y2.6363Z-0.0327
G1X2.1201Y2.6355Z-0.0327
G1X2.1321Y2.6302Z-0.0326
G1X2.1332Y2.6296Z-0.0326
G1X2.1439Y2.6218Z-0.0326
G1X2.1448Y2.621Z-0.0326
G1X2.1536Y2.6112Z-0.0326
G1X2.1606Y2.5991Z-0.0328
G1X2.1649Y2.5858Z-0.0328
G1X2.1663Y2.5718Z-0.0328
G1X2.1649Y2.5579Z-0.033
G1X2.1606Y2.5446Z-0.0332
G1X2.1536Y2.5325Z-0.0333
G1X2.1442Y2.5221Z-0.0334
G1X2.1329Y2.5139Z-0.0336
G1X2.1201Y2.5082Z-0.0337
G1X2.1161Y2.5074Z-0.0337
G1X2.1064Y2.5053Z-0.0339
G1X2.0932Y2.5053Z-0.0339
G1X2.092Y2.5054Z-0.0339
G1X2.0787Y2.5082Z-0.034
G1X2.0667Y2.5135Z-0.0341
G1X2.0656Y2.5141Z-0.0341
G1X2.055Y2.5219Z-0.0341
G1X2.054Y2.5227Z-0.0341
G1X2.0453Y2.5325Z-0.0341
G1X2.0385Y2.5441Z-0.034
G1X2.038Y2.5452Z-0.034
G1X2.0339Y2.5579Z-0.034
G1X2.0325Y2.572Z-0.0339
G1X2.0345Y2.572Z-0.0338
G1X2.0359Y2.5854Z-0.0338
G1X2.0402Y2.5986Z-0.0336
G1X2.0469Y2.61Z-0.0335
G1X2.0556Y2.6198Z-0.0333
G1X2.0666Y2.6279Z-0.0331
G1X2.0793Y2.6336Z-0.033
G1X2.0926Y2.6365Z-0.0329
G1X2.106Y2.6365Z-0.0328
G1X2.1161Y2.6343Z-0.0327
G1X2.1199Y2.6335Z-0.0327
G1X2.1317Y2.6282Z-0.0326
G1X2.1427Y2.6202Z-0.0326
G1X2.1517Y2.6103Z-0.0326
G1X2.1587Y2.5983Z-0.0328
G1X2.1629Y2.5854Z-0.0328
G1X2.1644Y2.5718Z-0.0329
G1X2.1628Y2.5579Z-0.033
G1X2.1587Y2.5454Z-0.0332
G1X2.1522Y2.534Z-0.0333
G1X2.1432Y2.5239Z-0.0334
G1X2.1319Y2.5156Z-0.0336
G1X2.1195Y2.5101Z-0.0337
G1X2.1161Y2.5094Z-0.0337
G1X2.1058Y2.5072Z-0.0339
G1X2.0928Y2.5072Z-0.0339
G1X2.0797Y2.51Z-0.034
G1X2.0671Y2.5155Z-0.0341
G1X2.0561Y2.5235Z-0.0341
G1X2.0469Y2.5337Z-0.0341
G1X2.0401Y2.5454Z-0.034
G1X2.0359Y2.5583Z-0.034
G1X2.0345Y2.572Z-0.0338
G04 P0 ( dwell for no time -- G64 should not smooth over this point )
G0X2.0345Y2.572Z0.0508
(Block-name: block [autolevel:2])
(Block-expand: 0)
(Block-enable: 1)

G0X2.0463Y2.5718Z0.0508
G01 F3.93701
( Mill infeed pass 1/1 )
G1X2.0463Y2.5718Z-0.0338
G04 P0 ( dwell for no time -- G64 should not smooth over this point )
G01 F7.87402
G1X2.0463Y2.5718Z-0.0338
G1X2.0474Y2.5829Z-0.0337
G1X2.0509Y2.5935Z-0.0336
G1X2.0564Y2.6031Z-0.0335
G1X2.0639Y2.6113Z-0.0333
G1X2.0728Y2.6178Z-0.0332
G1X2.083Y2.6224Z-0.0331
G1X2.0939Y2.6247Z-0.033
G1X2.105Y2.6247Z-0.0328
G1X2.1158Y2.6224Z-0.0328
G1X2.1161Y2.6222Z-0.0328
G1X2.126Y2.6178Z-0.0328
G1X2.1349Y2.6113Z-0.0328
G1X2.1424Y2.6031Z-0.0328
G1X2.1479Y2.5935Z-0.0328
G1X2.1514Y2.5829Z-0.0329
G1X2.1525Y2.5718Z-0.033
G1X2.1514Y2.5608Z-0.033
G1X2.1479Y2.5502Z-0.0332
G1X2.1424Y2.5406Z-0.0333
G1X2.1349Y2.5324Z-0.0334
G1X2.126Y2.5258Z-0.0335
G1X2.1161Y2.5215Z-0.0336
G1X2.1158Y2.5213Z-0.0336
G1X2.105Y2.519Z-0.0337
G1X2.0939Y2.519Z-0.0339
G1X2.083Y2.5213Z-0.0339
G1X2.0728Y2.5258Z-0.0339
G1X2.0639Y2.5324Z-0.034
G1X2.0564Y2.5406Z-0.034
G1X2.0509Y2.5502Z-0.0339
G1X2.0474Y2.5608Z-0.0338
G1X2.0463Y2.5718Z-0.0338
G1X2.0483Y2.5718Z-0.0338
G1X2.0494Y2.5612Z-0.0338
G1X2.0527Y2.5511Z-0.0339
G1X2.058Y2.5418Z-0.0339
G1X2.0652Y2.5338Z-0.0339
G1X2.0738Y2.5276Z-0.0339
G1X2.0836Y2.5232Z-0.0339
G1X2.0941Y2.521Z-0.0339
G1X2.1048Y2.521Z-0.0337
G1X2.1152Y2.5232Z-0.0336
G1X2.1161Y2.5236Z-0.0336
G1X2.125Y2.5276Z-0.0335
G1X2.1336Y2.5338Z-0.0334
G1X2.1408Y2.5418Z-0.0333
G1X2.1461Y2.5511Z-0.0332
G1X2.1494Y2.5612Z-0.0331
G1X2.1506Y2.5718Z-0.033
G1X2.1494Y2.5825Z-0.033
G1X2.1461Y2.5927Z-0.0328
G1X2.1408Y2.6019Z-0.0328
G1X2.1336Y2.6099Z-0.0328
G1X2.125Y2.6162Z-0.0328
G1X2.1161Y2.6201Z-0.0328
G1X2.1152Y2.6205Z-0.0328
G1X2.1048Y2.6227Z-0.0329
G1X2.0941Y2.6227Z-0.033
G1X2.0836Y2.6205Z-0.0331
G1X2.0738Y2.6162Z-0.0332
G1X2.0652Y2.6099Z-0.0333
G1X2.058Y2.6019Z-0.0335
G1X2.0527Y2.5927Z-0.0335
G1X2.0494Y2.5825Z-0.0337
G1X2.0483Y2.5718Z-0.0338
G04 P0 ( dwell for no time -- G64 should not smooth over this point )
G0X2.0483Y2.5718Z0.0508
(Block-name: block [autolevel:2])
(Block-expand: 0)
(Block-enable: 1)

G0X2.1161Y2.5484Z0.0512
G0X2.5049Y2.4142Z0.0529
G01 F3.93701
( Mill infeed pass 1/1 )
G1X2.5049Y2.4142Z-0.0318
G04 P0 ( dwell for no time -- G64 should not smooth over this point )
G01 F7.87402
G1X2.5049Y2.4142Z-0.0318
G1X2.5081Y2.3841Z-0.032
G1X2.5175Y2.3551Z-0.032
G1X2.5327Y2.3287Z-0.0322
G1X2.5531Y2.3061Z-0.0322
G1X2.5778Y2.2882Z-0.032
G1X2.6056Y2.2758Z-0.032
G1X2.6354Y2.2695Z-0.0318
G1X2.665Y2.2695Z-0.0316
G1X2.6662Y2.2696Z-0.0316
G1X2.6952Y2.2757Z-0.0312
G1X2.6964Y2.2761Z-0.0312
G1X2.7234Y2.2882Z-0.031
G1X2.7477Y2.3059Z-0.0307
G1X2.7487Y2.3067Z-0.0307
G1X2.7559Y2.3148Z-0.0305
G1X2.7559Y2.3148Z-0.0305
G1X2.7684Y2.3287Z-0.0304
G1X2.7837Y2.3551Z-0.0301
G1X2.7931Y2.3841Z-0.0299
G1X2.7963Y2.4144Z-0.0297
G1X2.7931Y2.4447Z-0.0296
G1X2.7837Y2.4736Z-0.0294
G1X2.7684Y2.5Z-0.0294
G1X2.7559Y2.5139Z-0.0294
G1X2.7559Y2.5139Z-0.0294
G1X2.7481Y2.5226Z-0.0294
G1X2.7234Y2.5405Z-0.0294
G1X2.6956Y2.5529Z-0.0296
G1X2.6658Y2.5592Z-0.0298
G1X2.6362Y2.5593Z-0.0299
G1X2.635Y2.5592Z-0.0299
G1X2.6056Y2.5529Z-0.0302
G1X2.5785Y2.5409Z-0.0304
G1X2.5774Y2.5403Z-0.0304
G1X2.5535Y2.5229Z-0.0307
G1X2.5525Y2.522Z-0.0307
G1X2.5327Y2.5Z-0.0309
G1X2.5175Y2.4736Z-0.0313
G1X2.5081Y2.4447Z-0.0315
G1X2.5049Y2.4142Z-0.0318
G1X2.5069Y2.4142Z-0.0318
G1X2.51Y2.4442Z-0.0315
G1X2.5192Y2.4724Z-0.0313
G1X2.5341Y2.4985Z-0.0309
G1X2.5543Y2.521Z-0.0307
G1X2.5786Y2.5387Z-0.0304
G1X2.6062Y2.551Z-0.0302
G1X2.6358Y2.5573Z-0.0299
G1X2.6656Y2.5573Z-0.0298
G1X2.695Y2.551Z-0.0296
G1X2.7224Y2.5388Z-0.0294
G1X2.747Y2.5209Z-0.0294
G1X2.7559Y2.511Z-0.0294
G1X2.7559Y2.511Z-0.0294
G1X2.7668Y2.4988Z-0.0294
G1X2.7817Y2.4732Z-0.0294
G1X2.791Y2.4447Z-0.0296
G1X2.7943Y2.4144Z-0.0297
G1X2.7912Y2.3845Z-0.0299
G1X2.7819Y2.3559Z-0.0301
G1X2.7666Y2.3296Z-0.0305
G1X2.7559Y2.3177Z-0.0305
G1X2.7559Y2.3177Z-0.0305
G1X2.7469Y2.3077Z-0.0307
G1X2.7228Y2.2902Z-0.031
G1X2.6952Y2.2778Z-0.0312
G1X2.665Y2.2714Z-0.0316
G1X2.6356Y2.2715Z-0.0318
G1X2.6062Y2.2777Z-0.032
G1X2.5784Y2.2902Z-0.032
G1X2.5544Y2.3076Z-0.0321
G1X2.5343Y2.3299Z-0.0321
G1X2.5192Y2.3563Z-0.032
G1X2.51Y2.3845Z-0.032
G1X2.5069Y2.4142Z-0.0318
G04 P0 ( dwell for no time -- G64 should not smooth over this point )
G0X2.5069Y2.4142Z0.0529
(Block-name: block [autolevel:2])
(Block-expand: 0)
(Block-enable: 1)

G0X2.5187Y2.4144Z0.053
G01 F3.93701
( Mill infeed pass 1/1 )
G1X2.5187Y2.4144Z-0.0316
G04 P0 ( dwell for no time -- G64 should not smooth over this point )
G01 F7.87402
G1X2.5187Y2.4144Z-0.0316
G1X2.5216Y2.387Z-0.0318
G1X2.5301Y2.3607Z-0.032
G1X2.5439Y2.3369Z-0.032
G1X2.5624Y2.3164Z-0.032
G1X2.5847Y2.3002Z-0.032
G1X2.6098Y2.289Z-0.0318
G1X2.6368Y2.2832Z-0.0316
G1X2.6644Y2.2832Z-0.0314
G1X2.6913Y2.289Z-0.0312
G1X2.7165Y2.3002Z-0.031
G1X2.7388Y2.3164Z-0.0307
G1X2.7559Y2.3354Z-0.0305
G1X2.7559Y2.3354Z-0.0305
G1X2.7573Y2.3369Z-0.0305
G1X2.771Y2.3607Z-0.0302
G1X2.7796Y2.387Z-0.03
G1X2.7824Y2.4144Z-0.0298
G1X2.7796Y2.4418Z-0.0296
G1X2.771Y2.468Z-0.0296
G1X2.7573Y2.4919Z-0.0296
G1X2.7559Y2.4934Z-0.0296
G1X2.7559Y2.4934Z-0.0296
G1X2.7388Y2.5124Z-0.0296
G1X2.7165Y2.5286Z-0.0296
G1X2.6913Y2.5398Z-0.0296
G1X2.6644Y2.5455Z-0.0298
G1X2.6368Y2.5455Z-0.03
G1X2.6098Y2.5398Z-0.0302
G1X2.5847Y2.5286Z-0.0305
G1X2.5624Y2.5124Z-0.0307
G1X2.5439Y2.4919Z-0.0309
G1X2.5301Y2.468Z-0.0312
G1X2.5216Y2.4418Z-0.0315
G1X2.5187Y2.4144Z-0.0316
G1X2.5207Y2.4144Z-0.0316
G1X2.5235Y2.4414Z-0.0314
G1X2.5319Y2.4672Z-0.0312
G1X2.5455Y2.4907Z-0.0309
G1X2.5637Y2.5109Z-0.0307
G1X2.5856Y2.5269Z-0.0305
G1X2.6105Y2.5379Z-0.0302
G1X2.637Y2.5436Z-0.03
G1X2.6642Y2.5436Z-0.0298
G1X2.6907Y2.5379Z-0.0296
G1X2.7155Y2.5269Z-0.0296
G1X2.7375Y2.5109Z-0.0296
G1X2.7557Y2.4907Z-0.0296
G1X2.7559Y2.4903Z-0.0296
G1X2.7559Y2.4903Z-0.0296
G1X2.7692Y2.4672Z-0.0296
G1X2.7776Y2.4414Z-0.0297
G1X2.7805Y2.4144Z-0.0298
G1X2.7776Y2.3874Z-0.03
G1X2.7692Y2.3615Z-0.0302
G1X2.7559Y2.3384Z-0.0305
G1X2.7559Y2.3384Z-0.0305
G1X2.7557Y2.338Z-0.0305
G1X2.7375Y2.3178Z-0.0307
G1X2.7155Y2.3019Z-0.0309
G1X2.6907Y2.2908Z-0.0312
G1X2.6642Y2.2852Z-0.0314
G1X2.637Y2.2852Z-0.0316
G1X2.6105Y2.2908Z-0.0318
G1X2.5856Y2.3019Z-0.032
G1X2.5637Y2.3178Z-0.032
G1X2.5455Y2.338Z-0.032
G1X2.5319Y2.3615Z-0.032
G1X2.5235Y2.3874Z-0.0318
G1X2.5207Y2.4144Z-0.0316
G04 P0 ( dwell for no time -- G64 should not smooth over this point )
G0X2.5207Y2.4144Z0.053
(Block-name: block [autolevel:2])
(Block-expand: 0)
(Block-enable: 1)

G0X2.5207Y2.1161Z0.051
G0X2.5207Y1.9029Z0.0495
G0X2.5207Y1.4764Z0.0458
G0X2.5207Y1.0499Z0.0416
G0X2.5207Y0.8366Z0.0391
G0X2.5207Y0.4065Z0.0327
G01 F3.93701
( Mill infeed pass 1/1 )
G1X2.5207Y0.4065Z-0.0519
G04 P0 ( dwell for no time -- G64 should not smooth over this point )
G01 F7.87402
G1X2.5207Y0.4065Z-0.0519
G1X2.5235Y0.3795Z-0.0523
G1X2.5319Y0.3537Z-0.0526
G1X2.5455Y0.3301Z-0.0528
G1X2.5637Y0.31Z-0.053
G1X2.5856Y0.294Z-0.053
G1X2.6105Y0.283Z-0.0529
G1X2.637Y0.2773Z-0.0527
G1X2.6642Y0.2773Z-0.0525
G1X2.6907Y0.283Z-0.0522
G1X2.7155Y0.294Z-0.0518
G1X2.7375Y0.31Z-0.0514
G1X2.7557Y0.3301Z-0.0509
G1X2.7559Y0.3306Z-0.0509
G1X2.7559Y0.3306Z-0.0509
G1X2.7692Y0.3537Z-0.0504
G1X2.7776Y0.3795Z-0.05
G1X2.7805Y0.4065Z-0.0495
G1X2.7776Y0.4335Z-0.0491
G1X2.7692Y0.4593Z-0.0488
G1X2.7559Y0.4824Z-0.0486
G1X2.7559Y0.4824Z-0.0486
G1X2.7557Y0.4828Z-0.0486
G1X2.7375Y0.503Z-0.0484
G1X2.7155Y0.519Z-0.0483
G1X2.6907Y0.53Z-0.0485
G1X2.6642Y0.5357Z-0.0486
G1X2.637Y0.5357Z-0.0489
G1X2.6105Y0.53Z-0.0493
G1X2.5856Y0.519Z-0.0496
G1X2.5637Y0.503Z-0.05
G1X2.5455Y0.4828Z-0.0506
G1X2.5319Y0.4593Z-0.0511
G1X2.5235Y0.4335Z-0.0515
G1X2.5207Y0.4065Z-0.0519
G1X2.5187Y0.4065Z-0.052
G1X2.5216Y0.4339Z-0.0515
G1X2.5301Y0.4601Z-0.0511
G1X2.5439Y0.484Z-0.0506
G1X2.5624Y0.5045Z-0.05
G1X2.5847Y0.5207Z-0.0496
G1X2.6098Y0.5319Z-0.0492
G1X2.6368Y0.5376Z-0.0489
G1X2.6644Y0.5376Z-0.0486
G1X2.6913Y0.5319Z-0.0484
G1X2.7165Y0.5207Z-0.0483
G1X2.7388Y0.5045Z-0.0483
G1X2.7559Y0.4855Z-0.0485
G1X2.7559Y0.4855Z-0.0485
G1X2.7573Y0.484Z-0.0485
G1X2.771Y0.4601Z-0.0488
G1X2.7796Y0.4339Z-0.0491
G1X2.7824Y0.4065Z-0.0495
G1X2.7796Y0.3791Z-0.0499
G1X2.771Y0.3529Z-0.0504
G1X2.7573Y0.329Z-0.0509
G1X2.7559Y0.3275Z-0.0509
G1X2.7559Y0.3275Z-0.0509
G1X2.7388Y0.3085Z-0.0514
G1X2.7165Y0.2923Z-0.0518
G1X2.6913Y0.2811Z-0.0522
G1X2.6644Y0.2754Z-0.0525
G1X2.6368Y0.2754Z-0.0528
G1X2.6098Y0.2811Z-0.0529
G1X2.5847Y0.2923Z-0.053
G1X2.5624Y0.3085Z-0.053
G1X2.5439Y0.329Z-0.0528
G1X2.5301Y0.3529Z-0.0526
G1X2.5216Y0.3791Z-0.0523
G1X2.5187Y0.4065Z-0.052
G04 P0 ( dwell for no time -- G64 should not smooth over this point )
G0X2.5187Y0.4065Z0.0327
(Block-name: block [autolevel:2])
(Block-expand: 0)
(Block-enable: 1)

G0X2.5069Y0.4063Z0.0326
G01 F3.93701
( Mill infeed pass 1/1 )
G1X2.5069Y0.4063Z-0.052
G04 P0 ( dwell for no time -- G64 should not smooth over this point )
G01 F7.87402
G1X2.5069Y0.4063Z-0.052
G1X2.51Y0.3766Z-0.0525
G1X2.5192Y0.3484Z-0.0528
G1X2.5343Y0.322Z-0.053
G1X2.5544Y0.2997Z-0.0532
G1X2.5784Y0.2823Z-0.0533
G1X2.6062Y0.2698Z-0.0531
G1X2.6356Y0.2636Z-0.053
G1X2.665Y0.2636Z-0.0527
G1X2.6952Y0.2699Z-0.0523
G1X2.7228Y0.2823Z-0.0519
G1X2.7469Y0.2999Z-0.0514
G1X2.7559Y0.3099Z-0.0512
G1X2.7559Y0.3099Z-0.0512
G1X2.7666Y0.3217Z-0.0509
G1X2.7819Y0.3481Z-0.0503
G1X2.7912Y0.3766Z-0.0498
G1X2.7943Y0.4065Z-0.0493
G1X2.791Y0.4368Z-0.0489
G1X2.7817Y0.4653Z-0.0486
G1X2.7668Y0.491Z-0.0483
G1X2.7559Y0.5031Z-0.0483
G1X2.7559Y0.5031Z-0.0483
G1X2.747Y0.513Z-0.0481
G1X2.7224Y0.531Z-0.0481
G1X2.695Y0.5432Z-0.0482
G1X2.6656Y0.5494Z-0.0484
G1X2.6358Y0.5494Z-0.0487
G1X2.6062Y0.5432Z-0.0491
G1X2.5786Y0.5308Z-0.0495
G1X2.5543Y0.5131Z-0.05
G1X2.5341Y0.4906Z-0.0506
G1X2.5192Y0.4646Z-0.0511
G1X2.51Y0.4364Z-0.0516
G1X2.5069Y0.4063Z-0.052
G1X2.5049Y0.4063Z-0.052
G1X2.5081Y0.4368Z-0.0516
G1X2.5175Y0.4657Z-0.0511
G1X2.5327Y0.4921Z-0.0506
G1X2.5525Y0.5142Z-0.05
G1X2.5535Y0.515Z-0.05
G1X2.5774Y0.5324Z-0.0495
G1X2.5785Y0.533Z-0.0495
G1X2.6056Y0.545Z-0.0491
G1X2.635Y0.5513Z-0.0487
G1X2.6362Y0.5514Z-0.0487
G1X2.6658Y0.5514Z-0.0484
G1X2.6956Y0.545Z-0.0482
G1X2.7234Y0.5326Z-0.0481
G1X2.7481Y0.5148Z-0.0481
G1X2.7559Y0.506Z-0.0481
G1X2.7559Y0.506Z-0.0481
G1X2.7684Y0.4921Z-0.0483
G1X2.7837Y0.4657Z-0.0486
G1X2.7931Y0.4368Z-0.0489
G1X2.7963Y0.4065Z-0.0493
G1X2.7931Y0.3762Z-0.0498
G1X2.7837Y0.3473Z-0.0503
G1X2.7684Y0.3209Z-0.0509
G1X2.7559Y0.3069Z-0.0512
G1X2.7559Y0.3069Z-0.0512
G1X2.7487Y0.2988Z-0.0514
G1X2.7477Y0.298Z-0.0514
G1X2.7234Y0.2803Z-0.0519
G1X2.6964Y0.2682Z-0.0523
G1X2.6952Y0.2679Z-0.0523
G1X2.6662Y0.2617Z-0.0527
G1X2.665Y0.2616Z-0.0527
G1X2.6354Y0.2616Z-0.053
G1X2.6056Y0.268Z-0.0532
G1X2.5778Y0.2803Z-0.0533
G1X2.5531Y0.2982Z-0.0532
G1X2.5327Y0.3209Z-0.053
G1X2.5175Y0.3473Z-0.0528
G1X2.5081Y0.3762Z-0.0525
G1X2.5049Y0.4063Z-0.052
G04 P0 ( dwell for no time -- G64 should not smooth over this point )
G0X2.5049Y0.4063Z0.0326
(Block-name: block [autolevel:2])
(Block-expand: 0)
(Block-enable: 1)

G0X2.1161Y0.2651Z0.0269
G0X2.0719Y0.249Z0.0264
G01 F3.93701
( Mill infeed pass 1/1 )
G1X2.0719Y0.249Z-0.0582
G04 P0 ( dwell for no time -- G64 should not smooth over this point )
G01 F7.87402
G1X2.0719Y0.249Z-0.0582
G1X2.0725Y0.2433Z-0.0584
G1X2.0743Y0.2378Z-0.0584
G1X2.0772Y0.2329Z-0.0584
G1X2.081Y0.2286Z-0.0585
G1X2.0857Y0.2252Z-0.0585
G1X2.0909Y0.2229Z-0.0585
G1X2.0965Y0.2217Z-0.0585
G1X2.1023Y0.2217Z-0.0583
G1X2.1079Y0.2229Z-0.0583
G1X2.1132Y0.2252Z-0.0583
G1X2.1161Y0.2274Z-0.0582
G1X2.1178Y0.2286Z-0.0581
G1X2.1216Y0.2329Z-0.0581
G1X2.1245Y0.2378Z-0.058
G1X2.1263Y0.2433Z-0.0579
G1X2.1269Y0.249Z-0.0578
G1X2.1263Y0.2547Z-0.0577
G1X2.1245Y0.2602Z-0.0577
G1X2.1216Y0.2652Z-0.0576
G1X2.1178Y0.2694Z-0.0576
G1X2.1161Y0.2706Z-0.0576
G1X2.1132Y0.2728Z-0.0576
G1X2.1079Y0.2752Z-0.0576
G1X2.1023Y0.2763Z-0.0576
G1X2.0965Y0.2763Z-0.0576
G1X2.0909Y0.2752Z-0.0578
G1X2.0857Y0.2728Z-0.0578
G1X2.081Y0.2694Z-0.0579
G1X2.0772Y0.2652Z-0.058
G1X2.0743Y0.2602Z-0.058
G1X2.0725Y0.2547Z-0.0582
G1X2.0719Y0.249Z-0.0582
G1X2.07Y0.249Z-0.0582
G1X2.0706Y0.2429Z-0.0584
G1X2.0725Y0.237Z-0.0584
G1X2.0756Y0.2317Z-0.0585
G1X2.0797Y0.2271Z-0.0585
G1X2.0847Y0.2235Z-0.0585
G1X2.0903Y0.221Z-0.0585
G1X2.0963Y0.2197Z-0.0585
G1X2.1025Y0.2197Z-0.0585
G1X2.1085Y0.221Z-0.0583
G1X2.1141Y0.2235Z-0.0583
G1X2.1161Y0.225Z-0.0582
G1X2.1191Y0.2271Z-0.0581
G1X2.1232Y0.2317Z-0.0581
G1X2.1263Y0.237Z-0.058
G1X2.1282Y0.2429Z-0.0579
G1X2.1289Y0.249Z-0.0578
G1X2.1282Y0.2551Z-0.0577
G1X2.1263Y0.261Z-0.0576
G1X2.1232Y0.2663Z-0.0576
G1X2.1191Y0.2709Z-0.0576
G1X2.1161Y0.273Z-0.0576
G1X2.1141Y0.2745Z-0.0576
G1X2.1085Y0.277Z-0.0576
G1X2.1025Y0.2783Z-0.0576
G1X2.0963Y0.2783Z-0.0576
G1X2.0903Y0.277Z-0.0578
G1X2.0847Y0.2745Z-0.0578
G1X2.0797Y0.2709Z-0.0579
G1X2.0756Y0.2663Z-0.058
G1X2.0725Y0.261Z-0.058
G1X2.0706Y0.2551Z-0.0582
G1X2.07Y0.249Z-0.0582
G04 P0 ( dwell for no time -- G64 should not smooth over this point )
G0X2.07Y0.249Z0.0264
(Block-name: block [autolevel:2])
(Block-expand: 0)
(Block-enable: 1)

G0X2.0424Y0.2481Z0.0262
G01 F3.93701
( Mill infeed pass 1/1 )
G1X2.0424Y0.2481Z-0.0585
G04 P0 ( dwell for no time -- G64 should not smooth over this point )
G01 F7.87402
G1X2.0424Y0.2481Z-0.0585
G1X2.0436Y0.2371Z-0.0586
G1X2.0471Y0.2262Z-0.0588
G1X2.0532Y0.2155Z-0.0589
G1X2.0615Y0.2063Z-0.0589
G1X2.0709Y0.1996Z-0.0589
G1X2.077Y0.1969Z-0.0589
G1X2.0771Y0.1969Z-0.0589
G1X2.0818Y0.1947Z-0.0589
G1X2.0938Y0.1922Z-0.0589
G1X2.1044Y0.1922Z-0.0588
G1X2.1068Y0.1925Z-0.0588
G1X2.116Y0.1945Z-0.0587
G1X2.1161Y0.1945Z-0.0587
G1X2.1184Y0.1953Z-0.0586
G1X2.1218Y0.1969Z-0.0586
G1X2.1219Y0.1969Z-0.0586
G1X2.1283Y0.1998Z-0.0585
G1X2.1365Y0.2057Z-0.0583
G1X2.1383Y0.2073Z-0.0583
G1X2.1454Y0.2152Z-0.0581
G1X2.1516Y0.2258Z-0.0579
G1X2.1553Y0.2371Z-0.0577
G1X2.1565Y0.249Z-0.0575
G1X2.1551Y0.2613Z-0.0574
G1X2.1514Y0.2726Z-0.0572
G1X2.1456Y0.2826Z-0.0572
G1X2.1379Y0.2912Z-0.0571
G1X2.1279Y0.2985Z-0.0571
G1X2.117Y0.3033Z-0.0572
G1X2.1161Y0.3035Z-0.0572
G1X2.1054Y0.3058Z-0.0572
G1X2.0949Y0.3059Z-0.0573
G1X2.0924Y0.3056Z-0.0573
G1X2.0818Y0.3033Z-0.0575
G1X2.0722Y0.2991Z-0.0575
G1X2.0697Y0.2977Z-0.0576
G1X2.0623Y0.2923Z-0.0577
G1X2.0605Y0.2907Z-0.0577
G1X2.053Y0.2822Z-0.0579
G1X2.0471Y0.2718Z-0.0581
G1X2.0436Y0.2609Z-0.0583
G1X2.0424Y0.2504Z-0.0584
G1X2.0424Y0.2481Z-0.0585
G1X2.0404Y0.2481Z-0.0585
G1X2.0404Y0.2506Z-0.0585
G1X2.0417Y0.2613Z-0.0583
G1X2.0455Y0.273Z-0.0581
G1X2.0516Y0.2837Z-0.0579
G1X2.0587Y0.2917Z-0.0577
G1X2.0612Y0.2939Z-0.0577
G1X2.0685Y0.2993Z-0.0576
G1X2.0714Y0.3009Z-0.0575
G1X2.0812Y0.3052Z-0.0574
G1X2.0916Y0.3075Z-0.0573
G1X2.0949Y0.3078Z-0.0573
G1X2.1056Y0.3078Z-0.0572
G1X2.1161Y0.3055Z-0.0571
G1X2.1177Y0.3052Z-0.0571
G1X2.1289Y0.3002Z-0.0571
G1X2.1389Y0.2929Z-0.0571
G1X2.1472Y0.2837Z-0.0572
G1X2.1534Y0.273Z-0.0572
G1X2.1572Y0.2613Z-0.0574
G1X2.1585Y0.249Z-0.0575
G1X2.1572Y0.2367Z-0.0577
G1X2.1534Y0.225Z-0.0579
G1X2.1472Y0.2143Z-0.0581
G1X2.1401Y0.2063Z-0.0583
G1X2.1376Y0.2041Z-0.0583
G1X2.1289Y0.1979Z-0.0585
G1X2.1267Y0.1969Z-0.0586
G1X2.1266Y0.1969Z-0.0586
G1X2.1192Y0.1935Z-0.0586
G1X2.1161Y0.1924Z-0.0587
G1X2.1161Y0.1924Z-0.0587
G1X2.1072Y0.1905Z-0.0588
G1X2.1039Y0.1902Z-0.0588
G1X2.0932Y0.1903Z-0.0589
G1X2.0812Y0.1928Z-0.0589
G1X2.0723Y0.1969Z-0.0589
G1X2.0722Y0.1969Z-0.0589
G1X2.0699Y0.1979Z-0.0589
G1X2.0599Y0.2051Z-0.0589
G1X2.0516Y0.2143Z-0.0589
G1X2.0455Y0.225Z-0.0588
G1X2.0417Y0.2367Z-0.0586
G1X2.0404Y0.2481Z-0.0585
G04 P0 ( dwell for no time -- G64 should not smooth over this point )
G0X2.0404Y0.2481Z0.0262
(Block-name: block [autolevel:2])
(Block-expand: 0)
(Block-enable: 1)

G0X1.9029Y0.2482Z0.0251
G0X1.4764Y0.2485Z0.0225
G0X1.0499Y0.2488Z0.0206
G0X0.8366Y0.249Z0.0198
G0X0.7884Y0.249Z0.0195
G01 F3.93701
( Mill infeed pass 1/1 )
G1X0.7884Y0.249Z-0.0651
G04 P0 ( dwell for no time -- G64 should not smooth over this point )
G01 F7.87402
G1X0.7884Y0.249Z-0.0651
G1X0.7895Y0.2384Z-0.0653
G1X0.7928Y0.2282Z-0.0653
G1X0.7982Y0.219Z-0.0653
G1X0.8053Y0.211Z-0.0653
G1X0.814Y0.2047Z-0.0653
G1X0.8238Y0.2004Z-0.0653
G1X0.8342Y0.1981Z-0.0653
G1X0.8366Y0.1981Z-0.0653
G1X0.8449Y0.1981Z-0.0652
G1X0.8554Y0.2004Z-0.0652
G1X0.8651Y0.2047Z-0.0651
G1X0.8738Y0.211Z-0.065
G1X0.881Y0.219Z-0.065
G1X0.8863Y0.2282Z-0.0648
G1X0.8896Y0.2384Z-0.0648
G1X0.8907Y0.249Z-0.0646
G1X0.8896Y0.2596Z-0.0646
G1X0.8863Y0.2698Z-0.0645
G1X0.881Y0.2791Z-0.0644
G1X0.8738Y0.287Z-0.0644
G1X0.8651Y0.2933Z-0.0644
G1X0.8554Y0.2977Z-0.0644
G1X0.8449Y0.2999Z-0.0644
G1X0.8366Y0.2999Z-0.0644
G1X0.8342Y0.2999Z-0.0644
G1X0.8238Y0.2977Z-0.0646
G1X0.814Y0.2933Z-0.0646
G1X0.8053Y0.287Z-0.0647
G1X0.7982Y0.2791Z-0.0648
G1X0.7928Y0.2698Z-0.0649
G1X0.7895Y0.2596Z-0.0651
G1X0.7884Y0.249Z-0.0651
G1X0.7864Y0.249Z-0.0651
G1X0.7876Y0.238Z-0.0653
G1X0.791Y0.2274Z-0.0653
G1X0.7966Y0.2178Z-0.0653
G1X0.804Y0.2095Z-0.0653
G1X0.813Y0.203Z-0.0653
G1X0.8232Y0.1985Z-0.0653
G1X0.8309Y0.1969Z-0.0653
G1X0.8311Y0.1969Z-0.0653
G1X0.834Y0.1962Z-0.0653
G1X0.8366Y0.1962Z-0.0653
G1X0.8451Y0.1962Z-0.0653
G1X0.848Y0.1969Z-0.0652
G1X0.8482Y0.1969Z-0.0652
G1X0.856Y0.1985Z-0.0652
G1X0.8661Y0.203Z-0.0651
G1X0.8751Y0.2095Z-0.065
G1X0.8825Y0.2178Z-0.065
G1X0.8881Y0.2274Z-0.0648
G1X0.8915Y0.238Z-0.0648
G1X0.8927Y0.249Z-0.0646
G1X0.8915Y0.2601Z-0.0646
G1X0.8881Y0.2706Z-0.0645
G1X0.8825Y0.2802Z-0.0644
G1X0.8751Y0.2885Z-0.0644
G1X0.8661Y0.295Z-0.0644
G1X0.856Y0.2995Z-0.0644
G1X0.8451Y0.3018Z-0.0644
G1X0.8366Y0.3018Z-0.0644
G1X0.834Y0.3018Z-0.0644
G1X0.8232Y0.2995Z-0.0646
G1X0.813Y0.295Z-0.0646
G1X0.804Y0.2885Z-0.0647
G1X0.7966Y0.2802Z-0.0648
G1X0.791Y0.2706Z-0.0649
G1X0.7876Y0.2601Z-0.0651
G1X0.7864Y0.249Z-0.0651
G04 P0 ( dwell for no time -- G64 should not smooth over this point )
G0X0.7864Y0.249Z0.0195
(Block-name: block [autolevel:2])
(Block-expand: 0)
(Block-enable: 1)

G0X0.7746Y0.2488Z0.0194
G01 F3.93701
( Mill infeed pass 1/1 )
G1X0.7746Y0.2488Z-0.0652
G04 P0 ( dwell for no time -- G64 should not smooth over this point )
G01 F7.87402
G1X0.7746Y0.2488Z-0.0652
G1X0.776Y0.2625Z-0.0651
G1X0.7804Y0.2758Z-0.0649
G1X0.787Y0.2872Z-0.0649
G1X0.7957Y0.2969Z-0.0647
G1X0.8067Y0.305Z-0.0646
G1X0.8193Y0.3107Z-0.0644
G1X0.833Y0.3136Z-0.0644
G1X0.8366Y0.3136Z-0.0644
G1X0.8464Y0.3136Z-0.0643
G1X0.8596Y0.3108Z-0.0643
G1X0.872Y0.3053Z-0.0643
G1X0.8833Y0.297Z-0.0643
G1X0.8923Y0.2868Z-0.0644
G1X0.8989Y0.2754Z-0.0644
G1X0.903Y0.2629Z-0.0645
G1X0.9045Y0.249Z-0.0646
G1X0.9031Y0.2355Z-0.0648
G1X0.8989Y0.2226Z-0.0648
G1X0.8919Y0.2105Z-0.065
G1X0.8832Y0.2009Z-0.0651
G1X0.8777Y0.1969Z-0.0652
G1X0.8776Y0.1969Z-0.0652
G1X0.8724Y0.193Z-0.0652
G1X0.8602Y0.1875Z-0.0653
G1X0.8461Y0.1844Z-0.0654
G1X0.8366Y0.1844Z-0.0654
G1X0.8328Y0.1844Z-0.0654
G1X0.8195Y0.1872Z-0.0655
G1X0.8067Y0.193Z-0.0655
G1X0.8015Y0.1969Z-0.0655
G1X0.8014Y0.1969Z-0.0655
G1X0.7961Y0.2007Z-0.0655
G1X0.7873Y0.2105Z-0.0655
G1X0.7804Y0.2222Z-0.0654
G1X0.776Y0.2355Z-0.0653
G1X0.7746Y0.2488Z-0.0652
G1X0.7726Y0.2488Z-0.0652
G1X0.7741Y0.2629Z-0.0651
G1X0.7782Y0.2757Z-0.0649
G1X0.7787Y0.2768Z-0.0649
G1X0.7854Y0.2883Z-0.0649
G1X0.7942Y0.2982Z-0.0647
G1X0.7951Y0.299Z-0.0647
G1X0.8056Y0.3066Z-0.0646
G1X0.8066Y0.3073Z-0.0646
G1X0.8187Y0.3126Z-0.0644
G1X0.8322Y0.3155Z-0.0644
G1X0.8334Y0.3156Z-0.0644
G1X0.8366Y0.3156Z-0.0643
G1X0.8466Y0.3156Z-0.0643
G1X0.8602Y0.3127Z-0.0642
G1X0.873Y0.307Z-0.0642
G1X0.8843Y0.2988Z-0.0643
G1X0.8937Y0.2884Z-0.0643
G1X0.9007Y0.2762Z-0.0644
G1X0.905Y0.2629Z-0.0645
G1X0.9065Y0.249Z-0.0646
G1X0.905Y0.2351Z-0.0648
G1X0.9007Y0.2218Z-0.0648
G1X0.8937Y0.2097Z-0.065
G1X0.8849Y0.1999Z-0.0651
G1X0.884Y0.199Z-0.0651
G1X0.881Y0.1969Z-0.0651
G1X0.8809Y0.1969Z-0.0651
G1X0.873Y0.1911Z-0.0652
G1X0.861Y0.1857Z-0.0653
G1X0.8598Y0.1853Z-0.0653
G1X0.847Y0.1825Z-0.0654
G1X0.8457Y0.1824Z-0.0654
G1X0.8366Y0.1825Z-0.0654
G1X0.8326Y0.1825Z-0.0654
G1X0.8189Y0.1854Z-0.0655
G1X0.8061Y0.1911Z-0.0655
G1X0.7982Y0.1969Z-0.0655
G1X0.7981Y0.1969Z-0.0655
G1X0.7948Y0.1993Z-0.0655
G1X0.7854Y0.2097Z-0.0655
G1X0.7784Y0.2218Z-0.0654
G1X0.7741Y0.2351Z-0.0653
G1X0.7726Y0.2488Z-0.0652
G04 P0 ( dwell for no time -- G64 should not smooth over this point )
G0X0.7726Y0.2488Z0.0194
(Block-name: block [autolevel:2])
(Block-expand: 0)
(Block-enable: 1)

G0X0.1969Y0.3967Z0.0173
G0X0.1969Y0.3967Z0.0173
G0X0.1585Y0.4065Z0.0171
G01 F3.93701
( Mill infeed pass 1/1 )
G1X0.1585Y0.4065Z-0.0675
G04 P0 ( dwell for no time -- G64 should not smooth over this point )
G01 F7.87402
G1X0.1585Y0.4065Z-0.0675
G1X0.1613Y0.3795Z-0.0677
G1X0.1697Y0.3537Z-0.0678
G1X0.1833Y0.3301Z-0.0679
G1X0.1969Y0.3152Z-0.0679
G1X0.1969Y0.3151Z-0.0679
G1X0.2015Y0.31Z-0.0679
G1X0.2234Y0.294Z-0.0679
G1X0.2482Y0.283Z-0.0678
G1X0.2748Y0.2773Z-0.0678
G1X0.302Y0.2773Z-0.0676
G1X0.3285Y0.283Z-0.0673
G1X0.3533Y0.294Z-0.0672
G1X0.3753Y0.31Z-0.067
G1X0.3935Y0.3301Z-0.0667
G1X0.407Y0.3537Z-0.0665
G1X0.4154Y0.3795Z-0.0662
G1X0.4183Y0.4065Z-0.066
G1X0.4154Y0.4335Z-0.0658
G1X0.407Y0.4593Z-0.0657
G1X0.3935Y0.4828Z-0.0656
G1X0.3753Y0.503Z-0.0656
G1X0.3533Y0.519Z-0.0656
G1X0.3285Y0.53Z-0.0657
G1X0.302Y0.5357Z-0.0658
G1X0.2748Y0.5357Z-0.0659
G1X0.2482Y0.53Z-0.0662
G1X0.2234Y0.519Z-0.0664
G1X0.2015Y0.503Z-0.0666
G1X0.1969Y0.4979Z-0.0667
G1X0.1969Y0.4978Z-0.0667
G1X0.1833Y0.4828Z-0.0669
G1X0.1697Y0.4593Z-0.0671
G1X0.1613Y0.4335Z-0.0674
G1X0.1585Y0.4065Z-0.0675
G1X0.1565Y0.4065Z-0.0675
G1X0.1594Y0.4339Z-0.0674
G1X0.1679Y0.4601Z-0.0671
G1X0.1817Y0.484Z-0.0669
G1X0.1969Y0.5007Z-0.0667
G1X0.1969Y0.5008Z-0.0667
G1X0.2002Y0.5045Z-0.0666
G1X0.2225Y0.5207Z-0.0664
G1X0.2476Y0.5319Z-0.0662
G1X0.2746Y0.5376Z-0.0659
G1X0.3022Y0.5376Z-0.0658
G1X0.3291Y0.5319Z-0.0656
G1X0.3543Y0.5207Z-0.0656
G1X0.3766Y0.5045Z-0.0656
G1X0.3951Y0.484Z-0.0656
G1X0.4088Y0.4601Z-0.0657
G1X0.4174Y0.4339Z-0.0658
G1X0.4202Y0.4065Z-0.066
G1X0.4174Y0.3791Z-0.0662
G1X0.4088Y0.3529Z-0.0665
G1X0.3951Y0.329Z-0.0667
G1X0.3766Y0.3085Z-0.067
G1X0.3543Y0.2923Z-0.0672
G1X0.3291Y0.2811Z-0.0673
G1X0.3022Y0.2754Z-0.0676
G1X0.2746Y0.2754Z-0.0678
G1X0.2476Y0.2811Z-0.0678
G1X0.2225Y0.2923Z-0.0679
G1X0.2002Y0.3085Z-0.0679
G1X0.1969Y0.3122Z-0.0679
G1X0.1969Y0.3123Z-0.0679
G1X0.1817Y0.329Z-0.0679
G1X0.1679Y0.3529Z-0.0679
G1X0.1594Y0.3791Z-0.0677
G1X0.1565Y0.4065Z-0.0675
G04 P0 ( dwell for no time -- G64 should not smooth over this point )
G0X0.1565Y0.4065Z0.0171
(Block-name: block [autolevel:2])
(Block-expand: 0)
(Block-enable: 1)

G0X0.1447Y0.4063Z0.0171
G01 F3.93701
( Mill infeed pass 1/1 )
G1X0.1447Y0.4063Z-0.0676
G04 P0 ( dwell for no time -- G64 should not smooth over this point )
G01 F7.87402
G1X0.1447Y0.4063Z-0.0676
G1X0.1478Y0.3766Z-0.0677
G1X0.157Y0.3484Z-0.0679
G1X0.1721Y0.322Z-0.068
G1X0.1922Y0.2997Z-0.0681
G1X0.1969Y0.2963Z-0.0681
G1X0.1969Y0.2963Z-0.0681
G1X0.2162Y0.2823Z-0.068
G1X0.244Y0.2698Z-0.0679
G1X0.2734Y0.2636Z-0.0678
G1X0.3028Y0.2636Z-0.0676
G1X0.333Y0.2699Z-0.0675
G1X0.3606Y0.2823Z-0.0672
G1X0.3847Y0.2999Z-0.067
G1X0.4044Y0.3217Z-0.0667
G1X0.4197Y0.3481Z-0.0664
G1X0.4289Y0.3766Z-0.0662
G1X0.4321Y0.4065Z-0.066
G1X0.4288Y0.4368Z-0.0657
G1X0.4197Y0.4649Z-0.0656
G1X0.4049Y0.4906Z-0.0655
G1X0.3848Y0.513Z-0.0655
G1X0.3602Y0.531Z-0.0655
G1X0.3328Y0.5432Z-0.0656
G1X0.3034Y0.5494Z-0.0657
G1X0.2736Y0.5494Z-0.0659
G1X0.244Y0.5432Z-0.0661
G1X0.2164Y0.5308Z-0.0664
G1X0.1969Y0.5166Z-0.0666
G1X0.1969Y0.5166Z-0.0666
G1X0.1921Y0.5131Z-0.0666
G1X0.1719Y0.4906Z-0.0669
G1X0.157Y0.4646Z-0.0672
G1X0.1478Y0.4364Z-0.0674
G1X0.1447Y0.4063Z-0.0676
G1X0.1427Y0.4063Z-0.0676
G1X0.1459Y0.4368Z-0.0674
G1X0.1553Y0.4657Z-0.0672
G1X0.1705Y0.4921Z-0.0669
G1X0.1903Y0.5142Z-0.0666
G1X0.1913Y0.515Z-0.0666
G1X0.1969Y0.5191Z-0.0666
G1X0.1969Y0.5191Z-0.0666
G1X0.2152Y0.5324Z-0.0664
G1X0.2163Y0.533Z-0.0664
G1X0.2434Y0.545Z-0.0661
G1X0.2728Y0.5513Z-0.0659
G1X0.274Y0.5514Z-0.0659
G1X0.3036Y0.5514Z-0.0657
G1X0.3334Y0.545Z-0.0656
G1X0.3612Y0.5326Z-0.0655
G1X0.3859Y0.5148Z-0.0655
G1X0.4062Y0.4921Z-0.0655
G1X0.4215Y0.4657Z-0.0656
G1X0.4309Y0.4368Z-0.0657
G1X0.4341Y0.4065Z-0.066
G1X0.4309Y0.3762Z-0.0662
G1X0.4215Y0.3473Z-0.0664
G1X0.4062Y0.3209Z-0.0667
G1X0.3864Y0.2988Z-0.067
G1X0.3855Y0.298Z-0.067
G1X0.3612Y0.2803Z-0.0672
G1X0.3342Y0.2682Z-0.0675
G1X0.333Y0.2679Z-0.0675
G1X0.304Y0.2617Z-0.0677
G1X0.3028Y0.2616Z-0.0677
G1X0.2732Y0.2616Z-0.0678
G1X0.2434Y0.268Z-0.0679
G1X0.2156Y0.2803Z-0.0681
G1X0.1969Y0.2939Z-0.0681
G1X0.1969Y0.2939Z-0.0681
G1X0.1909Y0.2982Z-0.0681
G1X0.1705Y0.3209Z-0.068
G1X0.1553Y0.3473Z-0.0679
G1X0.1459Y0.3762Z-0.0677
G1X0.1427Y0.4063Z-0.0676
G04 P0 ( dwell for no time -- G64 should not smooth over this point )
G0X0.1427Y0.4063Z0.0171
(Block-name: block [autolevel:2])
(Block-expand: 0)
(Block-enable: 1)

G0X0.0761Y0.1969Z0.0153
G0X0.0761Y0.1969Z0.0153
G0X0.0197Y0.0197Z0.014
G01 F3.93701
( Mill infeed pass 1/1 )
G1X0.0197Y0.0197Z-0.0706
G04 P0 ( dwell for no time -- G64 should not smooth over this point )
G01 F7.87402
G1X0.0197Y0.0197Z-0.0706
G1X0.1969Y0.0197Z-0.0698
G1X0.1969Y0.0197Z-0.0698
G1X0.8366Y0.0197Z-0.0667
G1X1.0499Y0.0197Z-0.0662
G1X1.4764Y0.0197Z-0.0647
G1X1.9029Y0.0197Z-0.0626
G1X2.1161Y0.0197Z-0.0611
G1X2.7559Y0.0197Z-0.0557
G1X2.7559Y0.0197Z-0.0557
G1X2.9193Y0.0197Z-0.0543
G1X2.9199Y0.0191Z-0.0543
G1X2.9193Y0.0197Z-0.0543
G1X2.9193Y0.1969Z-0.0514
G1X2.9193Y0.1969Z-0.0514
G1X2.9193Y0.8366Z-0.0414
G1X2.9193Y1.0499Z-0.0389
G1X2.9193Y1.4764Z-0.0351
G1X2.9193Y1.9029Z-0.0319
G1X2.9193Y2.1161Z-0.0305
G1X2.9193Y2.7559Z-0.027
G1X2.9193Y2.7559Z-0.027
G1X2.9193Y2.8012Z-0.0268
G1X2.9199Y2.8018Z-0.0268
G1X2.9193Y2.8012Z-0.0268
G1X2.7559Y2.8012Z-0.0277
G1X2.7559Y2.8012Z-0.0277
G1X2.1161Y2.8012Z-0.0313
G1X1.9029Y2.8012Z-0.033
G1X1.4764Y2.8012Z-0.0371
G1X1.0499Y2.8012Z-0.042
G1X0.8366Y2.8012Z-0.0451
G1X0.1969Y2.8012Z-0.0568
G1X0.1969Y2.8012Z-0.0568
G1X0.0197Y2.8012Z-0.06
G1X0.0191Y2.8018Z-0.06
G1X0.0197Y2.8012Z-0.06
G1X0.0197Y2.7559Z-0.0601
G1X0.0197Y2.7559Z-0.0601
G1X0.0197Y2.1161Z-0.0625
G1X0.0197Y1.9029Z-0.063
G1X0.0197Y1.4764Z-0.0637
G1X0.0197Y1.0499Z-0.0648
G1X0.0197Y0.8366Z-0.0657
G1X0.0197Y0.1969Z-0.0696
G1X0.0197Y0.1969Z-0.0696
G1X0.0197Y0.0197Z-0.0706
G1X0.0177Y0.0177Z-0.0707
G1X0.0177Y0.1969Z-0.0696
G1X0.0177Y0.1969Z-0.0696
G1X0.0177Y0.8366Z-0.0657
G1X0.0177Y1.0499Z-0.0648
G1X0.0177Y1.4764Z-0.0637
G1X0.0177Y1.9029Z-0.063
G1X0.0177Y2.1161Z-0.0626
G1X0.0177Y2.7559Z-0.0603
G1X0.0177Y2.7559Z-0.0603
G1X0.0177Y2.8032Z-0.06
G1X0.1969Y2.8032Z-0.0568
G1X0.1969Y2.8032Z-0.0568
G1X0.8366Y2.8032Z-0.0451
G1X1.0499Y2.8032Z-0.0419
G1X1.4764Y2.8032Z-0.0371
G1X1.9029Y2.8032Z-0.033
G1X2.1161Y2.8032Z-0.0313
G1X2.7559Y2.8032Z-0.0277
G1X2.7559Y2.8032Z-0.0277
G1X2.9213Y2.8032Z-0.0267
G1X2.9213Y2.7559Z-0.027
G1X2.9213Y2.7559Z-0.027
G1X2.9213Y2.1161Z-0.0305
G1X2.9213Y1.9029Z-0.0318
G1X2.9213Y1.4764Z-0.0351
G1X2.9213Y1.0499Z-0.0389
G1X2.9213Y0.8366Z-0.0414
G1X2.9213Y0.1969Z-0.0514
G1X2.9213Y0.1969Z-0.0514
G1X2.9213Y0.0177Z-0.0543
G1X2.7559Y0.0177Z-0.0557
G1X2.7559Y0.0177Z-0.0557
G1X2.1161Y0.0177Z-0.0611
G1X1.9029Y0.0177Z-0.0626
G1X1.4764Y0.0177Z-0.0647
G1X1.0499Y0.0177Z-0.0662
G1X0.8366Y0.0177Z-0.0667
G1X0.1969Y0.0177Z-0.0698
G1X0.1969Y0.0177Z-0.0698
G1X0.0177Y0.0177Z-0.0707
G04 P0 ( dwell for no time -- G64 should not smooth over this point )
G0X0.0177Y0.0177Z0.0139
(Block-name: block [autolevel:2])
(Block-expand: 0)
(Block-enable: 1)

G0X0.0079Y0.0128Z0.0139
G01 F3.93701
( Mill infeed pass 1/1 )
G1X0.0079Y0.0128Z-0.0708
G04 P0 ( dwell for no time -- G64 should not smooth over this point )
G01 F7.87402
G1X0.0079Y0.0128Z-0.0708
G1X0.008Y0.012Z-0.0708
G1X0.0085Y0.0106Z-0.0708
G1X0.0093Y0.0093Z-0.0708
G1X0.0106Y0.0085Z-0.0708
G1X0.0118Y0.008Z-0.0708
G1X0.0128Y0.0079Z-0.0708
G1X0.1969Y0.0079Z-0.0699
G1X0.1969Y0.0079Z-0.0699
G1X0.8366Y0.0079Z-0.0668
G1X1.0499Y0.0079Z-0.0662
G1X1.4764Y0.0079Z-0.0648
G1X1.9029Y0.0079Z-0.0628
G1X2.1161Y0.0079Z-0.0613
G1X2.7559Y0.0079Z-0.0559
G1X2.7559Y0.0079Z-0.0559
G1X2.9262Y0.0079Z-0.0543
G1X2.9272Y0.008Z-0.0543
G1X2.9284Y0.0085Z-0.0543
G1X2.9297Y0.0093Z-0.0543
G1X2.9305Y0.0106Z-0.0543
G1X2.931Y0.0118Z-0.0543
G1X2.9311Y0.0128Z-0.0543
G1X2.9311Y0.1969Z-0.0514
G1X2.9311Y0.1969Z-0.0514
G1X2.9311Y0.8366Z-0.0413
G1X2.9311Y1.0499Z-0.0387
G1X2.9311Y1.4764Z-0.0349
G1X2.9311Y1.9029Z-0.0317
G1X2.9311Y2.1161Z-0.0304
G1X2.9311Y2.7559Z-0.027
G1X2.9311Y2.7559Z-0.027
G1X2.9311Y2.8081Z-0.0266
G1X2.931Y2.8091Z-0.0266
G1X2.9305Y2.8103Z-0.0266
G1X2.9297Y2.8115Z-0.0266
G1X2.9284Y2.8124Z-0.0266
G1X2.927Y2.8129Z-0.0266
G1X2.9262Y2.813Z-0.0266
G1X2.7559Y2.813Z-0.0276
G1X2.7559Y2.813Z-0.0276
G1X2.1161Y2.813Z-0.0313
G1X1.9029Y2.813Z-0.0329
G1X1.4764Y2.813Z-0.0371
G1X1.0499Y2.813Z-0.0419
G1X0.8366Y2.813Z-0.045
G1X0.1969Y2.813Z-0.0567
G1X0.1969Y2.813Z-0.0567
G1X0.0128Y2.813Z-0.0601
G1X0.0113Y2.8127Z-0.0601
G1X0.0095Y2.8118Z-0.0601
G1X0.0085Y2.8103Z-0.0601
G1X0.008Y2.8088Z-0.0602
G1X0.0079Y2.8081Z-0.0602
G1X0.0079Y2.7559Z-0.0604
G1X0.0079Y2.7559Z-0.0604
G1X0.0079Y2.1161Z-0.0627
G1X0.0079Y1.9029Z-0.0632
G1X0.0079Y1.4764Z-0.0639
G1X0.0079Y1.0499Z-0.065
G1X0.0079Y0.8366Z-0.0658
G1X0.0079Y0.1969Z-0.0696
G1X0.0079Y0.1969Z-0.0696
G1X0.0079Y0.0128Z-0.0708
G1X0.0059Y0.0128Z-0.0708
G1X0.0059Y0.1969Z-0.0696
G1X0.0059Y0.1969Z-0.0696
G1X0.0059Y0.8366Z-0.0658
G1X0.0059Y1.0499Z-0.065
G1X0.0059Y1.4764Z-0.0639
G1X0.0059Y1.9029Z-0.0632
G1X0.0059Y2.1161Z-0.0628
G1X0.0059Y2.7559Z-0.0604
G1X0.0059Y2.7559Z-0.0604
G1X0.0059Y2.8081Z-0.0603
G1X0.006Y2.8092Z-0.0603
G1X0.0063Y2.8103Z-0.0602
G1X0.0071Y2.8119Z-0.0602
G1X0.0076Y2.8126Z-0.0602
G1X0.009Y2.8138Z-0.0601
G1X0.0098Y2.8142Z-0.0601
G1X0.0116Y2.8148Z-0.0601
G1X0.0128Y2.815Z-0.0601
G1X0.1969Y2.815Z-0.0567
G1X0.1969Y2.815Z-0.0567
G1X0.8366Y2.815Z-0.045
G1X1.0499Y2.815Z-0.0419
G1X1.4764Y2.815Z-0.037
G1X1.9029Y2.815Z-0.0329
G1X2.1161Y2.815Z-0.0313
G1X2.7559Y2.815Z-0.0276
G1X2.7559Y2.815Z-0.0276
G1X2.9262Y2.815Z-0.0266
G1X2.9273Y2.8148Z-0.0266
G1X2.9291Y2.8142Z-0.0266
G1X2.93Y2.8138Z-0.0266
G1X2.9314Y2.8126Z-0.0266
G1X2.9319Y2.8119Z-0.0266
G1X2.9326Y2.8103Z-0.0266
G1X2.933Y2.8088Z-0.0266
G1X2.9331Y2.8081Z-0.0266
G1X2.9331Y2.7559Z-0.027
G1X2.9331Y2.7559Z-0.027
G1X2.9331Y2.1161Z-0.0303
G1X2.9331Y1.9029Z-0.0317
G1X2.9331Y1.4764Z-0.0349
G1X2.9331Y1.0499Z-0.0387
G1X2.9331Y0.8366Z-0.0413
G1X2.9331Y0.1969Z-0.0514
G1X2.9331Y0.1969Z-0.0514
G1X2.9331Y0.0128Z-0.0543
G1X2.9329Y0.0113Z-0.0543
G1X2.9323Y0.0098Z-0.0543
G1X2.9318Y0.0088Z-0.0543
G1X2.931Y0.0079Z-0.0543
G1X2.9302Y0.0072Z-0.0543
G1X2.9291Y0.0066Z-0.0543
G1X2.9277Y0.0061Z-0.0543
G1X2.9262Y0.0059Z-0.0543
G1X2.7559Y0.0059Z-0.0559
G1X2.7559Y0.0059Z-0.0559
G1X2.1161Y0.0059Z-0.0613
G1X1.9029Y0.0059Z-0.0628
G1X1.4764Y0.0059Z-0.0648
G1X1.0499Y0.0059Z-0.0662
G1X0.8366Y0.0059Z-0.0668
G1X0.1969Y0.0059Z-0.0699
G1X0.1969Y0.0059Z-0.0699
G1X0.0128Y0.0059Z-0.0708
G1X0.012Y0.006Z-0.0708
G1X0.0105Y0.0064Z-0.0708
G1X0.009Y0.0071Z-0.0708
G1X0.0083Y0.0076Z-0.0708
G1X0.0071Y0.009Z-0.0708
G1X0.0066Y0.0098Z-0.0708
G1X0.006Y0.0116Z-0.0708
G1X0.0059Y0.0128Z-0.0708

G04 P0 ( dwell for no time -- G64 should not smooth over this point )
G0X0.0059Y0.0128Z0.3288
(Block-name: block [autolevel:2])
(Block-expand: 0)
(Block-enable: 1)

M5 ( Spindle off. )
G04 P1.000000
M9 ( Coolant off. )
M2 ( Program end. )

( pcb2gcode 2.5.0 )
( Software-independent Gcode )

G94 ( Inches per minute feed rate. )
G20 ( Units == INCHES. )

G90 ( Absolute coordinates. )
G00 S12000 ( RPM spindle speed. )
G01 F7.87402 ( Feedrate. )


G0X0.0059Y0.0128Z0.3605
T0
M5      (Spindle stop.)
G04 P1.00000 (Wait for spindle to stop)
(MSG, Change tool bit to mill diameter 0.00787in)
M0      (Temporary machine stop.)
M3 ( Spindle on clockwise. )
G04 P1.00000 (Wait for spindle to get up to speed)
G04 P0 ( dwell for no time -- G64 should not smooth over this point )
G0X0.0059Y0.0128Z0.0455

G0X0.044Y0.1969Z0.0463
G0X0.1764Y0.8366Z0.0493
G0X0.1969Y0.9353Z0.0496
G0X0.3089Y1.4764Z0.0515
G0X0.4413Y2.1161Z0.0539
G0X0.5476Y2.6299Z0.0566
G01 F3.93701
( Mill infeed pass 1/1 )
G1X0.5476Y2.6299Z-0.028
G04 P0 ( dwell for no time -- G64 should not smooth over this point )
G01 F7.87402
G01 X0.54764 Y2.62988
G1X0.5484Y2.637Z-0.028
G1X0.5486Y2.6383Z-0.028
G1X0.5509Y2.6451Z-0.0279
G1X0.5548Y2.6519Z-0.0279
G1X0.5596Y2.6572Z-0.0278
G1X0.5605Y2.6581Z-0.0278
G1X0.5663Y2.6623Z-0.0277
G1X0.5735Y2.6654Z-0.0276
G1X0.5811Y2.6671Z-0.0276
G1X0.5883Y2.6671Z-0.0275
G1X0.5896Y2.667Z-0.0275
G1X0.5969Y2.6653Z-0.0274
G1X0.6441Y2.6653Z-0.0269
G1X0.6492Y2.6649Z-0.0269
G1X0.6555Y2.6634Z-0.0268
G1X0.6606Y2.6612Z-0.0268
G1X0.6653Y2.6583Z-0.0267
G1X0.6692Y2.6549Z-0.0267
G1X0.7085Y2.6156Z-0.0265
G1X0.7129Y2.6102Z-0.0265
G1X0.7159Y2.6046Z-0.0264
G1X0.7164Y2.6035Z-0.0264
G1X0.7182Y2.5974Z-0.0264
G1X0.7189Y2.5911Z-0.0265
G1X0.7189Y2.4488Z-0.027
G1X0.7183Y2.4482Z-0.027
G1X0.7189Y2.4488Z-0.027
G1X0.8366Y2.4488Z-0.0259
G1X1.2987Y2.4488Z-0.023
G1X1.2988Y2.4486Z-0.023
G1X1.2987Y2.4488Z-0.023
G1X1.3764Y2.5265Z-0.0222
G1X1.3765Y2.5264Z-0.0222
G1X1.3764Y2.5265Z-0.0222
G1X1.3765Y2.5854Z-0.0219
G1X1.3747Y2.5874Z-0.0219
G1X1.373Y2.5902Z-0.0219
G1X1.372Y2.5933Z-0.0219
G1X1.3717Y2.5966Z-0.0219
G1X1.3717Y2.6638Z-0.0216
G1X1.372Y2.6664Z-0.0216
G1X1.3728Y2.669Z-0.0215
G1X1.3743Y2.6719Z-0.0215
G1X1.3751Y2.6729Z-0.0215
G1X1.3769Y2.6749Z-0.0215
G1X1.3795Y2.6768Z-0.0215
G1X1.3825Y2.6781Z-0.0214
G1X1.3851Y2.6787Z-0.0214
G1X1.3864Y2.6788Z-0.0214
G1X1.4362Y2.6789Z-0.0211
G1X1.4385Y2.6787Z-0.0211
G1X1.4411Y2.6781Z-0.0211
G1X1.4435Y2.6771Z-0.0211
G1X1.4446Y2.6765Z-0.021
G1X1.4472Y2.6744Z-0.021
G1X1.449Y2.6724Z-0.021
G1X1.4506Y2.6696Z-0.021
G1X1.4516Y2.6664Z-0.021
G1X1.4518Y2.6653Z-0.0211
G1X1.4515Y2.6649Z-0.0211
G1X1.4518Y2.6653Z-0.0211
G1X1.4764Y2.6653Z-0.0209
G1X1.7149Y2.6653Z-0.0197
G1X1.7229Y2.6671Z-0.0197
G1X1.7307Y2.6671Z-0.0196
G1X1.7383Y2.6654Z-0.0196
G1X1.7455Y2.6623Z-0.0196
G1X1.7518Y2.6577Z-0.0196
G1X1.7566Y2.6524Z-0.0196
G1X1.7574Y2.6513Z-0.0196
G1X1.7607Y2.6456Z-0.0196
G1X1.7612Y2.6445Z-0.0196
G1X1.7633Y2.6377Z-0.0196
G1X1.7642Y2.6299Z-0.0196
G1X1.7633Y2.6221Z-0.0197
G1X1.7609Y2.6147Z-0.0197
G1X1.757Y2.6079Z-0.0198
G1X1.7522Y2.6025Z-0.0198
G1X1.7513Y2.6017Z-0.0198
G1X1.746Y2.5978Z-0.0199
G1X1.7449Y2.5972Z-0.0199
G1X1.7383Y2.5943Z-0.0199
G1X1.7307Y2.5927Z-0.02
G1X1.7229Y2.5927Z-0.02
G1X1.7148Y2.5945Z-0.02
G1X1.4764Y2.5945Z-0.0212
G1X1.4518Y2.5945Z-0.0214
G1X1.4515Y2.5949Z-0.0214
G1X1.4518Y2.5945Z-0.0214
G1X1.4516Y2.5933Z-0.0214
G1X1.4506Y2.5902Z-0.0214
G1X1.449Y2.5874Z-0.0214
G1X1.4472Y2.5854Z-0.0214
G1X1.4472Y2.5112Z-0.0218
G1X1.4466Y2.5049Z-0.0218
G1X1.4447Y2.4988Z-0.0219
G1X1.4416Y2.4926Z-0.0219
G1X1.4409Y2.4916Z-0.0219
G1X1.4369Y2.4867Z-0.022
G1X1.3384Y2.3883Z-0.023
G1X1.3335Y2.3842Z-0.0231
G1X1.3275Y2.3809Z-0.0231
G1X1.3264Y2.3804Z-0.0231
G1X1.3203Y2.3786Z-0.0232
G1X1.3134Y2.3779Z-0.0232
G1X0.8953Y2.3779Z-0.0258
G1X0.8947Y2.3785Z-0.0258
G1X0.8953Y2.3779Z-0.0258
G1X0.8952Y2.3358Z-0.026
G1X0.8964Y2.3321Z-0.026
G1X0.8972Y2.3244Z-0.026
G1X0.8964Y2.3166Z-0.026
G1X0.8942Y2.3097Z-0.0261
G1X0.8937Y2.3086Z-0.0261
G1X0.8904Y2.3029Z-0.0261
G1X0.8897Y2.3019Z-0.0261
G1X0.8849Y2.2966Z-0.0262
G1X0.8791Y2.2923Z-0.0262
G1X0.878Y2.2917Z-0.0263
G1X0.8714Y2.2888Z-0.0263
G1X0.8644Y2.2873Z-0.0264
G1X0.8631Y2.2871Z-0.0264
G1X0.8559Y2.2872Z-0.0264
G1X0.8489Y2.2886Z-0.0264
G1X0.8477Y2.289Z-0.0265
G1X0.8411Y2.292Z-0.0265
G1X0.8366Y2.2953Z-0.0265
G1X0.8348Y2.2966Z-0.0265
G1X0.83Y2.3019Z-0.0265
G1X0.8293Y2.3029Z-0.0265
G1X0.8257Y2.3092Z-0.0265
G1X0.8233Y2.3166Z-0.0265
G1X0.8224Y2.3244Z-0.0265
G1X0.8233Y2.3321Z-0.0265
G1X0.8244Y2.3358Z-0.0264
G1X0.8244Y2.3779Z-0.0263
G1X0.825Y2.3785Z-0.0263
G1X0.8244Y2.3779Z-0.0263
G1X0.7032Y2.3779Z-0.0274
G1X0.6962Y2.3786Z-0.0275
G1X0.6901Y2.3804Z-0.0275
G1X0.6891Y2.3809Z-0.0275
G1X0.683Y2.3842Z-0.0276
G1X0.6781Y2.3883Z-0.0276
G1X0.6584Y2.408Z-0.0277
G1X0.6544Y2.4129Z-0.0277
G1X0.651Y2.419Z-0.0278
G1X0.6505Y2.42Z-0.0278
G1X0.6487Y2.4261Z-0.0278
G1X0.6481Y2.4324Z-0.0277
G1X0.648Y2.5758Z-0.0272
G1X0.6482Y2.5759Z-0.0272
G1X0.648Y2.5758Z-0.0272
G1X0.6294Y2.5945Z-0.0273
G1X0.6295Y2.5946Z-0.0273
G1X0.6294Y2.5945Z-0.0273
G1X0.597Y2.5945Z-0.0277
G1X0.5889Y2.5927Z-0.0277
G1X0.5817Y2.5926Z-0.0278
G1X0.5805Y2.5928Z-0.0278
G1X0.5735Y2.5943Z-0.0279
G1X0.5663Y2.5975Z-0.0279
G1X0.56Y2.6021Z-0.028
G1X0.5552Y2.6074Z-0.028
G1X0.5544Y2.6084Z-0.028
G1X0.5509Y2.6147Z-0.028
G1X0.5486Y2.6215Z-0.028
G1X0.5484Y2.6227Z-0.028
G1X0.5476Y2.6299Z-0.028
G1X0.5496Y2.6299Z-0.028
G1X0.5505Y2.6221Z-0.028
G1X0.5527Y2.6155Z-0.028
G1X0.5562Y2.6094Z-0.028
G1X0.5613Y2.6035Z-0.028
G1X0.5673Y2.5992Z-0.0279
G1X0.5741Y2.5962Z-0.0279
G1X0.5817Y2.5946Z-0.0278
G1X0.5887Y2.5946Z-0.0277
G1X0.5956Y2.5961Z-0.0277
G1X0.5966Y2.5964Z-0.0276
G1X0.6302Y2.5964Z-0.0273
G1X0.65Y2.5766Z-0.0272
G1X0.65Y2.4327Z-0.0277
G1X0.6506Y2.4265Z-0.0277
G1X0.6527Y2.4199Z-0.0277
G1X0.6559Y2.4141Z-0.0277
G1X0.6598Y2.4094Z-0.0277
G1X0.6795Y2.3897Z-0.0276
G1X0.6843Y2.3857Z-0.0276
G1X0.69Y2.3826Z-0.0275
G1X0.6966Y2.3805Z-0.0275
G1X0.7032Y2.3799Z-0.0274
G1X0.8264Y2.3799Z-0.0263
G1X0.8264Y2.3355Z-0.0264
G1X0.8252Y2.3317Z-0.0265
G1X0.8244Y2.3244Z-0.0265
G1X0.8252Y2.317Z-0.0265
G1X0.8275Y2.31Z-0.0265
G1X0.8312Y2.3035Z-0.0265
G1X0.8358Y2.2983Z-0.0265
G1X0.8366Y2.2978Z-0.0265
G1X0.8421Y2.2937Z-0.0265
G1X0.8493Y2.2906Z-0.0264
G1X0.8561Y2.2891Z-0.0264
G1X0.8631Y2.2891Z-0.0264
G1X0.8708Y2.2907Z-0.0263
G1X0.8779Y2.2939Z-0.0262
G1X0.8835Y2.298Z-0.0262
G1X0.8882Y2.3032Z-0.0261
G1X0.8924Y2.3103Z-0.0261
G1X0.8945Y2.317Z-0.0261
G1X0.8953Y2.3244Z-0.026
G1X0.8945Y2.3317Z-0.026
G1X0.8933Y2.3355Z-0.026
G1X0.8933Y2.3799Z-0.0258
G1X1.3134Y2.3799Z-0.0232
G1X1.3195Y2.3805Z-0.0232
G1X1.3258Y2.3823Z-0.0231
G1X1.332Y2.3855Z-0.0231
G1X1.3371Y2.3897Z-0.023
G1X1.4355Y2.4881Z-0.022
G1X1.4398Y2.4935Z-0.0219
G1X1.4429Y2.4993Z-0.0219
G1X1.4446Y2.5052Z-0.0218
G1X1.4453Y2.5114Z-0.0218
G1X1.4453Y2.5862Z-0.0215
G1X1.4474Y2.5885Z-0.0214
G1X1.4488Y2.591Z-0.0214
G1X1.4497Y2.5938Z-0.0214
G1X1.45Y2.5964Z-0.0214
G1X1.4764Y2.5964Z-0.0212
G1X1.7152Y2.5964Z-0.02
G1X1.7162Y2.5961Z-0.02
G1X1.7231Y2.5946Z-0.02
G1X1.7305Y2.5946Z-0.02
G1X1.7377Y2.5962Z-0.0199
G1X1.7448Y2.5994Z-0.0199
G1X1.7505Y2.6035Z-0.0198
G1X1.7552Y2.6087Z-0.0198
G1X1.759Y2.6151Z-0.0197
G1X1.7614Y2.6225Z-0.0197
G1X1.7622Y2.6299Z-0.0196
G1X1.7614Y2.6372Z-0.0196
G1X1.7591Y2.6443Z-0.0196
G1X1.7554Y2.6507Z-0.0196
G1X1.7502Y2.6565Z-0.0196
G1X1.7445Y2.6606Z-0.0196
G1X1.7381Y2.6634Z-0.0196
G1X1.7305Y2.6651Z-0.0196
G1X1.7231Y2.6651Z-0.0197
G1X1.7162Y2.6637Z-0.0197
G1X1.7152Y2.6633Z-0.0197
G1X1.4764Y2.6633Z-0.0209
G1X1.45Y2.6633Z-0.0211
G1X1.4497Y2.666Z-0.0211
G1X1.449Y2.6684Z-0.0211
G1X1.4471Y2.6716Z-0.0211
G1X1.4454Y2.6734Z-0.0211
G1X1.4431Y2.6751Z-0.0211
G1X1.4405Y2.6763Z-0.0211
G1X1.4381Y2.6768Z-0.0211
G1X1.4362Y2.6769Z-0.0211
G1X1.3864Y2.6769Z-0.0214
G1X1.3828Y2.6761Z-0.0214
G1X1.3805Y2.6751Z-0.0215
G1X1.3785Y2.6736Z-0.0215
G1X1.3762Y2.6713Z-0.0215
G1X1.3748Y2.6688Z-0.0215
G1X1.374Y2.6664Z-0.0215
G1X1.3736Y2.6631Z-0.0216
G1X1.3736Y2.5966Z-0.0219
G1X1.3739Y2.5938Z-0.0219
G1X1.3748Y2.591Z-0.0219
G1X1.3762Y2.5885Z-0.0219
G1X1.3783Y2.5862Z-0.0219
G1X1.3783Y2.5256Z-0.0222
G1X1.2995Y2.4468Z-0.023
G1X0.8366Y2.4468Z-0.0259
G1X0.717Y2.4468Z-0.027
G1X0.7169Y2.5909Z-0.0265
G1X0.7162Y2.5974Z-0.0265
G1X0.7144Y2.6033Z-0.0265
G1X0.7113Y2.6091Z-0.0265
G1X0.7071Y2.6142Z-0.0265
G1X0.6678Y2.6536Z-0.0267
G1X0.664Y2.6568Z-0.0268
G1X0.6596Y2.6595Z-0.0268
G1X0.6547Y2.6616Z-0.0268
G1X0.649Y2.663Z-0.0269
G1X0.6441Y2.6633Z-0.0269
G1X0.5966Y2.6633Z-0.0274
G1X0.5956Y2.6637Z-0.0274
G1X0.5883Y2.6651Z-0.0275
G1X0.5813Y2.6651Z-0.0276
G1X0.5741Y2.6636Z-0.0276
G1X0.5673Y2.6606Z-0.0277
G1X0.5616Y2.6565Z-0.0278
G1X0.5564Y2.6507Z-0.0279
G1X0.5525Y2.6439Z-0.0279
G1X0.5504Y2.6372Z-0.028
G1X0.5496Y2.6299Z-0.028
G04 P0 ( dwell for no time -- G64 should not smooth over this point )
G0X0.5496Y2.6299Z0.0567

G0X0.7224Y2.3244Z0.0572
G01 F3.93701
( Mill infeed pass 1/1 )
G1X0.7224Y2.3244Z-0.0274
G04 P0 ( dwell for no time -- G64 should not smooth over this point )
G01 F7.87402
G01 X0.72244 Y2.32437
G1X0.7233Y2.3321Z-0.0274
G1X0.7257Y2.3396Z-0.0273
G1X0.7296Y2.3464Z-0.0273
G1X0.7344Y2.3517Z-0.0272
G1X0.7353Y2.3525Z-0.0272
G1X0.7411Y2.3568Z-0.0271
G1X0.7477Y2.3597Z-0.0271
G1X0.7489Y2.3601Z-0.0271
G1X0.7553Y2.3615Z-0.027
G1X0.7565Y2.3616Z-0.027
G1X0.7638Y2.3616Z-0.0269
G1X0.7714Y2.3599Z-0.0268
G1X0.7785Y2.3568Z-0.0268
G1X0.7849Y2.3522Z-0.0267
G1X0.7901Y2.3464Z-0.0267
G1X0.794Y2.3396Z-0.0267
G1X0.7964Y2.3321Z-0.0267
G1X0.7972Y2.3244Z-0.0267
G1X0.7964Y2.3166Z-0.0268
G1X0.794Y2.3092Z-0.0268
G1X0.7901Y2.3024Z-0.0269
G1X0.7853Y2.297Z-0.027
G1X0.7844Y2.2962Z-0.027
G1X0.7791Y2.2923Z-0.027
G1X0.778Y2.2917Z-0.027
G1X0.7714Y2.2888Z-0.0271
G1X0.7644Y2.2873Z-0.0272
G1X0.7631Y2.2871Z-0.0272
G1X0.7559Y2.2872Z-0.0273
G1X0.7483Y2.2888Z-0.0273
G1X0.7411Y2.292Z-0.0274
G1X0.7348Y2.2966Z-0.0274
G1X0.7296Y2.3024Z-0.0275
G1X0.7257Y2.3092Z-0.0275
G1X0.7233Y2.3166Z-0.0275
G1X0.7224Y2.3244Z-0.0274
G1X0.7244Y2.3244Z-0.0274
G1X0.7253Y2.3166Z-0.0274
G1X0.7275Y2.31Z-0.0274
G1X0.7309Y2.3039Z-0.0274
G1X0.7361Y2.298Z-0.0274
G1X0.7418Y2.2939Z-0.0274
G1X0.7489Y2.2907Z-0.0273
G1X0.7561Y2.2891Z-0.0273
G1X0.7635Y2.2891Z-0.0272
G1X0.7712Y2.2908Z-0.0271
G1X0.7779Y2.2939Z-0.027
G1X0.7835Y2.298Z-0.027
G1X0.7883Y2.3032Z-0.0269
G1X0.7922Y2.31Z-0.0268
G1X0.7945Y2.317Z-0.0268
G1X0.7953Y2.3244Z-0.0268
G1X0.7944Y2.3321Z-0.0267
G1X0.7922Y2.3388Z-0.0267
G1X0.7887Y2.3449Z-0.0267
G1X0.7835Y2.3507Z-0.0268
G1X0.7772Y2.3552Z-0.0268
G1X0.7708Y2.3581Z-0.0269
G1X0.7635Y2.3596Z-0.0269
G1X0.7557Y2.3595Z-0.027
G1X0.7489Y2.3581Z-0.0271
G1X0.7425Y2.3552Z-0.0271
G1X0.7361Y2.3507Z-0.0272
G1X0.7309Y2.3449Z-0.0273
G1X0.7275Y2.3388Z-0.0273
G1X0.7253Y2.3321Z-0.0274
G1X0.7244Y2.3244Z-0.0274
G04 P0 ( dwell for no time -- G64 should not smooth over this point )
G0X0.7244Y2.3244Z0.0572

G0X0.8366Y2.4202Z0.0587
G0X1.0716Y2.621Z0.061
G01 F3.93701
( Mill infeed pass 1/1 )
G1X1.0716Y2.621Z-0.0237
G04 P0 ( dwell for no time -- G64 should not smooth over this point )
G01 F7.87402
G01 X1.07165 Y2.62102
G1X1.0725Y2.6127Z-0.0237
G1X1.0749Y2.6053Z-0.0237
G1X1.0754Y2.6041Z-0.0237
G1X1.0793Y2.5974Z-0.0237
G1X1.0845Y2.5916Z-0.0237
G1X1.0854Y2.5908Z-0.0237
G1X1.0912Y2.5866Z-0.0237
G1X1.0923Y2.586Z-0.0237
G1X1.0994Y2.5828Z-0.0237
G1X1.1076Y2.5811Z-0.0236
G1X1.116Y2.5811Z-0.0236
G1X1.1236Y2.5827Z-0.0235
G1X1.1248Y2.5831Z-0.0235
G1X1.1319Y2.5862Z-0.0235
G1X1.1387Y2.5912Z-0.0234
G1X1.1443Y2.5974Z-0.0233
G1X1.1482Y2.6041Z-0.0233
G1X1.1487Y2.6053Z-0.0233
G1X1.1511Y2.6127Z-0.0232
G1X1.1519Y2.6204Z-0.0232
G1X1.152Y2.6387Z-0.0231
G1X1.1511Y2.6471Z-0.0231
G1X1.1485Y2.6551Z-0.023
G1X1.1446Y2.6618Z-0.023
G1X1.1439Y2.6628Z-0.023
G1X1.1387Y2.6686Z-0.0231
G1X1.1319Y2.6735Z-0.0231
G1X1.1242Y2.6769Z-0.0231
G1X1.1166Y2.6786Z-0.0232
G1X1.1154Y2.6787Z-0.0232
G1X1.1076Y2.6787Z-0.0232
G1X1.1Y2.6771Z-0.0233
G1X1.0988Y2.6767Z-0.0233
G1X1.0917Y2.6735Z-0.0233
G1X1.0849Y2.6686Z-0.0234
G1X1.0797Y2.6628Z-0.0235
G1X1.079Y2.6618Z-0.0235
G1X1.0751Y2.6551Z-0.0235
G1X1.0725Y2.6471Z-0.0236
G1X1.0716Y2.6387Z-0.0236
G1X1.0716Y2.621Z-0.0237
G1X1.0736Y2.621Z-0.0237
G1X1.0736Y2.6391Z-0.0236
G1X1.0745Y2.6467Z-0.0236
G1X1.0768Y2.6539Z-0.0235
G1X1.0812Y2.6615Z-0.0235
G1X1.0863Y2.6671Z-0.0234
G1X1.0924Y2.6716Z-0.0233
G1X1.1004Y2.6752Z-0.0233
G1X1.1078Y2.6767Z-0.0232
G1X1.1158Y2.6767Z-0.0232
G1X1.1236Y2.6751Z-0.0231
G1X1.1305Y2.672Z-0.0231
G1X1.1377Y2.6668Z-0.0231
G1X1.1427Y2.6612Z-0.0231
G1X1.1465Y2.6546Z-0.0231
G1X1.1492Y2.6467Z-0.0231
G1X1.15Y2.6387Z-0.0231
G1X1.15Y2.6206Z-0.0232
G1X1.1491Y2.6127Z-0.0232
G1X1.1467Y2.6055Z-0.0233
G1X1.1429Y2.5989Z-0.0233
G1X1.1374Y2.5926Z-0.0234
G1X1.1305Y2.5878Z-0.0235
G1X1.1236Y2.5847Z-0.0235
G1X1.1162Y2.5831Z-0.0236
G1X1.1082Y2.583Z-0.0236
G1X1.1Y2.5847Z-0.0237
G1X1.0927Y2.588Z-0.0237
G1X1.0863Y2.5926Z-0.0237
G1X1.0807Y2.5989Z-0.0237
G1X1.0769Y2.6055Z-0.0237
G1X1.0746Y2.6127Z-0.0237
G1X1.0736Y2.621Z-0.0237
G04 P0 ( dwell for no time -- G64 should not smooth over this point )
G0X1.0736Y2.621Z0.061

G0X0.9224Y2.3244Z0.0588
G01 F3.93701
( Mill infeed pass 1/1 )
G1X0.9224Y2.3244Z-0.0259
G04 P0 ( dwell for no time -- G64 should not smooth over this point )
G01 F7.87402
G01 X0.92244 Y2.32437
G1X0.9233Y2.3321Z-0.0258
G1X0.9257Y2.3396Z-0.0258
G1X0.9296Y2.3464Z-0.0257
G1X0.9344Y2.3517Z-0.0257
G1X0.9353Y2.3525Z-0.0257
G1X0.9411Y2.3568Z-0.0256
G1X0.9477Y2.3597Z-0.0256
G1X0.9489Y2.3601Z-0.0255
G1X0.9553Y2.3615Z-0.0255
G1X0.9566Y2.3616Z-0.0255
G1X0.9637Y2.3616Z-0.0254
G1X0.9714Y2.3599Z-0.0254
G1X0.9785Y2.3568Z-0.0254
G1X0.9849Y2.3522Z-0.0254
G1X0.9901Y2.3464Z-0.0253
G1X0.994Y2.3396Z-0.0254
G1X0.9964Y2.3321Z-0.0254
G1X0.9972Y2.3244Z-0.0254
G1X0.9964Y2.3166Z-0.0254
G1X0.994Y2.3092Z-0.0255
G1X0.9901Y2.3024Z-0.0255
G1X0.9853Y2.297Z-0.0256
G1X0.9844Y2.2962Z-0.0256
G1X0.9791Y2.2923Z-0.0256
G1X0.978Y2.2917Z-0.0256
G1X0.9714Y2.2888Z-0.0257
G1X0.9644Y2.2873Z-0.0257
G1X0.9631Y2.2871Z-0.0258
G1X0.9559Y2.2872Z-0.0258
G1X0.9483Y2.2888Z-0.0258
G1X0.9411Y2.292Z-0.0259
G1X0.9348Y2.2966Z-0.0259
G1X0.9296Y2.3024Z-0.0259
G1X0.9257Y2.3092Z-0.0259
G1X0.9233Y2.3166Z-0.0259
G1X0.9224Y2.3244Z-0.0259
G1X0.9244Y2.3244Z-0.0258
G1X0.9253Y2.3166Z-0.0259
G1X0.9275Y2.31Z-0.0259
G1X0.931Y2.3039Z-0.0259
G1X0.9361Y2.298Z-0.0259
G1X0.9418Y2.2939Z-0.0259
G1X0.9489Y2.2907Z-0.0258
G1X0.9561Y2.2891Z-0.0258
G1X0.9635Y2.2891Z-0.0257
G1X0.9712Y2.2908Z-0.0257
G1X0.9779Y2.2939Z-0.0256
G1X0.9836Y2.298Z-0.0256
G1X0.9882Y2.3032Z-0.0255
G1X0.9922Y2.31Z-0.0255
G1X0.9945Y2.317Z-0.0254
G1X0.9953Y2.3244Z-0.0254
G1X0.9944Y2.3321Z-0.0254
G1X0.9922Y2.3388Z-0.0254
G1X0.9887Y2.3449Z-0.0254
G1X0.9836Y2.3507Z-0.0254
G1X0.9772Y2.3552Z-0.0254
G1X0.9708Y2.3581Z-0.0254
G1X0.9635Y2.3596Z-0.0255
G1X0.9557Y2.3595Z-0.0255
G1X0.9489Y2.3581Z-0.0256
G1X0.9425Y2.3552Z-0.0256
G1X0.9361Y2.3507Z-0.0257
G1X0.931Y2.3449Z-0.0257
G1X0.9275Y2.3388Z-0.0258
G1X0.9253Y2.3321Z-0.0258
G1X0.9244Y2.3244Z-0.0258
G04 P0 ( dwell for no time -- G64 should not smooth over this point )
G0X0.9244Y2.3244Z0.0588

G0X1.0224Y2.3244Z0.0594
G01 F3.93701
( Mill infeed pass 1/1 )
G1X1.0224Y2.3244Z-0.0252
G04 P0 ( dwell for no time -- G64 should not smooth over this point )
G01 F7.87402
G01 X1.02244 Y2.32437
G1X1.0233Y2.3321Z-0.0252
G1X1.0257Y2.3396Z-0.0252
G1X1.0296Y2.3464Z-0.0251
G1X1.0344Y2.3517Z-0.0251
G1X1.0353Y2.3525Z-0.025
G1X1.0411Y2.3568Z-0.025
G1X1.0477Y2.3597Z-0.0249
G1X1.0489Y2.3601Z-0.0249
G1X1.0553Y2.3615Z-0.0249
G1X1.0566Y2.3616Z-0.0249
G1X1.0637Y2.3616Z-0.0248
G1X1.0714Y2.3599Z-0.0248
G1X1.0785Y2.3568Z-0.0248
G1X1.0849Y2.3522Z-0.0247
G1X1.0901Y2.3464Z-0.0247
G1X1.094Y2.3396Z-0.0247
G1X1.0964Y2.3321Z-0.0248
G1X1.0972Y2.3244Z-0.0248
G1X1.0964Y2.3166Z-0.0248
G1X1.094Y2.3092Z-0.0249
G1X1.0901Y2.3024Z-0.0249
G1X1.0853Y2.297Z-0.025
G1X1.0844Y2.2962Z-0.025
G1X1.0791Y2.2923Z-0.025
G1X1.078Y2.2917Z-0.025
G1X1.0714Y2.2888Z-0.0251
G1X1.0644Y2.2873Z-0.0251
G1X1.0631Y2.2871Z-0.0251
G1X1.0559Y2.2872Z-0.0252
G1X1.0483Y2.2888Z-0.0252
G1X1.0411Y2.292Z-0.0253
G1X1.0348Y2.2966Z-0.0253
G1X1.0296Y2.3024Z-0.0253
G1X1.0257Y2.3092Z-0.0253
G1X1.0233Y2.3166Z-0.0253
G1X1.0224Y2.3244Z-0.0252
G1X1.0244Y2.3244Z-0.0252
G1X1.0253Y2.3166Z-0.0253
G1X1.0275Y2.31Z-0.0253
G1X1.031Y2.3039Z-0.0253
G1X1.0361Y2.298Z-0.0253
G1X1.0418Y2.2939Z-0.0253
G1X1.0489Y2.2907Z-0.0252
G1X1.0561Y2.2891Z-0.0252
G1X1.0635Y2.2891Z-0.0251
G1X1.0712Y2.2908Z-0.0251
G1X1.0776Y2.2937Z-0.025
G1X1.0832Y2.2978Z-0.025
G1X1.0882Y2.3032Z-0.0249
G1X1.0922Y2.31Z-0.0249
G1X1.0945Y2.317Z-0.0248
G1X1.0953Y2.3244Z-0.0248
G1X1.0944Y2.3321Z-0.0248
G1X1.0922Y2.3388Z-0.0248
G1X1.0887Y2.3449Z-0.0247
G1X1.0836Y2.3507Z-0.0248
G1X1.0772Y2.3552Z-0.0248
G1X1.0708Y2.3581Z-0.0248
G1X1.0635Y2.3596Z-0.0248
G1X1.0557Y2.3595Z-0.0249
G1X1.0489Y2.3581Z-0.0249
G1X1.0425Y2.3552Z-0.025
G1X1.0361Y2.3507Z-0.025
G1X1.031Y2.3449Z-0.0251
G1X1.0275Y2.3388Z-0.0252
G1X1.0253Y2.3321Z-0.0252
G1X1.0244Y2.3244Z-0.0252
G04 P0 ( dwell for no time -- G64 should not smooth over this point )
G0X1.0244Y2.3244Z0.0594

G0X1.1224Y2.3244Z0.06
G01 F3.93701
( Mill infeed pass 1/1 )
G1X1.1224Y2.3244Z-0.0246
G04 P0 ( dwell for no time -- G64 should not smooth over this point )
G01 F7.87402
G01 X1.12244 Y2.32437
G1X1.1233Y2.3321Z-0.0246
G1X1.1257Y2.3396Z-0.0245
G1X1.1296Y2.3464Z-0.0245
G1X1.1344Y2.3517Z-0.0244
G1X1.1353Y2.3525Z-0.0244
G1X1.1411Y2.3568Z-0.0244
G1X1.1477Y2.3597Z-0.0243
G1X1.1489Y2.3601Z-0.0243
G1X1.1553Y2.3615Z-0.0243
G1X1.1565Y2.3616Z-0.0243
G1X1.1638Y2.3616Z-0.0242
G1X1.1714Y2.3599Z-0.0242
G1X1.1785Y2.3568Z-0.0241
G1X1.1849Y2.3522Z-0.0241
G1X1.1901Y2.3464Z-0.0241
G1X1.194Y2.3396Z-0.0241
G1X1.1964Y2.3321Z-0.0241
G1X1.1972Y2.3244Z-0.0242
G1X1.1964Y2.3166Z-0.0242
G1X1.194Y2.3092Z-0.0243
G1X1.1901Y2.3024Z-0.0243
G1X1.1853Y2.297Z-0.0244
G1X1.1844Y2.2962Z-0.0244
G1X1.1791Y2.2923Z-0.0244
G1X1.178Y2.2917Z-0.0244
G1X1.1714Y2.2888Z-0.0245
G1X1.1644Y2.2873Z-0.0245
G1X1.1631Y2.2871Z-0.0245
G1X1.1559Y2.2872Z-0.0246
G1X1.1483Y2.2888Z-0.0246
G1X1.1411Y2.292Z-0.0247
G1X1.1348Y2.2966Z-0.0247
G1X1.1296Y2.3024Z-0.0247
G1X1.1257Y2.3092Z-0.0247
G1X1.1233Y2.3166Z-0.0247
G1X1.1224Y2.3244Z-0.0246
G1X1.1244Y2.3244Z-0.0246
G1X1.1253Y2.3166Z-0.0246
G1X1.1275Y2.31Z-0.0247
G1X1.1309Y2.3039Z-0.0247
G1X1.1361Y2.298Z-0.0247
G1X1.1418Y2.2939Z-0.0246
G1X1.1489Y2.2907Z-0.0246
G1X1.1561Y2.2891Z-0.0246
G1X1.1636Y2.2891Z-0.0245
G1X1.1712Y2.2908Z-0.0245
G1X1.1779Y2.2939Z-0.0244
G1X1.1836Y2.298Z-0.0244
G1X1.1883Y2.3032Z-0.0243
G1X1.1922Y2.31Z-0.0243
G1X1.1945Y2.317Z-0.0242
G1X1.1953Y2.3244Z-0.0242
G1X1.1944Y2.3321Z-0.0242
G1X1.1922Y2.3388Z-0.0241
G1X1.1887Y2.3449Z-0.0241
G1X1.1836Y2.3507Z-0.0241
G1X1.1772Y2.3552Z-0.0242
G1X1.1708Y2.3581Z-0.0242
G1X1.1636Y2.3596Z-0.0242
G1X1.1557Y2.3595Z-0.0243
G1X1.1489Y2.3581Z-0.0243
G1X1.1425Y2.3552Z-0.0244
G1X1.1361Y2.3507Z-0.0244
G1X1.1309Y2.3449Z-0.0245
G1X1.1275Y2.3388Z-0.0245
G1X1.1253Y2.3321Z-0.0246
G1X1.1244Y2.3244Z-0.0246
G04 P0 ( dwell for no time -- G64 should not smooth over this point )
G0X1.1244Y2.3244Z0.06

G0X1.2224Y2.3244Z0.0606
G01 F3.93701
( Mill infeed pass 1/1 )
G1X1.2224Y2.3244Z-0.024
G04 P0 ( dwell for no time -- G64 should not smooth over this point )
G01 F7.87402
G01 X1.22244 Y2.32437
G1X1.2233Y2.3321Z-0.024
G1X1.2257Y2.3396Z-0.0239
G1X1.2296Y2.3464Z-0.0239
G1X1.2344Y2.3517Z-0.0238
G1X1.2353Y2.3525Z-0.0238
G1X1.2411Y2.3568Z-0.0238
G1X1.2477Y2.3597Z-0.0237
G1X1.2489Y2.3601Z-0.0237
G1X1.2553Y2.3615Z-0.0237
G1X1.2566Y2.3616Z-0.0236
G1X1.2637Y2.3616Z-0.0236
G1X1.2714Y2.3599Z-0.0236
G1X1.2785Y2.3568Z-0.0235
G1X1.2849Y2.3522Z-0.0235
G1X1.2901Y2.3464Z-0.0235
G1X1.294Y2.3396Z-0.0235
G1X1.2964Y2.3321Z-0.0235
G1X1.2972Y2.3244Z-0.0236
G1X1.2964Y2.3166Z-0.0236
G1X1.294Y2.3092Z-0.0237
G1X1.2901Y2.3024Z-0.0237
G1X1.2853Y2.297Z-0.0238
G1X1.2844Y2.2962Z-0.0238
G1X1.2791Y2.2923Z-0.0238
G1X1.278Y2.2917Z-0.0238
G1X1.2714Y2.2888Z-0.0239
G1X1.2644Y2.2873Z-0.0239
G1X1.2631Y2.2871Z-0.0239
G1X1.2559Y2.2872Z-0.024
G1X1.2483Y2.2888Z-0.024
G1X1.2411Y2.292Z-0.024
G1X1.2348Y2.2966Z-0.0241
G1X1.2296Y2.3024Z-0.0241
G1X1.2257Y2.3092Z-0.0241
G1X1.2233Y2.3166Z-0.024
G1X1.2224Y2.3244Z-0.024
G1X1.2244Y2.3244Z-0.024
G1X1.2253Y2.3166Z-0.024
G1X1.2275Y2.31Z-0.0241
G1X1.2309Y2.3039Z-0.0241
G1X1.2361Y2.298Z-0.0241
G1X1.2418Y2.2939Z-0.024
G1X1.2489Y2.2907Z-0.024
G1X1.2561Y2.2891Z-0.024
G1X1.2635Y2.2891Z-0.0239
G1X1.2712Y2.2908Z-0.0239
G1X1.2779Y2.2939Z-0.0238
G1X1.2835Y2.298Z-0.0238
G1X1.2882Y2.3032Z-0.0237
G1X1.2922Y2.31Z-0.0237
G1X1.2945Y2.317Z-0.0236
G1X1.2953Y2.3244Z-0.0236
G1X1.2944Y2.3321Z-0.0235
G1X1.2922Y2.3388Z-0.0235
G1X1.2887Y2.3449Z-0.0235
G1X1.2835Y2.3507Z-0.0235
G1X1.2772Y2.3552Z-0.0235
G1X1.2708Y2.3581Z-0.0236
G1X1.2635Y2.3596Z-0.0236
G1X1.2557Y2.3595Z-0.0237
G1X1.2489Y2.3581Z-0.0237
G1X1.2425Y2.3552Z-0.0238
G1X1.2361Y2.3507Z-0.0238
G1X1.2309Y2.3449Z-0.0239
G1X1.2275Y2.3388Z-0.0239
G1X1.2253Y2.3321Z-0.024
G1X1.2244Y2.3244Z-0.024
G04 P0 ( dwell for no time -- G64 should not smooth over this point )
G0X1.2244Y2.3244Z0.0606

G0X1.3224Y2.3244Z0.0612
G01 F3.93701
( Mill infeed pass 1/1 )
G1X1.3224Y2.3244Z-0.0234
G04 P0 ( dwell for no time -- G64 should not smooth over this point )
G01 F7.87402
G01 X1.32244 Y2.32437
G1X1.3233Y2.3321Z-0.0234
G1X1.3257Y2.3396Z-0.0233
G1X1.3296Y2.3464Z-0.0233
G1X1.3344Y2.3517Z-0.0232
G1X1.3353Y2.3525Z-0.0232
G1X1.3411Y2.3568Z-0.0231
G1X1.3477Y2.3597Z-0.0231
G1X1.3489Y2.3601Z-0.0231
G1X1.3553Y2.3615Z-0.023
G1X1.3565Y2.3616Z-0.023
G1X1.3638Y2.3616Z-0.023
G1X1.3714Y2.3599Z-0.0229
G1X1.3785Y2.3568Z-0.0229
G1X1.3849Y2.3522Z-0.0229
G1X1.3901Y2.3464Z-0.0229
G1X1.394Y2.3396Z-0.0229
G1X1.3964Y2.3321Z-0.0229
G1X1.3972Y2.3244Z-0.023
G1X1.3964Y2.3166Z-0.023
G1X1.394Y2.3092Z-0.023
G1X1.3901Y2.3024Z-0.0231
G1X1.3853Y2.297Z-0.0231
G1X1.3844Y2.2962Z-0.0232
G1X1.3791Y2.2923Z-0.0232
G1X1.378Y2.2917Z-0.0232
G1X1.3714Y2.2888Z-0.0233
G1X1.3644Y2.2873Z-0.0233
G1X1.3631Y2.2871Z-0.0233
G1X1.3559Y2.2872Z-0.0234
G1X1.3483Y2.2888Z-0.0234
G1X1.3411Y2.292Z-0.0234
G1X1.3348Y2.2966Z-0.0235
G1X1.3296Y2.3024Z-0.0235
G1X1.3257Y2.3092Z-0.0235
G1X1.3233Y2.3166Z-0.0234
G1X1.3224Y2.3244Z-0.0234
G1X1.3244Y2.3244Z-0.0234
G1X1.3253Y2.3166Z-0.0234
G1X1.3275Y2.31Z-0.0234
G1X1.331Y2.3039Z-0.0234
G1X1.3361Y2.298Z-0.0234
G1X1.3418Y2.2939Z-0.0234
G1X1.3489Y2.2907Z-0.0234
G1X1.3561Y2.2891Z-0.0234
G1X1.3636Y2.2891Z-0.0233
G1X1.3712Y2.2908Z-0.0233
G1X1.3779Y2.2939Z-0.0232
G1X1.3836Y2.298Z-0.0232
G1X1.3882Y2.3032Z-0.0231
G1X1.3922Y2.31Z-0.023
G1X1.3945Y2.317Z-0.023
G1X1.3953Y2.3244Z-0.023
G1X1.3944Y2.3321Z-0.0229
G1X1.3922Y2.3388Z-0.0229
G1X1.3887Y2.3449Z-0.0229
G1X1.3836Y2.3507Z-0.0229
G1X1.3772Y2.3552Z-0.0229
G1X1.3708Y2.3581Z-0.023
G1X1.3636Y2.3596Z-0.023
G1X1.3557Y2.3595Z-0.023
G1X1.3489Y2.3581Z-0.0231
G1X1.3425Y2.3552Z-0.0231
G1X1.3361Y2.3507Z-0.0232
G1X1.331Y2.3449Z-0.0233
G1X1.3275Y2.3388Z-0.0233
G1X1.3253Y2.3321Z-0.0234
G1X1.3244Y2.3244Z-0.0234
G04 P0 ( dwell for no time -- G64 should not smooth over this point )
G0X1.3244Y2.3244Z0.0613

G0X1.4224Y2.3244Z0.0619
G01 F3.93701
( Mill infeed pass 1/1 )
G1X1.4224Y2.3244Z-0.0228
G04 P0 ( dwell for no time -- G64 should not smooth over this point )
G01 F7.87402
G01 X1.42244 Y2.32437
G1X1.4233Y2.3321Z-0.0228
G1X1.4257Y2.3396Z-0.0227
G1X1.4296Y2.3464Z-0.0227
G1X1.4344Y2.3517Z-0.0226
G1X1.4353Y2.3525Z-0.0226
G1X1.4411Y2.3568Z-0.0225
G1X1.4477Y2.3597Z-0.0225
G1X1.4489Y2.3601Z-0.0225
G1X1.4553Y2.3615Z-0.0224
G1X1.4566Y2.3616Z-0.0224
G1X1.4638Y2.3616Z-0.0224
G1X1.4714Y2.3599Z-0.0223
G1X1.4764Y2.3577Z-0.0223
G1X1.4785Y2.3568Z-0.0223
G1X1.4849Y2.3522Z-0.0223
G1X1.4901Y2.3464Z-0.0223
G1X1.494Y2.3396Z-0.0223
G1X1.4964Y2.3321Z-0.0223
G1X1.4972Y2.3244Z-0.0224
G1X1.4964Y2.3166Z-0.0224
G1X1.494Y2.3092Z-0.0224
G1X1.4901Y2.3024Z-0.0225
G1X1.4853Y2.297Z-0.0225
G1X1.4844Y2.2962Z-0.0226
G1X1.4791Y2.2923Z-0.0226
G1X1.478Y2.2917Z-0.0226
G1X1.4764Y2.291Z-0.0226
G1X1.4714Y2.2888Z-0.0227
G1X1.4644Y2.2873Z-0.0227
G1X1.4631Y2.2871Z-0.0227
G1X1.4559Y2.2872Z-0.0228
G1X1.4483Y2.2888Z-0.0228
G1X1.4411Y2.292Z-0.0228
G1X1.4348Y2.2966Z-0.0228
G1X1.4296Y2.3024Z-0.0229
G1X1.4257Y2.3092Z-0.0228
G1X1.4233Y2.3166Z-0.0228
G1X1.4224Y2.3244Z-0.0228
G1X1.4244Y2.3244Z-0.0228
G1X1.4253Y2.3166Z-0.0228
G1X1.4275Y2.31Z-0.0228
G1X1.4309Y2.3039Z-0.0228
G1X1.4361Y2.298Z-0.0228
G1X1.4418Y2.2939Z-0.0228
G1X1.4489Y2.2907Z-0.0228
G1X1.4561Y2.2891Z-0.0228
G1X1.4635Y2.2891Z-0.0227
G1X1.4712Y2.2908Z-0.0227
G1X1.4764Y2.2932Z-0.0226
G1X1.4779Y2.2939Z-0.0226
G1X1.4836Y2.298Z-0.0226
G1X1.4883Y2.3032Z-0.0225
G1X1.4922Y2.31Z-0.0225
G1X1.4945Y2.317Z-0.0224
G1X1.4953Y2.3244Z-0.0224
G1X1.4944Y2.3321Z-0.0223
G1X1.4922Y2.3388Z-0.0223
G1X1.4887Y2.3449Z-0.0223
G1X1.4836Y2.3507Z-0.0223
G1X1.4772Y2.3552Z-0.0223
G1X1.4764Y2.3556Z-0.0223
G1X1.4708Y2.3581Z-0.0223
G1X1.4635Y2.3596Z-0.0224
G1X1.4557Y2.3595Z-0.0224
G1X1.4489Y2.3581Z-0.0225
G1X1.4425Y2.3552Z-0.0225
G1X1.4361Y2.3507Z-0.0226
G1X1.4309Y2.3449Z-0.0227
G1X1.4275Y2.3388Z-0.0227
G1X1.4253Y2.3321Z-0.0227
G1X1.4244Y2.3244Z-0.0228
G04 P0 ( dwell for no time -- G64 should not smooth over this point )
G0X1.4244Y2.3244Z0.0619

G0X1.4764Y2.3244Z0.0622
G0X1.5224Y2.3244Z0.0624
G01 F3.93701
( Mill infeed pass 1/1 )
G1X1.5224Y2.3244Z-0.0222
G04 P0 ( dwell for no time -- G64 should not smooth over this point )
G01 F7.87402
G01 X1.52244 Y2.32437
G1X1.5233Y2.3321Z-0.0222
G1X1.5257Y2.3396Z-0.0221
G1X1.5296Y2.3464Z-0.0221
G1X1.5344Y2.3517Z-0.022
G1X1.5353Y2.3525Z-0.022
G1X1.5411Y2.3568Z-0.022
G1X1.5477Y2.3597Z-0.0219
G1X1.5489Y2.3601Z-0.0219
G1X1.5553Y2.3615Z-0.0219
G1X1.5566Y2.3616Z-0.0219
G1X1.5637Y2.3616Z-0.0219
G1X1.5714Y2.3599Z-0.0218
G1X1.5785Y2.3568Z-0.0218
G1X1.5849Y2.3522Z-0.0218
G1X1.5901Y2.3464Z-0.0218
G1X1.594Y2.3396Z-0.0218
G1X1.5964Y2.3321Z-0.0218
G1X1.5972Y2.3244Z-0.0219
G1X1.5964Y2.3166Z-0.0219
G1X1.594Y2.3092Z-0.0219
G1X1.5901Y2.3024Z-0.022
G1X1.5853Y2.297Z-0.022
G1X1.5844Y2.2962Z-0.022
G1X1.5791Y2.2923Z-0.0221
G1X1.578Y2.2917Z-0.0221
G1X1.5714Y2.2888Z-0.0221
G1X1.5644Y2.2873Z-0.0222
G1X1.5631Y2.2871Z-0.0222
G1X1.5559Y2.2872Z-0.0222
G1X1.5483Y2.2888Z-0.0223
G1X1.5411Y2.292Z-0.0223
G1X1.5348Y2.2966Z-0.0223
G1X1.5296Y2.3024Z-0.0223
G1X1.5257Y2.3092Z-0.0223
G1X1.5233Y2.3166Z-0.0223
G1X1.5224Y2.3244Z-0.0222
G1X1.5244Y2.3244Z-0.0222
G1X1.5253Y2.3166Z-0.0223
G1X1.5275Y2.31Z-0.0223
G1X1.531Y2.3039Z-0.0223
G1X1.5361Y2.298Z-0.0223
G1X1.5418Y2.2939Z-0.0223
G1X1.5489Y2.2907Z-0.0223
G1X1.5561Y2.2891Z-0.0222
G1X1.5635Y2.2891Z-0.0222
G1X1.5712Y2.2908Z-0.0221
G1X1.5779Y2.2939Z-0.0221
G1X1.5836Y2.298Z-0.022
G1X1.5882Y2.3032Z-0.022
G1X1.5922Y2.31Z-0.0219
G1X1.5945Y2.317Z-0.0219
G1X1.5953Y2.3244Z-0.0219
G1X1.5944Y2.3321Z-0.0218
G1X1.5922Y2.3388Z-0.0218
G1X1.5887Y2.3449Z-0.0218
G1X1.5836Y2.3507Z-0.0218
G1X1.5772Y2.3552Z-0.0218
G1X1.5708Y2.3581Z-0.0218
G1X1.5635Y2.3596Z-0.0219
G1X1.5557Y2.3595Z-0.0219
G1X1.5489Y2.3581Z-0.0219
G1X1.5425Y2.3552Z-0.022
G1X1.5361Y2.3507Z-0.022
G1X1.531Y2.3449Z-0.0221
G1X1.5275Y2.3388Z-0.0221
G1X1.5253Y2.3321Z-0.0222
G1X1.5244Y2.3244Z-0.0222
G04 P0 ( dwell for no time -- G64 should not smooth over this point )
G0X1.5244Y2.3244Z0.0624

G0X1.6224Y2.3244Z0.0629
G01 F3.93701
( Mill infeed pass 1/1 )
G1X1.6224Y2.3244Z-0.0217
G04 P0 ( dwell for no time -- G64 should not smooth over this point )
G01 F7.87402
G01 X1.62244 Y2.32437
G1X1.6233Y2.3321Z-0.0217
G1X1.6257Y2.3396Z-0.0216
G1X1.6296Y2.3464Z-0.0216
G1X1.6344Y2.3517Z-0.0215
G1X1.6353Y2.3525Z-0.0215
G1X1.6411Y2.3568Z-0.0215
G1X1.6477Y2.3597Z-0.0214
G1X1.6489Y2.3601Z-0.0214
G1X1.6553Y2.3615Z-0.0214
G1X1.6565Y2.3616Z-0.0214
G1X1.6638Y2.3616Z-0.0213
G1X1.6714Y2.3599Z-0.0213
G1X1.6785Y2.3568Z-0.0213
G1X1.6849Y2.3522Z-0.0213
G1X1.6901Y2.3464Z-0.0213
G1X1.694Y2.3396Z-0.0213
G1X1.6964Y2.3321Z-0.0213
G1X1.6972Y2.3244Z-0.0213
G1X1.6964Y2.3166Z-0.0214
G1X1.694Y2.3092Z-0.0214
G1X1.6901Y2.3024Z-0.0215
G1X1.6853Y2.297Z-0.0215
G1X1.6844Y2.2962Z-0.0215
G1X1.6791Y2.2923Z-0.0216
G1X1.678Y2.2917Z-0.0216
G1X1.6714Y2.2888Z-0.0216
G1X1.6644Y2.2873Z-0.0217
G1X1.6631Y2.2871Z-0.0217
G1X1.6559Y2.2872Z-0.0217
G1X1.6483Y2.2888Z-0.0218
G1X1.6411Y2.292Z-0.0218
G1X1.6348Y2.2966Z-0.0218
G1X1.6296Y2.3024Z-0.0218
G1X1.6257Y2.3092Z-0.0218
G1X1.6233Y2.3166Z-0.0218
G1X1.6224Y2.3244Z-0.0217
G1X1.6244Y2.3244Z-0.0217
G1X1.6253Y2.3166Z-0.0217
G1X1.6275Y2.31Z-0.0218
G1X1.6309Y2.3039Z-0.0218
G1X1.6361Y2.298Z-0.0218
G1X1.6418Y2.2939Z-0.0218
G1X1.6489Y2.2907Z-0.0217
G1X1.6561Y2.2891Z-0.0217
G1X1.6636Y2.2891Z-0.0217
G1X1.6712Y2.2908Z-0.0216
G1X1.6779Y2.2939Z-0.0216
G1X1.6836Y2.298Z-0.0215
G1X1.6883Y2.3032Z-0.0215
G1X1.6922Y2.31Z-0.0214
G1X1.6945Y2.317Z-0.0214
G1X1.6953Y2.3244Z-0.0214
G1X1.6944Y2.3321Z-0.0213
G1X1.6922Y2.3388Z-0.0213
G1X1.6887Y2.3449Z-0.0213
G1X1.6836Y2.3507Z-0.0213
G1X1.6772Y2.3552Z-0.0213
G1X1.6708Y2.3581Z-0.0213
G1X1.6636Y2.3596Z-0.0214
G1X1.6557Y2.3595Z-0.0214
G1X1.6489Y2.3581Z-0.0214
G1X1.6425Y2.3552Z-0.0215
G1X1.6361Y2.3507Z-0.0215
G1X1.6309Y2.3449Z-0.0216
G1X1.6275Y2.3388Z-0.0216
G1X1.6253Y2.3321Z-0.0217
G1X1.6244Y2.3244Z-0.0217
G04 P0 ( dwell for no time -- G64 should not smooth over this point )
G0X1.6244Y2.3244Z0.0629

G0X1.7224Y2.3244Z0.0634
G01 F3.93701
( Mill infeed pass 1/1 )
G1X1.7224Y2.3244Z-0.0212
G04 P0 ( dwell for no time -- G64 should not smooth over this point )
G01 F7.87402
G01 X1.72244 Y2.32437
G1X1.7233Y2.3321Z-0.0212
G1X1.7257Y2.3396Z-0.0211
G1X1.7296Y2.3464Z-0.0211
G1X1.7344Y2.3517Z-0.021
G1X1.7353Y2.3525Z-0.021
G1X1.7411Y2.3568Z-0.021
G1X1.7477Y2.3597Z-0.0209
G1X1.7489Y2.3601Z-0.0209
G1X1.7553Y2.3615Z-0.0209
G1X1.7566Y2.3616Z-0.0209
G1X1.7637Y2.3616Z-0.0208
G1X1.7714Y2.3599Z-0.0208
G1X1.7785Y2.3568Z-0.0208
G1X1.7849Y2.3522Z-0.0208
G1X1.7901Y2.3464Z-0.0208
G1X1.794Y2.3396Z-0.0208
G1X1.7964Y2.3321Z-0.0208
G1X1.7972Y2.3244Z-0.0208
G1X1.7964Y2.3166Z-0.0209
G1X1.794Y2.3092Z-0.0209
G1X1.7901Y2.3024Z-0.021
G1X1.7853Y2.297Z-0.021
G1X1.7844Y2.2962Z-0.021
G1X1.7791Y2.2923Z-0.0211
G1X1.778Y2.2917Z-0.0211
G1X1.7714Y2.2888Z-0.0211
G1X1.7644Y2.2873Z-0.0212
G1X1.7631Y2.2871Z-0.0212
G1X1.7559Y2.2872Z-0.0212
G1X1.7483Y2.2888Z-0.0212
G1X1.7411Y2.292Z-0.0213
G1X1.7348Y2.2966Z-0.0213
G1X1.7296Y2.3024Z-0.0213
G1X1.7257Y2.3092Z-0.0213
G1X1.7233Y2.3166Z-0.0212
G1X1.7224Y2.3244Z-0.0212
G1X1.7244Y2.3244Z-0.0212
G1X1.7253Y2.3166Z-0.0212
G1X1.7275Y2.31Z-0.0213
G1X1.7309Y2.3039Z-0.0213
G1X1.7361Y2.298Z-0.0213
G1X1.7418Y2.2939Z-0.0213
G1X1.7489Y2.2907Z-0.0212
G1X1.7561Y2.2891Z-0.0212
G1X1.7635Y2.2891Z-0.0212
G1X1.7712Y2.2908Z-0.0211
G1X1.7779Y2.2939Z-0.0211
G1X1.7835Y2.298Z-0.021
G1X1.7882Y2.3032Z-0.021
G1X1.7922Y2.31Z-0.0209
G1X1.7945Y2.317Z-0.0209
G1X1.7953Y2.3244Z-0.0208
G1X1.7944Y2.3321Z-0.0208
G1X1.7922Y2.3388Z-0.0208
G1X1.7887Y2.3449Z-0.0208
G1X1.7835Y2.3507Z-0.0208
G1X1.7772Y2.3552Z-0.0208
G1X1.7708Y2.3581Z-0.0208
G1X1.7635Y2.3596Z-0.0208
G1X1.7557Y2.3595Z-0.0209
G1X1.7489Y2.3581Z-0.0209
G1X1.7425Y2.3552Z-0.021
G1X1.7361Y2.3507Z-0.021
G1X1.7309Y2.3449Z-0.0211
G1X1.7275Y2.3388Z-0.0211
G1X1.7253Y2.3321Z-0.0212
G1X1.7244Y2.3244Z-0.0212
G04 P0 ( dwell for no time -- G64 should not smooth over this point )
G0X1.7244Y2.3244Z0.0634

G0X1.8224Y2.3244Z0.0639
G01 F3.93701
( Mill infeed pass 1/1 )
G1X1.8224Y2.3244Z-0.0207
G04 P0 ( dwell for no time -- G64 should not smooth over this point )
G01 F7.87402
G01 X1.82244 Y2.32437
G1X1.8233Y2.3321Z-0.0207
G1X1.8257Y2.3396Z-0.0206
G1X1.8296Y2.3464Z-0.0206
G1X1.8344Y2.3517Z-0.0205
G1X1.8353Y2.3525Z-0.0205
G1X1.8411Y2.3568Z-0.0205
G1X1.8477Y2.3597Z-0.0204
G1X1.8489Y2.3601Z-0.0204
G1X1.8553Y2.3615Z-0.0204
G1X1.8565Y2.3616Z-0.0204
G1X1.8638Y2.3616Z-0.0203
G1X1.8714Y2.3599Z-0.0203
G1X1.8785Y2.3568Z-0.0203
G1X1.8849Y2.3522Z-0.0203
G1X1.8901Y2.3464Z-0.0203
G1X1.894Y2.3396Z-0.0203
G1X1.8964Y2.3321Z-0.0203
G1X1.8972Y2.3244Z-0.0203
G1X1.8964Y2.3166Z-0.0204
G1X1.894Y2.3092Z-0.0204
G1X1.8901Y2.3024Z-0.0205
G1X1.8853Y2.297Z-0.0205
G1X1.8844Y2.2962Z-0.0205
G1X1.8791Y2.2923Z-0.0206
G1X1.878Y2.2917Z-0.0206
G1X1.8714Y2.2888Z-0.0206
G1X1.8644Y2.2873Z-0.0207
G1X1.8631Y2.2871Z-0.0207
G1X1.8559Y2.2872Z-0.0207
G1X1.8483Y2.2888Z-0.0207
G1X1.8411Y2.292Z-0.0208
G1X1.8348Y2.2966Z-0.0208
G1X1.8296Y2.3024Z-0.0208
G1X1.8257Y2.3092Z-0.0208
G1X1.8233Y2.3166Z-0.0207
G1X1.8224Y2.3244Z-0.0207
G1X1.8244Y2.3244Z-0.0207
G1X1.8253Y2.3166Z-0.0207
G1X1.8275Y2.31Z-0.0207
G1X1.831Y2.3039Z-0.0208
G1X1.8361Y2.298Z-0.0208
G1X1.8418Y2.2939Z-0.0207
G1X1.8489Y2.2907Z-0.0207
G1X1.8561Y2.2891Z-0.0207
G1X1.8636Y2.2891Z-0.0207
G1X1.8712Y2.2908Z-0.0206
G1X1.8779Y2.2939Z-0.0206
G1X1.8835Y2.298Z-0.0205
G1X1.8882Y2.3032Z-0.0205
G1X1.8922Y2.31Z-0.0204
G1X1.8945Y2.317Z-0.0204
G1X1.8953Y2.3244Z-0.0203
G1X1.8944Y2.3321Z-0.0203
G1X1.8922Y2.3388Z-0.0203
G1X1.8887Y2.3449Z-0.0203
G1X1.8835Y2.3507Z-0.0203
G1X1.8772Y2.3552Z-0.0203
G1X1.8708Y2.3581Z-0.0203
G1X1.8636Y2.3596Z-0.0203
G1X1.8557Y2.3595Z-0.0204
G1X1.8489Y2.3581Z-0.0204
G1X1.8425Y2.3552Z-0.0205
G1X1.8361Y2.3507Z-0.0205
G1X1.831Y2.3449Z-0.0206
G1X1.8275Y2.3388Z-0.0206
G1X1.8253Y2.3321Z-0.0207
G1X1.8244Y2.3244Z-0.0207
G04 P0 ( dwell for no time -- G64 should not smooth over this point )
G0X1.8244Y2.3244Z0.064

G0X1.9224Y2.3244Z0.0645
G01 F3.93701
( Mill infeed pass 1/1 )
G1X1.9224Y2.3244Z-0.0202
G04 P0 ( dwell for no time -- G64 should not smooth over this point )
G01 F7.87402
G01 X1.92244 Y2.32437
G1X1.9233Y2.3321Z-0.0202
G1X1.9257Y2.3396Z-0.0201
G1X1.9296Y2.3464Z-0.0201
G1X1.9344Y2.3517Z-0.02
G1X1.9353Y2.3525Z-0.02
G1X1.9411Y2.3568Z-0.02
G1X1.9477Y2.3597Z-0.0199
G1X1.9489Y2.3601Z-0.0199
G1X1.9553Y2.3615Z-0.0199
G1X1.9565Y2.3616Z-0.0199
G1X1.9638Y2.3616Z-0.0198
G1X1.9714Y2.3599Z-0.0198
G1X1.9785Y2.3568Z-0.0198
G1X1.9849Y2.3522Z-0.0198
G1X1.9901Y2.3464Z-0.0198
G1X1.994Y2.3396Z-0.0198
G1X1.9964Y2.3321Z-0.0198
G1X1.9972Y2.3244Z-0.0198
G1X1.9964Y2.3166Z-0.0199
G1X1.994Y2.3092Z-0.0199
G1X1.9901Y2.3024Z-0.02
G1X1.9853Y2.297Z-0.02
G1X1.9844Y2.2962Z-0.02
G1X1.9791Y2.2923Z-0.0201
G1X1.978Y2.2917Z-0.0201
G1X1.9714Y2.2888Z-0.0201
G1X1.9644Y2.2873Z-0.0201
G1X1.9631Y2.2871Z-0.0202
G1X1.9559Y2.2872Z-0.0202
G1X1.9483Y2.2888Z-0.0202
G1X1.9411Y2.292Z-0.0202
G1X1.9348Y2.2966Z-0.0203
G1X1.9296Y2.3024Z-0.0203
G1X1.9257Y2.3092Z-0.0202
G1X1.9233Y2.3166Z-0.0202
G1X1.9224Y2.3244Z-0.0202
G1X1.9244Y2.3244Z-0.0202
G1X1.9253Y2.3166Z-0.0202
G1X1.9275Y2.31Z-0.0202
G1X1.9309Y2.3039Z-0.0202
G1X1.9361Y2.298Z-0.0202
G1X1.9418Y2.2939Z-0.0202
G1X1.9489Y2.2907Z-0.0202
G1X1.9561Y2.2891Z-0.0202
G1X1.9635Y2.2891Z-0.0201
G1X1.9712Y2.2908Z-0.0201
G1X1.9779Y2.2939Z-0.0201
G1X1.9835Y2.298Z-0.02
G1X1.9883Y2.3032Z-0.02
G1X1.9922Y2.31Z-0.0199
G1X1.9945Y2.317Z-0.0199
G1X1.9953Y2.3244Z-0.0198
G1X1.9944Y2.3321Z-0.0198
G1X1.9922Y2.3388Z-0.0198
G1X1.9887Y2.3449Z-0.0198
G1X1.9835Y2.3507Z-0.0198
G1X1.9772Y2.3552Z-0.0198
G1X1.9708Y2.3581Z-0.0198
G1X1.9635Y2.3596Z-0.0198
G1X1.9557Y2.3595Z-0.0199
G1X1.9489Y2.3581Z-0.0199
G1X1.9425Y2.3552Z-0.02
G1X1.9361Y2.3507Z-0.02
G1X1.9309Y2.3449Z-0.0201
G1X1.9275Y2.3388Z-0.0201
G1X1.9253Y2.3321Z-0.0201
G1X1.9244Y2.3244Z-0.0202
G04 P0 ( dwell for no time -- G64 should not smooth over this point )
G0X1.9244Y2.3244Z0.0645

G0X2.1161Y2.3244Z0.0654
G0X2.1224Y2.3244Z0.0655
G01 F3.93701
( Mill infeed pass 1/1 )
G1X2.1224Y2.3244Z-0.0192
G04 P0 ( dwell for no time -- G64 should not smooth over this point )
G01 F7.87402
G01 X2.12244 Y2.32437
G1X2.1233Y2.3321Z-0.0192
G1X2.1257Y2.3396Z-0.0191
G1X2.1296Y2.3464Z-0.0191
G1X2.1344Y2.3517Z-0.019
G1X2.1353Y2.3525Z-0.019
G1X2.1411Y2.3568Z-0.019
G1X2.1477Y2.3597Z-0.0189
G1X2.1489Y2.3601Z-0.0189
G1X2.1553Y2.3615Z-0.0189
G1X2.1566Y2.3616Z-0.0189
G1X2.1637Y2.3616Z-0.0189
G1X2.1714Y2.3599Z-0.0188
G1X2.1785Y2.3568Z-0.0188
G1X2.1849Y2.3522Z-0.0188
G1X2.1901Y2.3464Z-0.0188
G1X2.194Y2.3396Z-0.0188
G1X2.1964Y2.3321Z-0.0189
G1X2.1972Y2.3244Z-0.0189
G1X2.1964Y2.3166Z-0.0189
G1X2.194Y2.3092Z-0.019
G1X2.1901Y2.3024Z-0.019
G1X2.1853Y2.297Z-0.0191
G1X2.1844Y2.2962Z-0.0191
G1X2.1791Y2.2923Z-0.0191
G1X2.178Y2.2917Z-0.0191
G1X2.1714Y2.2888Z-0.0192
G1X2.1644Y2.2873Z-0.0192
G1X2.1631Y2.2871Z-0.0192
G1X2.1559Y2.2872Z-0.0192
G1X2.1483Y2.2888Z-0.0192
G1X2.1411Y2.292Z-0.0193
G1X2.1348Y2.2966Z-0.0193
G1X2.1296Y2.3024Z-0.0193
G1X2.1257Y2.3092Z-0.0192
G1X2.1233Y2.3166Z-0.0192
G1X2.1224Y2.3244Z-0.0192
G1X2.1244Y2.3244Z-0.0192
G1X2.1253Y2.3166Z-0.0192
G1X2.1275Y2.31Z-0.0192
G1X2.1309Y2.3039Z-0.0192
G1X2.1361Y2.298Z-0.0192
G1X2.1418Y2.2939Z-0.0192
G1X2.1489Y2.2907Z-0.0192
G1X2.1561Y2.2891Z-0.0192
G1X2.1635Y2.2891Z-0.0192
G1X2.1712Y2.2908Z-0.0191
G1X2.1779Y2.2939Z-0.0191
G1X2.1835Y2.298Z-0.0191
G1X2.1883Y2.3032Z-0.019
G1X2.1922Y2.31Z-0.019
G1X2.1945Y2.317Z-0.0189
G1X2.1953Y2.3244Z-0.0189
G1X2.1944Y2.3321Z-0.0189
G1X2.1922Y2.3388Z-0.0189
G1X2.1887Y2.3449Z-0.0188
G1X2.1835Y2.3507Z-0.0188
G1X2.1772Y2.3552Z-0.0188
G1X2.1708Y2.3581Z-0.0189
G1X2.1635Y2.3596Z-0.0189
G1X2.1557Y2.3595Z-0.0189
G1X2.1489Y2.3581Z-0.0189
G1X2.1425Y2.3552Z-0.019
G1X2.1361Y2.3507Z-0.019
G1X2.1309Y2.3449Z-0.0191
G1X2.1275Y2.3388Z-0.0191
G1X2.1253Y2.3321Z-0.0191
G1X2.1244Y2.3244Z-0.0192
G04 P0 ( dwell for no time -- G64 should not smooth over this point )
G0X2.1244Y2.3244Z0.0655

G0X2.1161Y2.312Z0.0654
G0X1.9849Y2.1161Z0.0638
G0X1.7224Y1.7244Z0.0605
G01 F3.93701
( Mill infeed pass 1/1 )
G1X1.7224Y1.7244Z-0.0242
G04 P0 ( dwell for no time -- G64 should not smooth over this point )
G01 F7.87402
G01 X1.72244 Y1.72437
G1X1.7232Y1.7315Z-0.0241
G1X1.7234Y1.7327Z-0.0241
G1X1.7257Y1.7396Z-0.0241
G1X1.7296Y1.7464Z-0.024
G1X1.7344Y1.7517Z-0.024
G1X1.7353Y1.7526Z-0.024
G1X1.7411Y1.7568Z-0.0239
G1X1.7483Y1.7599Z-0.0238
G1X1.7553Y1.7615Z-0.0238
G1X1.7566Y1.7616Z-0.0238
G1X1.7637Y1.7616Z-0.0238
G1X1.7714Y1.7599Z-0.0237
G1X1.778Y1.757Z-0.0237
G1X1.7791Y1.7564Z-0.0237
G1X1.7849Y1.7522Z-0.0237
G1X1.7897Y1.7468Z-0.0237
G1X1.7904Y1.7458Z-0.0237
G1X1.7937Y1.7401Z-0.0237
G1X1.7942Y1.739Z-0.0237
G1X1.7964Y1.7322Z-0.0237
G1X1.7972Y1.7244Z-0.0238
G1X1.7964Y1.7166Z-0.0238
G1X1.7953Y1.7129Z-0.0238
G1X1.7953Y1.6417Z-0.0242
G1X1.7947Y1.6411Z-0.0242
G1X1.7953Y1.6417Z-0.0242
G1X2.1161Y1.6417Z-0.0224
G1X2.4011Y1.6417Z-0.0211
G1X2.4011Y1.6415Z-0.0211
G1X2.4011Y1.6417Z-0.0211
G1X2.5875Y1.8282Z-0.0194
G1X2.5925Y1.8322Z-0.0193
G1X2.5985Y1.8356Z-0.0193
G1X2.5996Y1.836Z-0.0193
G1X2.6057Y1.8379Z-0.0193
G1X2.6067Y1.838Z-0.0192
G1X2.6071Y1.8377Z-0.0192
G1X2.6067Y1.838Z-0.0192
G1X2.6068Y1.8436Z-0.0192
G1X2.6071Y1.8447Z-0.0192
G1X2.6077Y1.8458Z-0.0192
G1X2.6084Y1.8467Z-0.0192
G1X2.6093Y1.8474Z-0.0192
G1X2.6103Y1.8479Z-0.0192
G1X2.6114Y1.8483Z-0.0192
G1X2.6126Y1.8484Z-0.0192
G1X2.6913Y1.8484Z-0.0188
G1X2.6925Y1.8483Z-0.0188
G1X2.6936Y1.8479Z-0.0188
G1X2.6946Y1.8474Z-0.0188
G1X2.6955Y1.8467Z-0.0188
G1X2.6962Y1.8458Z-0.0188
G1X2.6968Y1.8447Z-0.0188
G1X2.6971Y1.8436Z-0.0188
G1X2.6972Y1.8425Z-0.0188
G1X2.6972Y1.7637Z-0.0192
G1X2.6971Y1.7626Z-0.0192
G1X2.6968Y1.7615Z-0.0192
G1X2.6962Y1.7605Z-0.0192
G1X2.6955Y1.7596Z-0.0192
G1X2.6946Y1.7588Z-0.0192
G1X2.6936Y1.7583Z-0.0192
G1X2.6925Y1.7579Z-0.0192
G1X2.6913Y1.7578Z-0.0192
G1X2.6174Y1.7578Z-0.0195
G1X2.6174Y1.758Z-0.0195
G1X2.6174Y1.7578Z-0.0195
G1X2.4408Y1.5812Z-0.0212
G1X2.4359Y1.5772Z-0.0212
G1X2.4298Y1.5738Z-0.0212
G1X2.4288Y1.5733Z-0.0213
G1X2.4221Y1.5714Z-0.0213
G1X2.4158Y1.5708Z-0.0213
G1X2.1161Y1.5708Z-0.0228
G1X1.7661Y1.5708Z-0.0247
G1X1.7598Y1.5714Z-0.0247
G1X1.7587Y1.5716Z-0.0247
G1X1.7531Y1.5733Z-0.0248
G1X1.747Y1.5765Z-0.0248
G1X1.7415Y1.5808Z-0.0248
G1X1.7348Y1.5875Z-0.0248
G1X1.7307Y1.5924Z-0.0248
G1X1.7273Y1.5985Z-0.0248
G1X1.7269Y1.5996Z-0.0248
G1X1.7251Y1.6057Z-0.0248
G1X1.7244Y1.6126Z-0.0247
G1X1.7244Y1.7129Z-0.0242
G1X1.7233Y1.7166Z-0.0242
G1X1.7224Y1.7244Z-0.0242
G1X1.7244Y1.7244Z-0.0242
G1X1.7252Y1.717Z-0.0242
G1X1.7264Y1.7133Z-0.0242
G1X1.7264Y1.6126Z-0.0247
G1X1.727Y1.606Z-0.0247
G1X1.7291Y1.5994Z-0.0248
G1X1.7323Y1.5937Z-0.0248
G1X1.7362Y1.5889Z-0.0248
G1X1.7425Y1.5826Z-0.0248
G1X1.7475Y1.5784Z-0.0248
G1X1.753Y1.5755Z-0.0248
G1X1.7592Y1.5735Z-0.0247
G1X1.7661Y1.5728Z-0.0247
G1X2.1161Y1.5728Z-0.0228
G1X2.4158Y1.5728Z-0.0213
G1X2.4219Y1.5734Z-0.0213
G1X2.4289Y1.5755Z-0.0212
G1X2.4346Y1.5787Z-0.0212
G1X2.4394Y1.5826Z-0.0212
G1X2.6166Y1.7598Z-0.0195
G1X2.6913Y1.7598Z-0.0192
G1X2.6928Y1.7601Z-0.0192
G1X2.6941Y1.761Z-0.0192
G1X2.695Y1.7622Z-0.0192
G1X2.6953Y1.7637Z-0.0192
G1X2.6953Y1.8425Z-0.0188
G1X2.695Y1.844Z-0.0188
G1X2.6941Y1.8453Z-0.0188
G1X2.6928Y1.8461Z-0.0188
G1X2.6913Y1.8464Z-0.0188
G1X2.6126Y1.8464Z-0.0192
G1X2.6118Y1.8463Z-0.0192
G1X2.6104Y1.8458Z-0.0192
G1X2.6093Y1.8447Z-0.0192
G1X2.6087Y1.8433Z-0.0192
G1X2.6087Y1.8362Z-0.0192
G1X2.6057Y1.8358Z-0.0193
G1X2.5994Y1.8339Z-0.0193
G1X2.5937Y1.8307Z-0.0193
G1X2.5889Y1.8268Z-0.0194
G1X2.4019Y1.6397Z-0.0211
G1X2.1161Y1.6397Z-0.0224
G1X1.7933Y1.6397Z-0.0242
G1X1.7933Y1.7133Z-0.0238
G1X1.7945Y1.717Z-0.0238
G1X1.7953Y1.7244Z-0.0238
G1X1.7945Y1.7317Z-0.0237
G1X1.7924Y1.7384Z-0.0237
G1X1.7882Y1.7455Z-0.0237
G1X1.7835Y1.7507Z-0.0237
G1X1.7779Y1.7548Z-0.0237
G1X1.7708Y1.7581Z-0.0237
G1X1.7631Y1.7596Z-0.0238
G1X1.7561Y1.7596Z-0.0238
G1X1.7489Y1.7581Z-0.0239
G1X1.7421Y1.7551Z-0.0239
G1X1.7365Y1.751Z-0.024
G1X1.7312Y1.7452Z-0.024
G1X1.7273Y1.7384Z-0.0241
G1X1.7252Y1.7317Z-0.0241
G1X1.7244Y1.7244Z-0.0242
G04 P0 ( dwell for no time -- G64 should not smooth over this point )
G0X1.7244Y1.7244Z0.0605

G0X1.9224Y1.7244Z0.0616
G01 F3.93701
( Mill infeed pass 1/1 )
G1X1.9224Y1.7244Z-0.0231
G04 P0 ( dwell for no time -- G64 should not smooth over this point )
G01 F7.87402
G01 X1.92244 Y1.72437
G1X1.9233Y1.7322Z-0.023
G1X1.9257Y1.7396Z-0.023
G1X1.9296Y1.7464Z-0.0229
G1X1.9344Y1.7517Z-0.0229
G1X1.9353Y1.7526Z-0.0229
G1X1.9411Y1.7568Z-0.0228
G1X1.9477Y1.7597Z-0.0228
G1X1.9489Y1.7601Z-0.0228
G1X1.9553Y1.7615Z-0.0227
G1X1.9565Y1.7616Z-0.0227
G1X1.9638Y1.7616Z-0.0227
G1X1.9714Y1.7599Z-0.0226
G1X1.9785Y1.7568Z-0.0226
G1X1.9849Y1.7522Z-0.0226
G1X1.9901Y1.7464Z-0.0226
G1X1.994Y1.7396Z-0.0226
G1X1.9964Y1.7322Z-0.0226
G1X1.9972Y1.7244Z-0.0227
G1X1.9964Y1.7166Z-0.0227
G1X1.994Y1.7092Z-0.0228
G1X1.9901Y1.7024Z-0.0228
G1X1.9853Y1.697Z-0.0229
G1X1.9844Y1.6962Z-0.0229
G1X1.9791Y1.6923Z-0.0229
G1X1.978Y1.6917Z-0.0229
G1X1.9714Y1.6888Z-0.023
G1X1.9644Y1.6873Z-0.023
G1X1.9631Y1.6871Z-0.023
G1X1.9559Y1.6872Z-0.0231
G1X1.9483Y1.6888Z-0.0231
G1X1.9411Y1.692Z-0.0231
G1X1.9348Y1.6966Z-0.0232
G1X1.9296Y1.7024Z-0.0232
G1X1.9257Y1.7092Z-0.0231
G1X1.9233Y1.7166Z-0.0231
G1X1.9224Y1.7244Z-0.0231
G1X1.9244Y1.7244Z-0.0231
G1X1.9253Y1.7166Z-0.0231
G1X1.9275Y1.71Z-0.0231
G1X1.9309Y1.7039Z-0.0231
G1X1.9361Y1.698Z-0.0231
G1X1.9418Y1.6939Z-0.0231
G1X1.9489Y1.6907Z-0.0231
G1X1.9561Y1.6891Z-0.0231
G1X1.9635Y1.6891Z-0.023
G1X1.9712Y1.6908Z-0.023
G1X1.9779Y1.6939Z-0.0229
G1X1.9835Y1.698Z-0.0229
G1X1.9883Y1.7032Z-0.0228
G1X1.9922Y1.71Z-0.0228
G1X1.9945Y1.717Z-0.0227
G1X1.9953Y1.7244Z-0.0227
G1X1.9944Y1.7321Z-0.0227
G1X1.9922Y1.7388Z-0.0226
G1X1.9887Y1.7449Z-0.0226
G1X1.9835Y1.7507Z-0.0226
G1X1.9772Y1.7552Z-0.0226
G1X1.9708Y1.7581Z-0.0226
G1X1.9635Y1.7596Z-0.0227
G1X1.9557Y1.7595Z-0.0227
G1X1.9489Y1.7581Z-0.0228
G1X1.9425Y1.7552Z-0.0228
G1X1.9361Y1.7507Z-0.0229
G1X1.9309Y1.7449Z-0.0229
G1X1.9275Y1.7388Z-0.023
G1X1.9253Y1.7321Z-0.023
G1X1.9244Y1.7244Z-0.0231
G04 P0 ( dwell for no time -- G64 should not smooth over this point )
G0X1.9244Y1.7244Z0.0616

G0X2.0224Y1.7244Z0.0621
G01 F3.93701
( Mill infeed pass 1/1 )
G1X2.0224Y1.7244Z-0.0225
G04 P0 ( dwell for no time -- G64 should not smooth over this point )
G01 F7.87402
G01 X2.02244 Y1.72437
G1X2.0233Y1.7322Z-0.0225
G1X2.0257Y1.7396Z-0.0224
G1X2.0296Y1.7464Z-0.0224
G1X2.0344Y1.7517Z-0.0223
G1X2.0353Y1.7526Z-0.0223
G1X2.0411Y1.7568Z-0.0223
G1X2.0477Y1.7597Z-0.0222
G1X2.0489Y1.7601Z-0.0222
G1X2.0553Y1.7615Z-0.0222
G1X2.0566Y1.7616Z-0.0222
G1X2.0638Y1.7616Z-0.0221
G1X2.0714Y1.7599Z-0.0221
G1X2.0785Y1.7568Z-0.0221
G1X2.0849Y1.7522Z-0.0221
G1X2.0901Y1.7464Z-0.0221
G1X2.094Y1.7396Z-0.0221
G1X2.0964Y1.7322Z-0.0221
G1X2.0972Y1.7244Z-0.0221
G1X2.0964Y1.7166Z-0.0222
G1X2.094Y1.7092Z-0.0222
G1X2.0901Y1.7024Z-0.0223
G1X2.0853Y1.697Z-0.0223
G1X2.0844Y1.6962Z-0.0223
G1X2.0791Y1.6923Z-0.0224
G1X2.078Y1.6917Z-0.0224
G1X2.0714Y1.6888Z-0.0224
G1X2.0644Y1.6873Z-0.0225
G1X2.0631Y1.6871Z-0.0225
G1X2.0559Y1.6872Z-0.0225
G1X2.0483Y1.6888Z-0.0226
G1X2.0411Y1.692Z-0.0226
G1X2.0348Y1.6966Z-0.0226
G1X2.0296Y1.7024Z-0.0226
G1X2.0257Y1.7092Z-0.0226
G1X2.0233Y1.7166Z-0.0226
G1X2.0224Y1.7244Z-0.0225
G1X2.0244Y1.7244Z-0.0225
G1X2.0253Y1.7166Z-0.0226
G1X2.0275Y1.71Z-0.0226
G1X2.0309Y1.7039Z-0.0226
G1X2.0361Y1.698Z-0.0226
G1X2.0418Y1.6939Z-0.0226
G1X2.0489Y1.6907Z-0.0226
G1X2.0561Y1.6891Z-0.0225
G1X2.0636Y1.6891Z-0.0225
G1X2.0712Y1.6908Z-0.0224
G1X2.0779Y1.6939Z-0.0224
G1X2.0835Y1.698Z-0.0223
G1X2.0882Y1.7032Z-0.0223
G1X2.0922Y1.71Z-0.0222
G1X2.0945Y1.717Z-0.0222
G1X2.0953Y1.7244Z-0.0221
G1X2.0944Y1.7321Z-0.0221
G1X2.0922Y1.7388Z-0.0221
G1X2.0887Y1.7449Z-0.0221
G1X2.0835Y1.7507Z-0.0221
G1X2.0772Y1.7552Z-0.0221
G1X2.0708Y1.7581Z-0.0221
G1X2.0636Y1.7596Z-0.0221
G1X2.0557Y1.7595Z-0.0222
G1X2.0489Y1.7581Z-0.0222
G1X2.0425Y1.7552Z-0.0223
G1X2.0361Y1.7507Z-0.0223
G1X2.0309Y1.7449Z-0.0224
G1X2.0275Y1.7388Z-0.0224
G1X2.0253Y1.7321Z-0.0225
G1X2.0244Y1.7244Z-0.0225
G04 P0 ( dwell for no time -- G64 should not smooth over this point )
G0X2.0244Y1.7244Z0.0621

G0X2.1161Y1.6949Z0.0625
G0X2.1224Y1.6929Z0.0625
G01 F3.93701
( Mill infeed pass 1/1 )
G1X2.1224Y1.6929Z-0.0222
G04 P0 ( dwell for no time -- G64 should not smooth over this point )
G01 F7.87402
G01 X2.12244 Y1.69287
G1X2.1225Y1.6917Z-0.0222
G1X2.1229Y1.6906Z-0.0222
G1X2.1234Y1.6896Z-0.0222
G1X2.1242Y1.6887Z-0.0222
G1X2.1251Y1.688Z-0.0222
G1X2.1261Y1.6874Z-0.0222
G1X2.1272Y1.6871Z-0.0222
G1X2.1284Y1.687Z-0.0222
G1X2.1913Y1.687Z-0.0219
G1X2.1925Y1.6871Z-0.0218
G1X2.1936Y1.6874Z-0.0218
G1X2.1946Y1.688Z-0.0218
G1X2.1955Y1.6887Z-0.0218
G1X2.1963Y1.6896Z-0.0218
G1X2.1968Y1.6906Z-0.0218
G1X2.1971Y1.6917Z-0.0218
G1X2.1972Y1.6929Z-0.0218
G1X2.1972Y1.7559Z-0.0215
G1X2.1971Y1.757Z-0.0215
G1X2.1968Y1.7581Z-0.0215
G1X2.1963Y1.7591Z-0.0215
G1X2.1955Y1.76Z-0.0215
G1X2.1946Y1.7608Z-0.0215
G1X2.1936Y1.7613Z-0.0215
G1X2.1925Y1.7617Z-0.0215
G1X2.1913Y1.7618Z-0.0215
G1X2.1284Y1.7618Z-0.0218
G1X2.1272Y1.7617Z-0.0218
G1X2.1261Y1.7613Z-0.0218
G1X2.1251Y1.7608Z-0.0218
G1X2.1242Y1.76Z-0.0218
G1X2.1234Y1.7591Z-0.0218
G1X2.1229Y1.7581Z-0.0218
G1X2.1225Y1.757Z-0.0218
G1X2.1224Y1.7559Z-0.0218
G1X2.1224Y1.6929Z-0.0222
G1X2.1244Y1.6929Z-0.0221
G1X2.1244Y1.7559Z-0.0218
G1X2.1247Y1.7574Z-0.0218
G1X2.1256Y1.7587Z-0.0218
G1X2.1268Y1.7595Z-0.0218
G1X2.1284Y1.7598Z-0.0218
G1X2.1913Y1.7598Z-0.0215
G1X2.1928Y1.7595Z-0.0215
G1X2.1941Y1.7587Z-0.0215
G1X2.195Y1.7574Z-0.0215
G1X2.1953Y1.7559Z-0.0215
G1X2.1953Y1.6929Z-0.0218
G1X2.195Y1.6914Z-0.0218
G1X2.1941Y1.6901Z-0.0218
G1X2.1928Y1.6892Z-0.0218
G1X2.1913Y1.6889Z-0.0218
G1X2.1284Y1.6889Z-0.0221
G1X2.1268Y1.6892Z-0.0221
G1X2.1256Y1.6901Z-0.0221
G1X2.1247Y1.6914Z-0.0221
G1X2.1244Y1.6929Z-0.0221
G04 P0 ( dwell for no time -- G64 should not smooth over this point )
G0X2.1244Y1.6929Z0.0625

G0X2.1161Y1.6687Z0.0624
G0X2.0502Y1.4764Z0.061
G0X1.8982Y1.0331Z0.0576
G01 F3.93701
( Mill infeed pass 1/1 )
G1X1.8982Y1.0331Z-0.0271
G04 P0 ( dwell for no time -- G64 should not smooth over this point )
G01 F7.87402
G01 X1.89824 Y1.03305
G1X1.8984Y1.0318Z-0.0271
G1X1.9Y1.0241Z-0.0271
G1X1.9004Y1.023Z-0.0271
G1X1.9039Y1.0153Z-0.0271
G1X1.9092Y1.0079Z-0.0272
G1X1.9154Y1.0022Z-0.0272
G1X1.9164Y1.0015Z-0.0272
G1X1.9238Y0.9973Z-0.0271
G1X1.9324Y0.9945Z-0.0271
G1X1.9414Y0.9936Z-0.0271
G1X1.9458Y0.9936Z-0.027
G1X1.9542Y0.9945Z-0.027
G1X1.9628Y0.9973Z-0.0269
G1X1.9702Y1.0016Z-0.0269
G1X2.063Y1.0015Z-0.0264
G1X2.0699Y1.0022Z-0.0264
G1X2.076Y1.004Z-0.0263
G1X2.0771Y1.0045Z-0.0263
G1X2.0831Y1.0078Z-0.0263
G1X2.088Y1.0119Z-0.0262
G1X2.1161Y1.04Z-0.0259
G1X2.1942Y1.1181Z-0.025
G1X2.1941Y1.1182Z-0.025
G1X2.1942Y1.1181Z-0.025
G1X2.1972Y1.1181Z-0.025
G1X2.1978Y1.1186Z-0.025
G1X2.1972Y1.1181Z-0.025
G1X2.1972Y1.1082Z-0.0251
G1X2.1975Y1.1056Z-0.0251
G1X2.1986Y1.1018Z-0.0251
G1X2.1999Y1.0995Z-0.0251
G1X2.2024Y1.0965Z-0.0251
G1X2.2046Y1.0949Z-0.0251
G1X2.2075Y1.0935Z-0.0251
G1X2.2087Y1.0931Z-0.0251
G1X2.2107Y1.0927Z-0.0251
G1X2.213Y1.0925Z-0.0251
G1X2.3035Y1.0925Z-0.0246
G1X2.3058Y1.0927Z-0.0246
G1X2.3078Y1.0931Z-0.0246
G1X2.3114Y1.0946Z-0.0245
G1X2.3141Y1.0965Z-0.0245
G1X2.3166Y1.0995Z-0.0245
G1X2.3179Y1.1018Z-0.0245
G1X2.319Y1.1056Z-0.0244
G1X2.3193Y1.1082Z-0.0244
G1X2.3193Y1.1181Z-0.0244
G1X2.3187Y1.1186Z-0.0244
G1X2.3193Y1.1181Z-0.0244
G1X2.3913Y1.1181Z-0.024
G1X2.3982Y1.1187Z-0.0239
G1X2.4043Y1.1206Z-0.0239
G1X2.4105Y1.1238Z-0.0238
G1X2.4115Y1.1244Z-0.0238
G1X2.4164Y1.1284Z-0.0238
G1X2.5546Y1.2667Z-0.0223
G1X2.5589Y1.2721Z-0.0222
G1X2.5616Y1.2772Z-0.0222
G1X2.5621Y1.2783Z-0.0222
G1X2.5639Y1.2844Z-0.0221
G1X2.5645Y1.2907Z-0.0221
G1X2.5645Y1.2919Z-0.0221
G1X2.5639Y1.2982Z-0.022
G1X2.5621Y1.3043Z-0.022
G1X2.5589Y1.3105Z-0.022
G1X2.5583Y1.3115Z-0.022
G1X2.5542Y1.3163Z-0.022
G1X2.5493Y1.3204Z-0.022
G1X2.5483Y1.3211Z-0.022
G1X2.5421Y1.3242Z-0.022
G1X2.5355Y1.3261Z-0.022
G1X2.5297Y1.3267Z-0.0221
G1X2.5228Y1.3261Z-0.0221
G1X2.5161Y1.3242Z-0.0221
G1X2.5099Y1.3211Z-0.0222
G1X2.509Y1.3204Z-0.0222
G1X2.5041Y1.3163Z-0.0222
G1X2.3767Y1.1889Z-0.0236
G1X2.3767Y1.1888Z-0.0236
G1X2.3767Y1.1889Z-0.0236
G1X2.3193Y1.1889Z-0.0239
G1X2.3187Y1.1884Z-0.0239
G1X2.3193Y1.1889Z-0.0239
G1X2.3193Y1.1994Z-0.0239
G1X2.319Y1.2021Z-0.0239
G1X2.3176Y1.2057Z-0.0238
G1X2.3163Y1.208Z-0.0238
G1X2.3145Y1.2101Z-0.0238
G1X2.3119Y1.2121Z-0.0238
G1X2.3084Y1.2138Z-0.0238
G1X2.3052Y1.2144Z-0.0239
G1X2.213Y1.2145Z-0.0243
G1X2.2107Y1.2143Z-0.0243
G1X2.2075Y1.2135Z-0.0244
G1X2.2051Y1.2124Z-0.0244
G1X2.2024Y1.2105Z-0.0244
G1X2.2003Y1.208Z-0.0244
G1X2.1986Y1.2052Z-0.0245
G1X2.1976Y1.2021Z-0.0245
G1X2.1972Y1.1988Z-0.0245
G1X2.1972Y1.1889Z-0.0246
G1X2.1978Y1.1884Z-0.0246
G1X2.1972Y1.1889Z-0.0246
G1X2.1795Y1.1889Z-0.0247
G1X2.1726Y1.1883Z-0.0247
G1X2.1665Y1.1864Z-0.0247
G1X2.1654Y1.186Z-0.0247
G1X2.1594Y1.1826Z-0.0248
G1X2.1545Y1.1786Z-0.0248
G1X2.1161Y1.1402Z-0.0253
G1X2.0483Y1.0724Z-0.026
G1X2.0484Y1.0722Z-0.026
G1X2.0483Y1.0724Z-0.026
G1X1.9702Y1.0723Z-0.0265
G1X1.9628Y1.0766Z-0.0265
G1X1.9542Y1.0794Z-0.0265
G1X1.9452Y1.0804Z-0.0265
G1X1.9408Y1.0803Z-0.0266
G1X1.9324Y1.0794Z-0.0266
G1X1.9238Y1.0766Z-0.0267
G1X1.9164Y1.0724Z-0.0267
G1X1.9154Y1.0717Z-0.0267
G1X1.9096Y1.0664Z-0.0268
G1X1.9088Y1.0655Z-0.0268
G1X1.9039Y1.0587Z-0.0269
G1X1.9002Y1.0504Z-0.0269
G1X1.8983Y1.0415Z-0.027
G1X1.8982Y1.0331Z-0.0271
G1X1.9002Y1.0331Z-0.0271
G1X1.9002Y1.0413Z-0.027
G1X1.9022Y1.0502Z-0.0269
G1X1.9056Y1.0577Z-0.0269
G1X1.9104Y1.0644Z-0.0268
G1X1.9174Y1.0707Z-0.0267
G1X1.9246Y1.0748Z-0.0267
G1X1.9328Y1.0775Z-0.0266
G1X1.9414Y1.0784Z-0.0266
G1X1.9456Y1.0784Z-0.0265
G1X1.9538Y1.0775Z-0.0265
G1X1.962Y1.0748Z-0.0265
G1X1.9696Y1.0704Z-0.0265
G1X2.0491Y1.0704Z-0.0261
G1X2.1161Y1.1374Z-0.0253
G1X2.1559Y1.1772Z-0.0248
G1X2.1606Y1.1811Z-0.0248
G1X2.1664Y1.1843Z-0.0248
G1X2.1734Y1.1864Z-0.0247
G1X2.1795Y1.187Z-0.0247
G1X2.1992Y1.187Z-0.0246
G1X2.1992Y1.1992Z-0.0245
G1X2.1995Y1.2016Z-0.0245
G1X2.2004Y1.2044Z-0.0245
G1X2.2018Y1.2069Z-0.0244
G1X2.2038Y1.209Z-0.0244
G1X2.2061Y1.2107Z-0.0244
G1X2.2087Y1.2119Z-0.0244
G1X2.2111Y1.2124Z-0.0244
G1X2.213Y1.2126Z-0.0243
G1X2.305Y1.2125Z-0.0239
G1X2.3082Y1.2117Z-0.0239
G1X2.3104Y1.2107Z-0.0239
G1X2.3124Y1.2093Z-0.0238
G1X2.3147Y1.2069Z-0.0239
G1X2.3161Y1.2044Z-0.0239
G1X2.317Y1.2016Z-0.0239
G1X2.3173Y1.1992Z-0.0239
G1X2.3173Y1.187Z-0.024
G1X2.3775Y1.187Z-0.0236
G1X2.5055Y1.315Z-0.0222
G1X2.5102Y1.3189Z-0.0222
G1X2.5167Y1.3223Z-0.0221
G1X2.523Y1.3242Z-0.0221
G1X2.5291Y1.3248Z-0.0221
G1X2.5353Y1.3242Z-0.022
G1X2.5416Y1.3223Z-0.022
G1X2.5477Y1.3191Z-0.022
G1X2.5528Y1.315Z-0.022
G1X2.5572Y1.3096Z-0.022
G1X2.56Y1.3041Z-0.022
G1X2.562Y1.2974Z-0.0221
G1X2.5626Y1.2913Z-0.0221
G1X2.5619Y1.2844Z-0.0221
G1X2.5599Y1.2781Z-0.0222
G1X2.557Y1.2727Z-0.0222
G1X2.5528Y1.2676Z-0.0223
G1X2.415Y1.1298Z-0.0238
G1X2.4099Y1.1257Z-0.0238
G1X2.4038Y1.1225Z-0.0239
G1X2.3975Y1.1206Z-0.0239
G1X2.3913Y1.12Z-0.024
G1X2.3173Y1.12Z-0.0244
G1X2.3173Y1.1078Z-0.0244
G1X2.317Y1.1054Z-0.0244
G1X2.3159Y1.1023Z-0.0245
G1X2.3147Y1.1001Z-0.0245
G1X2.3131Y1.0983Z-0.0245
G1X2.3104Y1.0963Z-0.0245
G1X2.3074Y1.095Z-0.0246
G1X2.3054Y1.0946Z-0.0246
G1X2.3035Y1.0944Z-0.0246
G1X2.213Y1.0944Z-0.0251
G1X2.2111Y1.0946Z-0.0251
G1X2.2091Y1.095Z-0.0251
G1X2.2061Y1.0963Z-0.0251
G1X2.2038Y1.098Z-0.0251
G1X2.2018Y1.1001Z-0.0251
G1X2.2004Y1.1026Z-0.0251
G1X2.1995Y1.1054Z-0.0251
G1X2.1992Y1.1078Z-0.025
G1X2.1992Y1.12Z-0.025
G1X2.1934Y1.12Z-0.025
G1X2.1161Y1.0428Z-0.0259
G1X2.0867Y1.0133Z-0.0262
G1X2.0816Y1.0091Z-0.0263
G1X2.0762Y1.0062Z-0.0263
G1X2.0691Y1.0041Z-0.0264
G1X2.063Y1.0035Z-0.0264
G1X1.9696Y1.0035Z-0.0269
G1X1.962Y0.9991Z-0.0269
G1X1.9538Y0.9964Z-0.027
G1X1.9452Y0.9955Z-0.027
G1X1.941Y0.9956Z-0.0271
G1X1.9328Y0.9964Z-0.0271
G1X1.9242Y0.9993Z-0.0271
G1X1.9171Y1.0034Z-0.0271
G1X1.9106Y1.0092Z-0.0271
G1X1.9056Y1.0163Z-0.0271
G1X1.9022Y1.0238Z-0.0271
G1X1.9002Y1.0331Z-0.0271
G04 P0 ( dwell for no time -- G64 should not smooth over this point )
G0X1.9002Y1.0331Z0.0576

G0X1.8831Y0.8366Z0.0564
G0X1.8589Y0.5575Z0.0542
G01 F3.93701
( Mill infeed pass 1/1 )
G1X1.8589Y0.5575Z-0.0304
G04 P0 ( dwell for no time -- G64 should not smooth over this point )
G01 F7.87402
G01 X1.85887 Y0.55746
G1X1.859Y0.5562Z-0.0304
G1X1.8606Y0.5486Z-0.0305
G1X1.861Y0.5474Z-0.0305
G1X1.8645Y0.5397Z-0.0305
G1X1.8698Y0.5323Z-0.0306
G1X1.8765Y0.5263Z-0.0306
G1X1.8839Y0.522Z-0.0306
G1X1.885Y0.5215Z-0.0306
G1X1.893Y0.5189Z-0.0306
G1X1.9021Y0.518Z-0.0305
G1X1.9064Y0.518Z-0.0305
G1X1.9148Y0.5189Z-0.0305
G1X1.9235Y0.5217Z-0.0304
G1X1.9308Y0.526Z-0.0304
G1X1.9848Y0.526Z-0.0301
G1X1.9912Y0.5266Z-0.0301
G1X1.9942Y0.5275Z-0.0301
G1X2.0074Y0.5275Z-0.03
G1X2.0074Y0.5277Z-0.03
G1X2.0074Y0.5275Z-0.03
G1X2.0457Y0.4892Z-0.0302
G1X2.0458Y0.4893Z-0.0302
G1X2.0457Y0.4892Z-0.0302
G1X2.0457Y0.4055Z-0.0308
G1X2.0463Y0.3986Z-0.0309
G1X2.0482Y0.3925Z-0.0309
G1X2.0486Y0.3914Z-0.0309
G1X2.052Y0.3853Z-0.031
G1X2.056Y0.3804Z-0.031
G1X2.0832Y0.3533Z-0.0311
G1X2.0881Y0.3492Z-0.0311
G1X2.0891Y0.3486Z-0.0311
G1X2.0953Y0.3454Z-0.0311
G1X2.1014Y0.3436Z-0.0311
G1X2.1083Y0.3429Z-0.0311
G1X2.1161Y0.3429Z-0.031
G1X2.2982Y0.3429Z-0.0302
G1X2.3045Y0.3436Z-0.0301
G1X2.3106Y0.3454Z-0.0301
G1X2.3117Y0.3458Z-0.0301
G1X2.3178Y0.3492Z-0.03
G1X2.3227Y0.3533Z-0.03
G1X2.3268Y0.3582Z-0.0299
G1X2.3301Y0.3642Z-0.0299
G1X2.3306Y0.3653Z-0.0298
G1X2.3325Y0.372Z-0.0298
G1X2.333Y0.3777Z-0.0297
G1X2.3325Y0.3846Z-0.0297
G1X2.3306Y0.3913Z-0.0296
G1X2.3274Y0.3975Z-0.0296
G1X2.3268Y0.3985Z-0.0296
G1X2.3227Y0.4034Z-0.0296
G1X2.3178Y0.4074Z-0.0296
G1X2.3117Y0.4108Z-0.0296
G1X2.3106Y0.4112Z-0.0296
G1X2.3045Y0.4131Z-0.0296
G1X2.2976Y0.4137Z-0.0296
G1X2.1229Y0.4137Z-0.0305
G1X2.1229Y0.4136Z-0.0305
G1X2.1229Y0.4137Z-0.0305
G1X2.1165Y0.4202Z-0.0304
G1X2.1164Y0.4201Z-0.0304
G1X2.1165Y0.4202Z-0.0304
G1X2.1165Y0.5039Z-0.0298
G1X2.1161Y0.5078Z-0.0297
G1X2.1159Y0.5108Z-0.0297
G1X2.114Y0.5169Z-0.0297
G1X2.1109Y0.5231Z-0.0296
G1X2.1102Y0.5241Z-0.0296
G1X2.1062Y0.529Z-0.0296
G1X2.0575Y0.5776Z-0.0294
G1X2.0573Y0.5776Z-0.0294
G1X2.0575Y0.5776Z-0.0294
G1X2.0575Y0.6073Z-0.0292
G1X2.0573Y0.6074Z-0.0292
G1X2.0575Y0.6073Z-0.0292
G1X2.1161Y0.666Z-0.0285
G1X2.1745Y0.7244Z-0.0277
G1X2.1745Y0.7245Z-0.0277
G1X2.1745Y0.7244Z-0.0277
G1X2.2086Y0.7244Z-0.0275
G1X2.2087Y0.7245Z-0.0275
G1X2.2086Y0.7244Z-0.0275
G1X2.2093Y0.7235Z-0.0275
G1X2.2174Y0.7145Z-0.0276
G1X2.2278Y0.707Z-0.0276
G1X2.2394Y0.7018Z-0.0275
G1X2.2519Y0.6991Z-0.0275
G1X2.2647Y0.6991Z-0.0274
G1X2.2771Y0.7018Z-0.0274
G1X2.2888Y0.707Z-0.0272
G1X2.2986Y0.7141Z-0.0271
G1X2.2995Y0.7149Z-0.0271
G1X2.3076Y0.7239Z-0.027
G1X2.3137Y0.7344Z-0.0269
G1X2.3142Y0.7356Z-0.0269
G1X2.3178Y0.7465Z-0.0268
G1X2.318Y0.7477Z-0.0268
G1X2.3193Y0.7598Z-0.0267
G1X2.318Y0.7725Z-0.0266
G1X2.314Y0.7846Z-0.0265
G1X2.308Y0.7952Z-0.0264
G1X2.3072Y0.7962Z-0.0264
G1X2.2991Y0.8052Z-0.0264
G1X2.2893Y0.8123Z-0.0264
G1X2.2882Y0.8129Z-0.0264
G1X2.2777Y0.8176Z-0.0264
G1X2.2765Y0.818Z-0.0264
G1X2.2653Y0.8204Z-0.0264
G1X2.264Y0.8205Z-0.0265
G1X2.2519Y0.8205Z-0.0265
G1X2.2394Y0.8178Z-0.0266
G1X2.2278Y0.8126Z-0.0267
G1X2.2179Y0.8055Z-0.0268
G1X2.217Y0.8047Z-0.0268
G1X2.2093Y0.7962Z-0.0269
G1X2.2086Y0.7952Z-0.027
G1X2.2087Y0.7951Z-0.027
G1X2.2086Y0.7952Z-0.027
G1X2.1593Y0.7952Z-0.0272
G1X2.1529Y0.7946Z-0.0273
G1X2.1468Y0.7927Z-0.0273
G1X2.1406Y0.7896Z-0.0274
G1X2.1397Y0.7889Z-0.0274
G1X2.1348Y0.7849Z-0.0274
G1X2.1161Y0.7662Z-0.0277
G1X1.997Y0.6471Z-0.0292
G1X1.9929Y0.6422Z-0.0292
G1X1.9896Y0.6361Z-0.0293
G1X1.9891Y0.635Z-0.0293
G1X1.9872Y0.6283Z-0.0294
G1X1.9866Y0.622Z-0.0294
G1X1.9866Y0.5984Z-0.0296
G1X1.9871Y0.5979Z-0.0296
G1X1.9866Y0.5984Z-0.0296
G1X1.9821Y0.5984Z-0.0296
G1X1.9763Y0.5978Z-0.0296
G1X1.9727Y0.5968Z-0.0297
G1X1.9308Y0.5968Z-0.0298
G1X1.9235Y0.601Z-0.0298
G1X1.9148Y0.6038Z-0.0299
G1X1.9064Y0.6048Z-0.0299
G1X1.9021Y0.6048Z-0.0299
G1X1.8937Y0.6039Z-0.0299
G1X1.8925Y0.6037Z-0.03
G1X1.8844Y0.601Z-0.03
G1X1.8771Y0.5968Z-0.0301
G1X1.8761Y0.5961Z-0.0301
G1X1.8702Y0.5909Z-0.0301
G1X1.8694Y0.5899Z-0.0302
G1X1.8645Y0.5831Z-0.0302
G1X1.8608Y0.5748Z-0.0303
G1X1.8589Y0.5659Z-0.0304
G1X1.8589Y0.5575Z-0.0304
G1X1.8608Y0.5575Z-0.0304
G1X1.8609Y0.5657Z-0.0304
G1X1.8628Y0.5746Z-0.0303
G1X1.8662Y0.5821Z-0.0302
G1X1.871Y0.5888Z-0.0302
G1X1.8781Y0.5951Z-0.0301
G1X1.8852Y0.5992Z-0.03
G1X1.893Y0.6018Z-0.03
G1X1.9021Y0.6028Z-0.0299
G1X1.9062Y0.6028Z-0.0299
G1X1.9144Y0.6019Z-0.0299
G1X1.9227Y0.5992Z-0.0299
G1X1.9302Y0.5948Z-0.0299
G1X1.973Y0.5948Z-0.0297
G1X1.9765Y0.5958Z-0.0296
G1X1.9827Y0.5964Z-0.0296
G1X1.9886Y0.5964Z-0.0296
G1X1.9886Y0.622Z-0.0294
G1X1.9892Y0.6282Z-0.0293
G1X1.9913Y0.6352Z-0.0293
G1X1.9945Y0.6409Z-0.0292
G1X1.9984Y0.6457Z-0.0292
G1X2.1161Y0.7634Z-0.0277
G1X2.1362Y0.7835Z-0.0274
G1X2.1416Y0.7878Z-0.0274
G1X2.1474Y0.7908Z-0.0273
G1X2.1537Y0.7927Z-0.0273
G1X2.1595Y0.7933Z-0.0272
G1X2.2098Y0.7933Z-0.027
G1X2.2107Y0.7948Z-0.0269
G1X2.2188Y0.8037Z-0.0268
G1X2.2287Y0.8109Z-0.0267
G1X2.24Y0.816Z-0.0266
G1X2.2517Y0.8185Z-0.0265
G1X2.2649Y0.8185Z-0.0265
G1X2.2765Y0.816Z-0.0264
G1X2.2874Y0.8111Z-0.0264
G1X2.2978Y0.8037Z-0.0264
G1X2.306Y0.7945Z-0.0264
G1X2.3122Y0.7838Z-0.0265
G1X2.3161Y0.7717Z-0.0266
G1X2.3173Y0.7598Z-0.0267
G1X2.3159Y0.7471Z-0.0268
G1X2.3122Y0.7358Z-0.0269
G1X2.3063Y0.7254Z-0.027
G1X2.2981Y0.7162Z-0.0271
G1X2.2878Y0.7087Z-0.0272
G1X2.2765Y0.7036Z-0.0273
G1X2.2644Y0.7011Z-0.0274
G1X2.2521Y0.7011Z-0.0275
G1X2.24Y0.7036Z-0.0275
G1X2.2287Y0.7087Z-0.0276
G1X2.2188Y0.7159Z-0.0275
G1X2.2107Y0.7248Z-0.0275
G1X2.2098Y0.7263Z-0.0275
G1X2.1737Y0.7263Z-0.0277
G1X2.1161Y0.6688Z-0.0285
G1X2.0555Y0.6081Z-0.0292
G1X2.0555Y0.5768Z-0.0295
G1X2.1048Y0.5276Z-0.0296
G1X2.1089Y0.5225Z-0.0297
G1X2.1122Y0.5163Z-0.0297
G1X2.114Y0.51Z-0.0297
G1X2.1146Y0.5039Z-0.0298
G1X2.1146Y0.4193Z-0.0304
G1X2.1161Y0.4178Z-0.0305
G1X2.1221Y0.4118Z-0.0305
G1X2.2976Y0.4118Z-0.0296
G1X2.3038Y0.4112Z-0.0296
G1X2.3101Y0.4094Z-0.0296
G1X2.3165Y0.4059Z-0.0296
G1X2.3213Y0.402Z-0.0296
G1X2.3252Y0.3972Z-0.0296
G1X2.3284Y0.3915Z-0.0296
G1X2.3305Y0.3845Z-0.0297
G1X2.3311Y0.3783Z-0.0297
G1X2.3305Y0.3722Z-0.0298
G1X2.3284Y0.3651Z-0.0299
G1X2.3255Y0.3597Z-0.0299
G1X2.3216Y0.3549Z-0.03
G1X2.3162Y0.3505Z-0.03
G1X2.3101Y0.3473Z-0.0301
G1X2.3038Y0.3454Z-0.0301
G1X2.2976Y0.3448Z-0.0302
G1X2.1161Y0.3448Z-0.031
G1X2.1083Y0.3448Z-0.0311
G1X2.1014Y0.3456Z-0.0311
G1X2.0951Y0.3476Z-0.0311
G1X2.0897Y0.3505Z-0.0311
G1X2.0846Y0.3546Z-0.0311
G1X2.0574Y0.3818Z-0.031
G1X2.0533Y0.3869Z-0.0309
G1X2.0503Y0.3923Z-0.0309
G1X2.0484Y0.3986Z-0.0309
G1X2.0476Y0.4055Z-0.0308
G1X2.0476Y0.49Z-0.0302
G1X2.0082Y0.5295Z-0.03
G1X1.9939Y0.5295Z-0.0301
G1X1.9908Y0.5286Z-0.0301
G1X1.9847Y0.5279Z-0.0301
G1X1.9827Y0.5281Z-0.0301
G1X1.9811Y0.5279Z-0.0301
G1X1.9302Y0.5279Z-0.0304
