( pcb2gcode 2.5.0 )
( Software-independent Gcode )

G94 ( Inches per minute feed rate. )
G20 ( Units == INCHES. )

G90 ( Absolute coordinates. )
G00 S12000 ( RPM spindle speed. )
G01 F7.87402 ( Feedrate. )


G00 Z0.39370 (Retract to tool change height)
T0
M5      (Spindle stop.)
G04 P1.00000 (Wait for spindle to stop)
(MSG, Change tool bit to mill diameter 0.00787in)
M0      (Temporary machine stop.)
M3 ( Spindle on clockwise. )
G04 P1.00000 (Wait for spindle to get up to speed)
G04 P0 ( dwell for no time -- G64 should not smooth over this point )
G00 Z0.07874 ( retract )

G00 X0.54764 Y2.62988 ( rapid move to begin. )
G01 F3.93701
( Mill infeed pass 1/1 )
G01 Z-0.00591
G04 P0 ( dwell for no time -- G64 should not smooth over this point )
G01 F7.87402
G01 X0.54764 Y2.62988
G01 X0.54836 Y2.63705
G01 X0.54862 Y2.63826
G01 X0.55087 Y2.64509
G01 X0.55478 Y2.65187
G01 X0.55958 Y2.65724
G01 X0.56049 Y2.65807
G01 X0.56634 Y2.66227
G01 X0.57348 Y2.66545
G01 X0.58113 Y2.66708
G01 X0.58833 Y2.66711
G01 X0.58956 Y2.66698
G01 X0.59695 Y2.66530
G01 X0.64409 Y2.66532
G01 X0.64918 Y2.66493
G01 X0.65548 Y2.66342
G01 X0.66058 Y2.66123
G01 X0.66528 Y2.65826
G01 X0.66915 Y2.65494
G01 X0.70852 Y2.61557
G01 X0.71292 Y2.61020
G01 X0.71595 Y2.60460
G01 X0.71639 Y2.60353
G01 X0.71822 Y2.59743
G01 X0.71887 Y2.59109
G01 X0.71890 Y2.44878
G01 X0.71832 Y2.44820
G01 X0.71890 Y2.44878
G01 X1.29871 Y2.44878
G01 X1.29877 Y2.44863
G01 X1.29871 Y2.44878
G01 X1.37638 Y2.52645
G01 X1.37653 Y2.52639
G01 X1.37638 Y2.52645
G01 X1.37647 Y2.58543
G01 X1.37466 Y2.58736
G01 X1.37302 Y2.59021
G01 X1.37200 Y2.59334
G01 X1.37165 Y2.59661
G01 X1.37169 Y2.66377
G01 X1.37200 Y2.66642
G01 X1.37279 Y2.66898
G01 X1.37432 Y2.67189
G01 X1.37505 Y2.67289
G01 X1.37686 Y2.67485
G01 X1.37953 Y2.67679
G01 X1.38254 Y2.67813
G01 X1.38514 Y2.67871
G01 X1.38637 Y2.67884
G01 X1.43621 Y2.67890
G01 X1.43848 Y2.67871
G01 X1.44109 Y2.67813
G01 X1.44354 Y2.67707
G01 X1.44461 Y2.67645
G01 X1.44719 Y2.67442
G01 X1.44896 Y2.67241
G01 X1.45061 Y2.66955
G01 X1.45162 Y2.66642
G01 X1.45177 Y2.66532
G01 X1.45147 Y2.66491
G01 X1.45177 Y2.66532
G01 X1.71486 Y2.66530
G01 X1.72286 Y2.66708
G01 X1.73068 Y2.66708
G01 X1.73833 Y2.66545
G01 X1.74547 Y2.66227
G01 X1.75180 Y2.65768
G01 X1.75664 Y2.65235
G01 X1.75737 Y2.65135
G01 X1.76066 Y2.64565
G01 X1.76116 Y2.64452
G01 X1.76335 Y2.63766
G01 X1.76417 Y2.62988
G01 X1.76335 Y2.62211
G01 X1.76094 Y2.61467
G01 X1.75703 Y2.60790
G01 X1.75223 Y2.60252
G01 X1.75132 Y2.60170
G01 X1.74599 Y2.59783
G01 X1.74492 Y2.59721
G01 X1.73833 Y2.59431
G01 X1.73068 Y2.59269
G01 X1.72286 Y2.59269
G01 X1.71485 Y2.59446
G01 X1.45177 Y2.59445
G01 X1.45147 Y2.59485
G01 X1.45177 Y2.59445
G01 X1.45162 Y2.59334
G01 X1.45061 Y2.59021
G01 X1.44896 Y2.58736
G01 X1.44715 Y2.58543
G01 X1.44721 Y2.51119
G01 X1.44656 Y2.50486
G01 X1.44474 Y2.49876
G01 X1.44157 Y2.49258
G01 X1.44093 Y2.49162
G01 X1.43686 Y2.48672
G01 X1.33844 Y2.38829
G01 X1.33354 Y2.38423
G01 X1.32747 Y2.38086
G01 X1.32640 Y2.38042
G01 X1.32030 Y2.37860
G01 X1.31339 Y2.37791
G01 X0.89527 Y2.37791
G01 X0.89470 Y2.37849
G01 X0.89527 Y2.37791
G01 X0.89525 Y2.33579
G01 X0.89643 Y2.33215
G01 X0.89724 Y2.32437
G01 X0.89643 Y2.31659
G01 X0.89423 Y2.30974
G01 X0.89373 Y2.30861
G01 X0.89044 Y2.30291
G01 X0.88971 Y2.30191
G01 X0.88487 Y2.29658
G01 X0.87906 Y2.29232
G01 X0.87799 Y2.29170
G01 X0.87140 Y2.28880
G01 X0.86436 Y2.28727
G01 X0.86313 Y2.28714
G01 X0.85593 Y2.28717
G01 X0.84888 Y2.28864
G01 X0.84771 Y2.28902
G01 X0.84114 Y2.29198
G01 X0.83482 Y2.29658
G01 X0.82997 Y2.30191
G01 X0.82925 Y2.30291
G01 X0.82567 Y2.30916
G01 X0.82326 Y2.31659
G01 X0.82244 Y2.32437
G01 X0.82326 Y2.33215
G01 X0.82443 Y2.33579
G01 X0.82441 Y2.37791
G01 X0.82499 Y2.37849
G01 X0.82441 Y2.37791
G01 X0.70315 Y2.37791
G01 X0.69624 Y2.37860
G01 X0.69014 Y2.38042
G01 X0.68907 Y2.38086
G01 X0.68300 Y2.38423
G01 X0.67809 Y2.38829
G01 X0.65841 Y2.40798
G01 X0.65435 Y2.41288
G01 X0.65098 Y2.41895
G01 X0.65053 Y2.42002
G01 X0.64871 Y2.42612
G01 X0.64806 Y2.43245
G01 X0.64803 Y2.57584
G01 X0.64818 Y2.57590
G01 X0.64803 Y2.57584
G01 X0.62942 Y2.59445
G01 X0.62948 Y2.59460
G01 X0.62942 Y2.59445
G01 X0.59696 Y2.59446
G01 X0.58895 Y2.59269
G01 X0.58175 Y2.59265
G01 X0.58052 Y2.59278
G01 X0.57348 Y2.59431
G01 X0.56634 Y2.59749
G01 X0.56001 Y2.60209
G01 X0.55517 Y2.60742
G01 X0.55444 Y2.60842
G01 X0.55087 Y2.61467
G01 X0.54862 Y2.62151
G01 X0.54836 Y2.62272
G01 X0.54764 Y2.62988
G01 X0.54961 Y2.62988
G01 X0.55049 Y2.62212
G01 X0.55267 Y2.61547
G01 X0.55615 Y2.60940
G01 X0.56133 Y2.60355
G01 X0.56732 Y2.59920
G01 X0.57409 Y2.59618
G01 X0.58175 Y2.59462
G01 X0.58874 Y2.59464
G01 X0.59559 Y2.59608
G01 X0.59657 Y2.59642
G01 X0.63023 Y2.59642
G01 X0.65000 Y2.57665
G01 X0.65002 Y2.43265
G01 X0.65064 Y2.42650
G01 X0.65271 Y2.41988
G01 X0.65587 Y2.41413
G01 X0.65980 Y2.40937
G01 X0.67949 Y2.38968
G01 X0.68425 Y2.38575
G01 X0.68999 Y2.38259
G01 X0.69662 Y2.38053
G01 X0.70315 Y2.37988
G01 X0.82638 Y2.37988
G01 X0.82638 Y2.33548
G01 X0.82518 Y2.33174
G01 X0.82441 Y2.32437
G01 X0.82518 Y2.31700
G01 X0.82747 Y2.30996
G01 X0.83118 Y2.30354
G01 X0.83584 Y2.29833
G01 X0.84213 Y2.29368
G01 X0.84929 Y2.29056
G01 X0.85614 Y2.28913
G01 X0.86313 Y2.28911
G01 X0.87079 Y2.29067
G01 X0.87790 Y2.29391
G01 X0.88355 Y2.29804
G01 X0.88825 Y2.30322
G01 X0.89236 Y2.31034
G01 X0.89450 Y2.31700
G01 X0.89528 Y2.32437
G01 X0.89450 Y2.33174
G01 X0.89331 Y2.33548
G01 X0.89331 Y2.37988
G01 X1.31339 Y2.37988
G01 X1.31953 Y2.38047
G01 X1.32583 Y2.38230
G01 X1.33198 Y2.38552
G01 X1.33705 Y2.38968
G01 X1.43547 Y2.48811
G01 X1.43983 Y2.49351
G01 X1.44286 Y2.49933
G01 X1.44463 Y2.50524
G01 X1.44526 Y2.51139
G01 X1.44527 Y2.58624
G01 X1.44737 Y2.58851
G01 X1.44881 Y2.59101
G01 X1.44970 Y2.59375
G01 X1.44999 Y2.59642
G01 X1.71524 Y2.59642
G01 X1.71622 Y2.59608
G01 X1.72307 Y2.59464
G01 X1.73048 Y2.59464
G01 X1.73772 Y2.59618
G01 X1.74483 Y2.59942
G01 X1.75048 Y2.60355
G01 X1.75518 Y2.60873
G01 X1.75895 Y2.61510
G01 X1.76143 Y2.62252
G01 X1.76220 Y2.62988
G01 X1.76143 Y2.63725
G01 X1.75914 Y2.64429
G01 X1.75544 Y2.65071
G01 X1.75016 Y2.65647
G01 X1.74449 Y2.66057
G01 X1.73811 Y2.66343
G01 X1.73048 Y2.66512
G01 X1.72307 Y2.66512
G01 X1.71622 Y2.66369
G01 X1.71524 Y2.66335
G01 X1.44999 Y2.66335
G01 X1.44970 Y2.66601
G01 X1.44896 Y2.66837
G01 X1.44711 Y2.67157
G01 X1.44544 Y2.67339
G01 X1.44311 Y2.67508
G01 X1.44048 Y2.67625
G01 X1.43807 Y2.67679
G01 X1.43622 Y2.67693
G01 X1.38637 Y2.67688
G01 X1.38276 Y2.67611
G01 X1.38051 Y2.67508
G01 X1.37850 Y2.67365
G01 X1.37625 Y2.67125
G01 X1.37481 Y2.66875
G01 X1.37403 Y2.66641
G01 X1.37362 Y2.66315
G01 X1.37362 Y2.59661
G01 X1.37392 Y2.59375
G01 X1.37481 Y2.59101
G01 X1.37625 Y2.58851
G01 X1.37835 Y2.58624
G01 X1.37835 Y2.52563
G01 X1.29952 Y2.44681
G01 X0.71701 Y2.44681
G01 X0.71691 Y2.59090
G01 X0.71619 Y2.59742
G01 X0.71438 Y2.60332
G01 X0.71129 Y2.60910
G01 X0.70713 Y2.61418
G01 X0.66776 Y2.65355
G01 X0.66401 Y2.65677
G01 X0.65956 Y2.65955
G01 X0.65473 Y2.66160
G01 X0.64902 Y2.66297
G01 X0.64409 Y2.66335
G01 X0.59657 Y2.66335
G01 X0.59559 Y2.66369
G01 X0.58833 Y2.66514
G01 X0.58134 Y2.66512
G01 X0.57409 Y2.66358
G01 X0.56732 Y2.66057
G01 X0.56165 Y2.65647
G01 X0.55637 Y2.65071
G01 X0.55252 Y2.64391
G01 X0.55038 Y2.63725
G01 X0.54961 Y2.62988
G04 P0 ( dwell for no time -- G64 should not smooth over this point )
G00 Z0.07874 ( retract )

G00 X0.72244 Y2.32437 ( rapid move to begin. )
G01 F3.93701
( Mill infeed pass 1/1 )
G01 Z-0.00591
G04 P0 ( dwell for no time -- G64 should not smooth over this point )
G01 F7.87402
G01 X0.72244 Y2.32437
G01 X0.72326 Y2.33215
G01 X0.72567 Y2.33958
G01 X0.72958 Y2.34635
G01 X0.73438 Y2.35173
G01 X0.73530 Y2.35255
G01 X0.74114 Y2.35676
G01 X0.74771 Y2.35972
G01 X0.74888 Y2.36010
G01 X0.75532 Y2.36147
G01 X0.75655 Y2.36160
G01 X0.76375 Y2.36157
G01 X0.77140 Y2.35994
G01 X0.77854 Y2.35676
G01 X0.78487 Y2.35216
G01 X0.79010 Y2.34635
G01 X0.79401 Y2.33958
G01 X0.79643 Y2.33215
G01 X0.79724 Y2.32437
G01 X0.79643 Y2.31659
G01 X0.79401 Y2.30916
G01 X0.79010 Y2.30239
G01 X0.78531 Y2.29701
G01 X0.78439 Y2.29619
G01 X0.77906 Y2.29232
G01 X0.77799 Y2.29170
G01 X0.77140 Y2.28880
G01 X0.76436 Y2.28727
G01 X0.76313 Y2.28714
G01 X0.75593 Y2.28717
G01 X0.74828 Y2.28880
G01 X0.74114 Y2.29198
G01 X0.73482 Y2.29658
G01 X0.72958 Y2.30239
G01 X0.72567 Y2.30916
G01 X0.72326 Y2.31659
G01 X0.72244 Y2.32437
G01 X0.72441 Y2.32437
G01 X0.72529 Y2.31661
G01 X0.72747 Y2.30996
G01 X0.73095 Y2.30389
G01 X0.73613 Y2.29804
G01 X0.74178 Y2.29391
G01 X0.74889 Y2.29067
G01 X0.75614 Y2.28913
G01 X0.76355 Y2.28913
G01 X0.77118 Y2.29082
G01 X0.77790 Y2.29391
G01 X0.78355 Y2.29804
G01 X0.78825 Y2.30322
G01 X0.79221 Y2.30996
G01 X0.79450 Y2.31700
G01 X0.79528 Y2.32437
G01 X0.79439 Y2.33214
G01 X0.79221 Y2.33878
G01 X0.78873 Y2.34485
G01 X0.78355 Y2.35070
G01 X0.77719 Y2.35524
G01 X0.77079 Y2.35807
G01 X0.76355 Y2.35961
G01 X0.75573 Y2.35954
G01 X0.74889 Y2.35807
G01 X0.74249 Y2.35524
G01 X0.73613 Y2.35070
G01 X0.73095 Y2.34485
G01 X0.72747 Y2.33878
G01 X0.72529 Y2.33214
G01 X0.72441 Y2.32437
G04 P0 ( dwell for no time -- G64 should not smooth over this point )
G00 Z0.07874 ( retract )

G00 X1.07165 Y2.62102 ( rapid move to begin. )
G01 F3.93701
( Mill infeed pass 1/1 )
G01 Z-0.00591
G04 P0 ( dwell for no time -- G64 should not smooth over this point )
G01 F7.87402
G01 X1.07165 Y2.62102
G01 X1.07253 Y2.61267
G01 X1.07490 Y2.60527
G01 X1.07541 Y2.60414
G01 X1.07932 Y2.59742
G01 X1.08450 Y2.59162
G01 X1.08542 Y2.59079
G01 X1.09121 Y2.58658
G01 X1.09228 Y2.58597
G01 X1.09940 Y2.58283
G01 X1.10761 Y2.58109
G01 X1.11601 Y2.58109
G01 X1.12362 Y2.58267
G01 X1.12480 Y2.58305
G01 X1.13189 Y2.58625
G01 X1.13868 Y2.59118
G01 X1.14430 Y2.59742
G01 X1.14822 Y2.60414
G01 X1.14872 Y2.60527
G01 X1.15109 Y2.61267
G01 X1.15194 Y2.62041
G01 X1.15197 Y2.63874
G01 X1.15109 Y2.64709
G01 X1.14850 Y2.65507
G01 X1.14463 Y2.66183
G01 X1.14391 Y2.66282
G01 X1.13868 Y2.66858
G01 X1.13189 Y2.67352
G01 X1.12422 Y2.67693
G01 X1.11662 Y2.67858
G01 X1.11539 Y2.67871
G01 X1.10761 Y2.67868
G01 X1.10000 Y2.67709
G01 X1.09882 Y2.67671
G01 X1.09173 Y2.67352
G01 X1.08494 Y2.66858
G01 X1.07971 Y2.66282
G01 X1.07899 Y2.66183
G01 X1.07513 Y2.65507
G01 X1.07253 Y2.64709
G01 X1.07165 Y2.63874
G01 X1.07165 Y2.62102
G01 X1.07362 Y2.62102
G01 X1.07364 Y2.63915
G01 X1.07446 Y2.64668
G01 X1.07678 Y2.65389
G01 X1.08117 Y2.66151
G01 X1.08626 Y2.66712
G01 X1.09237 Y2.67159
G01 X1.10041 Y2.67517
G01 X1.10782 Y2.67672
G01 X1.11580 Y2.67672
G01 X1.12361 Y2.67506
G01 X1.13054 Y2.67200
G01 X1.13766 Y2.66683
G01 X1.14271 Y2.66119
G01 X1.14651 Y2.65464
G01 X1.14917 Y2.64668
G01 X1.15000 Y2.63874
G01 X1.14998 Y2.62061
G01 X1.14906 Y2.61269
G01 X1.14670 Y2.60549
G01 X1.14293 Y2.59892
G01 X1.13736 Y2.59264
G01 X1.13054 Y2.58776
G01 X1.12361 Y2.58470
G01 X1.11621 Y2.58311
G01 X1.10823 Y2.58302
G01 X1.10001 Y2.58470
G01 X1.09272 Y2.58795
G01 X1.08626 Y2.59264
G01 X1.08069 Y2.59892
G01 X1.07692 Y2.60549
G01 X1.07456 Y2.61269
G01 X1.07362 Y2.62102
G04 P0 ( dwell for no time -- G64 should not smooth over this point )
G00 Z0.07874 ( retract )

G00 X0.92244 Y2.32437 ( rapid move to begin. )
G01 F3.93701
( Mill infeed pass 1/1 )
G01 Z-0.00591
G04 P0 ( dwell for no time -- G64 should not smooth over this point )
G01 F7.87402
G01 X0.92244 Y2.32437
G01 X0.92326 Y2.33215
G01 X0.92567 Y2.33958
G01 X0.92958 Y2.34635
G01 X0.93438 Y2.35173
G01 X0.93530 Y2.35255
G01 X0.94114 Y2.35676
G01 X0.94771 Y2.35972
G01 X0.94888 Y2.36010
G01 X0.95532 Y2.36147
G01 X0.95655 Y2.36160
G01 X0.96375 Y2.36157
G01 X0.97140 Y2.35994
G01 X0.97854 Y2.35676
G01 X0.98487 Y2.35216
G01 X0.99010 Y2.34635
G01 X0.99401 Y2.33958
G01 X0.99643 Y2.33215
G01 X0.99724 Y2.32437
G01 X0.99643 Y2.31659
G01 X0.99401 Y2.30916
G01 X0.99010 Y2.30239
G01 X0.98531 Y2.29701
G01 X0.98439 Y2.29619
G01 X0.97906 Y2.29232
G01 X0.97799 Y2.29170
G01 X0.97140 Y2.28880
G01 X0.96436 Y2.28727
G01 X0.96313 Y2.28714
G01 X0.95593 Y2.28717
G01 X0.94828 Y2.28880
G01 X0.94114 Y2.29198
G01 X0.93482 Y2.29658
G01 X0.92958 Y2.30239
G01 X0.92567 Y2.30916
G01 X0.92326 Y2.31659
G01 X0.92244 Y2.32437
G01 X0.92441 Y2.32437
G01 X0.92529 Y2.31661
G01 X0.92747 Y2.30996
G01 X0.93095 Y2.30389
G01 X0.93613 Y2.29804
G01 X0.94178 Y2.29391
G01 X0.94889 Y2.29067
G01 X0.95614 Y2.28913
G01 X0.96355 Y2.28913
G01 X0.97118 Y2.29082
G01 X0.97790 Y2.29391
G01 X0.98355 Y2.29804
G01 X0.98825 Y2.30322
G01 X0.99221 Y2.30996
G01 X0.99450 Y2.31700
G01 X0.99528 Y2.32437
G01 X0.99439 Y2.33214
G01 X0.99221 Y2.33878
G01 X0.98873 Y2.34485
G01 X0.98355 Y2.35070
G01 X0.97719 Y2.35524
G01 X0.97079 Y2.35807
G01 X0.96355 Y2.35961
G01 X0.95573 Y2.35954
G01 X0.94889 Y2.35807
G01 X0.94249 Y2.35524
G01 X0.93613 Y2.35070
G01 X0.93095 Y2.34485
G01 X0.92747 Y2.33878
G01 X0.92529 Y2.33214
G01 X0.92441 Y2.32437
G04 P0 ( dwell for no time -- G64 should not smooth over this point )
G00 Z0.07874 ( retract )

G00 X1.02244 Y2.32437 ( rapid move to begin. )
G01 F3.93701
( Mill infeed pass 1/1 )
G01 Z-0.00591
G04 P0 ( dwell for no time -- G64 should not smooth over this point )
G01 F7.87402
G01 X1.02244 Y2.32437
G01 X1.02326 Y2.33215
G01 X1.02567 Y2.33958
G01 X1.02958 Y2.34635
G01 X1.03438 Y2.35173
G01 X1.03530 Y2.35255
G01 X1.04114 Y2.35676
G01 X1.04771 Y2.35972
G01 X1.04888 Y2.36010
G01 X1.05532 Y2.36147
G01 X1.05655 Y2.36160
G01 X1.06375 Y2.36157
G01 X1.07140 Y2.35994
G01 X1.07854 Y2.35676
G01 X1.08487 Y2.35216
G01 X1.09010 Y2.34635
G01 X1.09401 Y2.33958
G01 X1.09643 Y2.33215
G01 X1.09724 Y2.32437
G01 X1.09643 Y2.31659
G01 X1.09401 Y2.30916
G01 X1.09010 Y2.30239
G01 X1.08531 Y2.29701
G01 X1.08439 Y2.29619
G01 X1.07906 Y2.29232
G01 X1.07799 Y2.29170
G01 X1.07140 Y2.28880
G01 X1.06436 Y2.28727
G01 X1.06313 Y2.28714
G01 X1.05593 Y2.28717
G01 X1.04828 Y2.28880
G01 X1.04114 Y2.29198
G01 X1.03482 Y2.29658
G01 X1.02958 Y2.30239
G01 X1.02567 Y2.30916
G01 X1.02326 Y2.31659
G01 X1.02244 Y2.32437
G01 X1.02441 Y2.32437
G01 X1.02529 Y2.31661
G01 X1.02747 Y2.30996
G01 X1.03095 Y2.30389
G01 X1.03613 Y2.29804
G01 X1.04178 Y2.29391
G01 X1.04889 Y2.29067
G01 X1.05614 Y2.28913
G01 X1.06355 Y2.28913
G01 X1.07118 Y2.29082
G01 X1.07756 Y2.29368
G01 X1.08323 Y2.29778
G01 X1.08825 Y2.30322
G01 X1.09221 Y2.30996
G01 X1.09450 Y2.31700
G01 X1.09528 Y2.32437
G01 X1.09439 Y2.33214
G01 X1.09221 Y2.33878
G01 X1.08873 Y2.34485
G01 X1.08355 Y2.35070
G01 X1.07719 Y2.35524
G01 X1.07079 Y2.35807
G01 X1.06355 Y2.35961
G01 X1.05573 Y2.35954
G01 X1.04889 Y2.35807
G01 X1.04249 Y2.35524
G01 X1.03613 Y2.35070
G01 X1.03095 Y2.34485
G01 X1.02747 Y2.33878
G01 X1.02529 Y2.33214
G01 X1.02441 Y2.32437
G04 P0 ( dwell for no time -- G64 should not smooth over this point )
G00 Z0.07874 ( retract )

G00 X1.12244 Y2.32437 ( rapid move to begin. )
G01 F3.93701
( Mill infeed pass 1/1 )
G01 Z-0.00591
G04 P0 ( dwell for no time -- G64 should not smooth over this point )
G01 F7.87402
G01 X1.12244 Y2.32437
G01 X1.12326 Y2.33215
G01 X1.12567 Y2.33958
G01 X1.12958 Y2.34635
G01 X1.13438 Y2.35173
G01 X1.13530 Y2.35255
G01 X1.14114 Y2.35676
G01 X1.14771 Y2.35972
G01 X1.14888 Y2.36010
G01 X1.15532 Y2.36147
G01 X1.15655 Y2.36160
G01 X1.16375 Y2.36157
G01 X1.17140 Y2.35994
G01 X1.17854 Y2.35676
G01 X1.18487 Y2.35216
G01 X1.19010 Y2.34635
G01 X1.19401 Y2.33958
G01 X1.19643 Y2.33215
G01 X1.19724 Y2.32437
G01 X1.19643 Y2.31659
G01 X1.19401 Y2.30916
G01 X1.19010 Y2.30239
G01 X1.18531 Y2.29701
G01 X1.18439 Y2.29619
G01 X1.17906 Y2.29232
G01 X1.17799 Y2.29170
G01 X1.17140 Y2.28880
G01 X1.16436 Y2.28727
G01 X1.16313 Y2.28714
G01 X1.15593 Y2.28717
G01 X1.14828 Y2.28880
G01 X1.14114 Y2.29198
G01 X1.13482 Y2.29658
G01 X1.12958 Y2.30239
G01 X1.12567 Y2.30916
G01 X1.12326 Y2.31659
G01 X1.12244 Y2.32437
G01 X1.12441 Y2.32437
G01 X1.12529 Y2.31661
G01 X1.12747 Y2.30996
G01 X1.13095 Y2.30389
G01 X1.13613 Y2.29804
G01 X1.14178 Y2.29391
G01 X1.14889 Y2.29067
G01 X1.15614 Y2.28913
G01 X1.16355 Y2.28913
G01 X1.17118 Y2.29082
G01 X1.17790 Y2.29391
G01 X1.18355 Y2.29804
G01 X1.18825 Y2.30322
G01 X1.19221 Y2.30996
G01 X1.19450 Y2.31700
G01 X1.19528 Y2.32437
G01 X1.19439 Y2.33214
G01 X1.19221 Y2.33878
G01 X1.18873 Y2.34485
G01 X1.18355 Y2.35070
G01 X1.17719 Y2.35524
G01 X1.17079 Y2.35807
G01 X1.16355 Y2.35961
G01 X1.15573 Y2.35954
G01 X1.14889 Y2.35807
G01 X1.14249 Y2.35524
G01 X1.13613 Y2.35070
G01 X1.13095 Y2.34485
G01 X1.12747 Y2.33878
G01 X1.12529 Y2.33214
G01 X1.12441 Y2.32437
G04 P0 ( dwell for no time -- G64 should not smooth over this point )
G00 Z0.07874 ( retract )

G00 X1.22244 Y2.32437 ( rapid move to begin. )
G01 F3.93701
( Mill infeed pass 1/1 )
G01 Z-0.00591
G04 P0 ( dwell for no time -- G64 should not smooth over this point )
G01 F7.87402
G01 X1.22244 Y2.32437
G01 X1.22326 Y2.33215
G01 X1.22567 Y2.33958
G01 X1.22958 Y2.34635
G01 X1.23438 Y2.35173
G01 X1.23530 Y2.35255
G01 X1.24114 Y2.35676
G01 X1.24771 Y2.35972
G01 X1.24888 Y2.36010
G01 X1.25532 Y2.36147
G01 X1.25655 Y2.36160
G01 X1.26375 Y2.36157
G01 X1.27140 Y2.35994
G01 X1.27854 Y2.35676
G01 X1.28487 Y2.35216
G01 X1.29010 Y2.34635
G01 X1.29401 Y2.33958
G01 X1.29643 Y2.33215
G01 X1.29724 Y2.32437
G01 X1.29643 Y2.31659
G01 X1.29401 Y2.30916
G01 X1.29010 Y2.30239
G01 X1.28531 Y2.29701
G01 X1.28439 Y2.29619
G01 X1.27906 Y2.29232
G01 X1.27799 Y2.29170
G01 X1.27140 Y2.28880
G01 X1.26436 Y2.28727
G01 X1.26313 Y2.28714
G01 X1.25593 Y2.28717
G01 X1.24828 Y2.28880
G01 X1.24114 Y2.29198
G01 X1.23482 Y2.29658
G01 X1.22958 Y2.30239
G01 X1.22567 Y2.30916
G01 X1.22326 Y2.31659
G01 X1.22244 Y2.32437
G01 X1.22441 Y2.32437
G01 X1.22529 Y2.31661
G01 X1.22747 Y2.30996
G01 X1.23095 Y2.30389
G01 X1.23613 Y2.29804
G01 X1.24178 Y2.29391
G01 X1.24889 Y2.29067
G01 X1.25614 Y2.28913
G01 X1.26355 Y2.28913
G01 X1.27118 Y2.29082
G01 X1.27790 Y2.29391
G01 X1.28355 Y2.29804
G01 X1.28825 Y2.30322
G01 X1.29221 Y2.30996
G01 X1.29450 Y2.31700
G01 X1.29528 Y2.32437
G01 X1.29439 Y2.33214
G01 X1.29221 Y2.33878
G01 X1.28873 Y2.34485
G01 X1.28355 Y2.35070
G01 X1.27719 Y2.35524
G01 X1.27079 Y2.35807
G01 X1.26355 Y2.35961
G01 X1.25573 Y2.35954
G01 X1.24889 Y2.35807
G01 X1.24249 Y2.35524
G01 X1.23613 Y2.35070
G01 X1.23095 Y2.34485
G01 X1.22747 Y2.33878
G01 X1.22529 Y2.33214
G01 X1.22441 Y2.32437
G04 P0 ( dwell for no time -- G64 should not smooth over this point )
G00 Z0.07874 ( retract )

G00 X1.32244 Y2.32437 ( rapid move to begin. )
G01 F3.93701
( Mill infeed pass 1/1 )
G01 Z-0.00591
G04 P0 ( dwell for no time -- G64 should not smooth over this point )
G01 F7.87402
G01 X1.32244 Y2.32437
G01 X1.32326 Y2.33215
G01 X1.32567 Y2.33958
G01 X1.32958 Y2.34635
G01 X1.33438 Y2.35173
G01 X1.33530 Y2.35255
G01 X1.34114 Y2.35676
G01 X1.34771 Y2.35972
G01 X1.34888 Y2.36010
G01 X1.35532 Y2.36147
G01 X1.35655 Y2.36160
G01 X1.36375 Y2.36157
G01 X1.37140 Y2.35994
G01 X1.37854 Y2.35676
G01 X1.38487 Y2.35216
G01 X1.39010 Y2.34635
G01 X1.39401 Y2.33958
G01 X1.39643 Y2.33215
G01 X1.39724 Y2.32437
G01 X1.39643 Y2.31659
G01 X1.39401 Y2.30916
G01 X1.39010 Y2.30239
G01 X1.38531 Y2.29701
G01 X1.38439 Y2.29619
G01 X1.37906 Y2.29232
G01 X1.37799 Y2.29170
G01 X1.37140 Y2.28880
G01 X1.36436 Y2.28727
G01 X1.36313 Y2.28714
G01 X1.35593 Y2.28717
G01 X1.34828 Y2.28880
G01 X1.34114 Y2.29198
G01 X1.33482 Y2.29658
G01 X1.32958 Y2.30239
G01 X1.32567 Y2.30916
G01 X1.32326 Y2.31659
G01 X1.32244 Y2.32437
G01 X1.32441 Y2.32437
G01 X1.32529 Y2.31661
G01 X1.32747 Y2.30996
G01 X1.33095 Y2.30389
G01 X1.33613 Y2.29804
G01 X1.34178 Y2.29391
G01 X1.34889 Y2.29067
G01 X1.35614 Y2.28913
G01 X1.36355 Y2.28913
G01 X1.37118 Y2.29082
G01 X1.37790 Y2.29391
G01 X1.38355 Y2.29804
G01 X1.38825 Y2.30322
G01 X1.39221 Y2.30996
G01 X1.39450 Y2.31700
G01 X1.39528 Y2.32437
G01 X1.39439 Y2.33214
G01 X1.39221 Y2.33878
G01 X1.38873 Y2.34485
G01 X1.38355 Y2.35070
G01 X1.37719 Y2.35524
G01 X1.37079 Y2.35807
G01 X1.36355 Y2.35961
G01 X1.35573 Y2.35954
G01 X1.34889 Y2.35807
G01 X1.34249 Y2.35524
G01 X1.33613 Y2.35070
G01 X1.33095 Y2.34485
G01 X1.32747 Y2.33878
G01 X1.32529 Y2.33214
G01 X1.32441 Y2.32437
G04 P0 ( dwell for no time -- G64 should not smooth over this point )
G00 Z0.07874 ( retract )

G00 X1.42244 Y2.32437 ( rapid move to begin. )
G01 F3.93701
( Mill infeed pass 1/1 )
G01 Z-0.00591
G04 P0 ( dwell for no time -- G64 should not smooth over this point )
G01 F7.87402
G01 X1.42244 Y2.32437
G01 X1.42326 Y2.33215
G01 X1.42567 Y2.33958
G01 X1.42958 Y2.34635
G01 X1.43438 Y2.35173
G01 X1.43530 Y2.35255
G01 X1.44114 Y2.35676
G01 X1.44771 Y2.35972
G01 X1.44888 Y2.36010
G01 X1.45532 Y2.36147
G01 X1.45655 Y2.36160
G01 X1.46375 Y2.36157
G01 X1.47140 Y2.35994
G01 X1.47854 Y2.35676
G01 X1.48487 Y2.35216
G01 X1.49010 Y2.34635
G01 X1.49401 Y2.33958
G01 X1.49643 Y2.33215
G01 X1.49724 Y2.32437
G01 X1.49643 Y2.31659
G01 X1.49401 Y2.30916
G01 X1.49010 Y2.30239
G01 X1.48531 Y2.29701
G01 X1.48439 Y2.29619
G01 X1.47906 Y2.29232
G01 X1.47799 Y2.29170
G01 X1.47140 Y2.28880
G01 X1.46436 Y2.28727
G01 X1.46313 Y2.28714
G01 X1.45593 Y2.28717
G01 X1.44828 Y2.28880
G01 X1.44114 Y2.29198
G01 X1.43482 Y2.29658
G01 X1.42958 Y2.30239
G01 X1.42567 Y2.30916
G01 X1.42326 Y2.31659
G01 X1.42244 Y2.32437
G01 X1.42441 Y2.32437
G01 X1.42529 Y2.31661
G01 X1.42747 Y2.30996
G01 X1.43095 Y2.30389
G01 X1.43613 Y2.29804
G01 X1.44178 Y2.29391
G01 X1.44889 Y2.29067
G01 X1.45614 Y2.28913
G01 X1.46355 Y2.28913
G01 X1.47118 Y2.29082
G01 X1.47790 Y2.29391
G01 X1.48355 Y2.29804
G01 X1.48825 Y2.30322
G01 X1.49221 Y2.30996
G01 X1.49450 Y2.31700
G01 X1.49528 Y2.32437
G01 X1.49439 Y2.33214
G01 X1.49221 Y2.33878
G01 X1.48873 Y2.34485
G01 X1.48355 Y2.35070
G01 X1.47719 Y2.35524
G01 X1.47079 Y2.35807
G01 X1.46355 Y2.35961
G01 X1.45573 Y2.35954
G01 X1.44889 Y2.35807
G01 X1.44249 Y2.35524
G01 X1.43613 Y2.35070
G01 X1.43095 Y2.34485
G01 X1.42747 Y2.33878
G01 X1.42529 Y2.33214
G01 X1.42441 Y2.32437
G04 P0 ( dwell for no time -- G64 should not smooth over this point )
G00 Z0.07874 ( retract )

G00 X1.52244 Y2.32437 ( rapid move to begin. )
G01 F3.93701
( Mill infeed pass 1/1 )
G01 Z-0.00591
G04 P0 ( dwell for no time -- G64 should not smooth over this point )
G01 F7.87402
G01 X1.52244 Y2.32437
G01 X1.52326 Y2.33215
G01 X1.52567 Y2.33958
G01 X1.52958 Y2.34635
G01 X1.53438 Y2.35173
G01 X1.53530 Y2.35255
G01 X1.54114 Y2.35676
G01 X1.54771 Y2.35972
G01 X1.54888 Y2.36010
G01 X1.55532 Y2.36147
G01 X1.55655 Y2.36160
G01 X1.56375 Y2.36157
G01 X1.57140 Y2.35994
G01 X1.57854 Y2.35676
G01 X1.58487 Y2.35216
G01 X1.59010 Y2.34635
G01 X1.59401 Y2.33958
G01 X1.59643 Y2.33215
G01 X1.59724 Y2.32437
G01 X1.59643 Y2.31659
G01 X1.59401 Y2.30916
G01 X1.59010 Y2.30239
G01 X1.58531 Y2.29701
G01 X1.58439 Y2.29619
G01 X1.57906 Y2.29232
G01 X1.57799 Y2.29170
G01 X1.57140 Y2.28880
G01 X1.56436 Y2.28727
G01 X1.56313 Y2.28714
G01 X1.55593 Y2.28717
G01 X1.54828 Y2.28880
G01 X1.54114 Y2.29198
G01 X1.53482 Y2.29658
G01 X1.52958 Y2.30239
G01 X1.52567 Y2.30916
G01 X1.52326 Y2.31659
G01 X1.52244 Y2.32437
G01 X1.52441 Y2.32437
G01 X1.52529 Y2.31661
G01 X1.52747 Y2.30996
G01 X1.53095 Y2.30389
G01 X1.53613 Y2.29804
G01 X1.54178 Y2.29391
G01 X1.54889 Y2.29067
G01 X1.55614 Y2.28913
G01 X1.56355 Y2.28913
G01 X1.57118 Y2.29082
G01 X1.57790 Y2.29391
G01 X1.58355 Y2.29804
G01 X1.58825 Y2.30322
G01 X1.59221 Y2.30996
G01 X1.59450 Y2.31700
G01 X1.59528 Y2.32437
G01 X1.59439 Y2.33214
G01 X1.59221 Y2.33878
G01 X1.58873 Y2.34485
G01 X1.58355 Y2.35070
G01 X1.57719 Y2.35524
G01 X1.57079 Y2.35807
G01 X1.56355 Y2.35961
G01 X1.55573 Y2.35954
G01 X1.54889 Y2.35807
G01 X1.54249 Y2.35524
G01 X1.53613 Y2.35070
G01 X1.53095 Y2.34485
G01 X1.52747 Y2.33878
G01 X1.52529 Y2.33214
G01 X1.52441 Y2.32437
G04 P0 ( dwell for no time -- G64 should not smooth over this point )
G00 Z0.07874 ( retract )

G00 X1.62244 Y2.32437 ( rapid move to begin. )
G01 F3.93701
( Mill infeed pass 1/1 )
G01 Z-0.00591
G04 P0 ( dwell for no time -- G64 should not smooth over this point )
G01 F7.87402
G01 X1.62244 Y2.32437
G01 X1.62326 Y2.33215
G01 X1.62567 Y2.33958
G01 X1.62958 Y2.34635
G01 X1.63438 Y2.35173
G01 X1.63530 Y2.35255
G01 X1.64114 Y2.35676
G01 X1.64771 Y2.35972
G01 X1.64888 Y2.36010
G01 X1.65532 Y2.36147
G01 X1.65655 Y2.36160
G01 X1.66375 Y2.36157
G01 X1.67140 Y2.35994
G01 X1.67854 Y2.35676
G01 X1.68487 Y2.35216
G01 X1.69010 Y2.34635
G01 X1.69401 Y2.33958
G01 X1.69643 Y2.33215
G01 X1.69724 Y2.32437
G01 X1.69643 Y2.31659
G01 X1.69401 Y2.30916
G01 X1.69010 Y2.30239
G01 X1.68531 Y2.29701
G01 X1.68439 Y2.29619
G01 X1.67906 Y2.29232
G01 X1.67799 Y2.29170
G01 X1.67140 Y2.28880
G01 X1.66436 Y2.28727
G01 X1.66313 Y2.28714
G01 X1.65593 Y2.28717
G01 X1.64828 Y2.28880
G01 X1.64114 Y2.29198
G01 X1.63482 Y2.29658
G01 X1.62958 Y2.30239
G01 X1.62567 Y2.30916
G01 X1.62326 Y2.31659
G01 X1.62244 Y2.32437
G01 X1.62441 Y2.32437
G01 X1.62529 Y2.31661
G01 X1.62747 Y2.30996
G01 X1.63095 Y2.30389
G01 X1.63613 Y2.29804
G01 X1.64178 Y2.29391
G01 X1.64889 Y2.29067
G01 X1.65614 Y2.28913
G01 X1.66355 Y2.28913
G01 X1.67118 Y2.29082
G01 X1.67790 Y2.29391
G01 X1.68355 Y2.29804
G01 X1.68825 Y2.30322
G01 X1.69221 Y2.30996
G01 X1.69450 Y2.31700
G01 X1.69528 Y2.32437
G01 X1.69439 Y2.33214
G01 X1.69221 Y2.33878
G01 X1.68873 Y2.34485
G01 X1.68355 Y2.35070
G01 X1.67719 Y2.35524
G01 X1.67079 Y2.35807
G01 X1.66355 Y2.35961
G01 X1.65573 Y2.35954
G01 X1.64889 Y2.35807
G01 X1.64249 Y2.35524
G01 X1.63613 Y2.35070
G01 X1.63095 Y2.34485
G01 X1.62747 Y2.33878
G01 X1.62529 Y2.33214
G01 X1.62441 Y2.32437
G04 P0 ( dwell for no time -- G64 should not smooth over this point )
G00 Z0.07874 ( retract )

G00 X1.72244 Y2.32437 ( rapid move to begin. )
G01 F3.93701
( Mill infeed pass 1/1 )
G01 Z-0.00591
G04 P0 ( dwell for no time -- G64 should not smooth over this point )
G01 F7.87402
G01 X1.72244 Y2.32437
G01 X1.72326 Y2.33215
G01 X1.72567 Y2.33958
G01 X1.72958 Y2.34635
G01 X1.73438 Y2.35173
G01 X1.73530 Y2.35255
G01 X1.74114 Y2.35676
G01 X1.74771 Y2.35972
G01 X1.74888 Y2.36010
G01 X1.75532 Y2.36147
G01 X1.75655 Y2.36160
G01 X1.76375 Y2.36157
G01 X1.77140 Y2.35994
G01 X1.77854 Y2.35676
G01 X1.78487 Y2.35216
G01 X1.79010 Y2.34635
G01 X1.79401 Y2.33958
G01 X1.79643 Y2.33215
G01 X1.79724 Y2.32437
G01 X1.79643 Y2.31659
G01 X1.79401 Y2.30916
G01 X1.79010 Y2.30239
G01 X1.78531 Y2.29701
G01 X1.78439 Y2.29619
G01 X1.77906 Y2.29232
G01 X1.77799 Y2.29170
G01 X1.77140 Y2.28880
G01 X1.76436 Y2.28727
G01 X1.76313 Y2.28714
G01 X1.75593 Y2.28717
G01 X1.74828 Y2.28880
G01 X1.74114 Y2.29198
G01 X1.73482 Y2.29658
G01 X1.72958 Y2.30239
G01 X1.72567 Y2.30916
G01 X1.72326 Y2.31659
G01 X1.72244 Y2.32437
G01 X1.72441 Y2.32437
G01 X1.72529 Y2.31661
G01 X1.72747 Y2.30996
G01 X1.73095 Y2.30389
G01 X1.73613 Y2.29804
G01 X1.74178 Y2.29391
G01 X1.74889 Y2.29067
G01 X1.75614 Y2.28913
G01 X1.76355 Y2.28913
G01 X1.77118 Y2.29082
G01 X1.77790 Y2.29391
G01 X1.78355 Y2.29804
G01 X1.78825 Y2.30322
G01 X1.79221 Y2.30996
G01 X1.79450 Y2.31700
G01 X1.79528 Y2.32437
G01 X1.79439 Y2.33214
G01 X1.79221 Y2.33878
G01 X1.78873 Y2.34485
G01 X1.78355 Y2.35070
G01 X1.77719 Y2.35524
G01 X1.77079 Y2.35807
G01 X1.76355 Y2.35961
G01 X1.75573 Y2.35954
G01 X1.74889 Y2.35807
G01 X1.74249 Y2.35524
G01 X1.73613 Y2.35070
G01 X1.73095 Y2.34485
G01 X1.72747 Y2.33878
G01 X1.72529 Y2.33214
G01 X1.72441 Y2.32437
G04 P0 ( dwell for no time -- G64 should not smooth over this point )
G00 Z0.07874 ( retract )

G00 X1.82244 Y2.32437 ( rapid move to begin. )
G01 F3.93701
( Mill infeed pass 1/1 )
G01 Z-0.00591
G04 P0 ( dwell for no time -- G64 should not smooth over this point )
G01 F7.87402
G01 X1.82244 Y2.32437
G01 X1.82326 Y2.33215
G01 X1.82567 Y2.33958
G01 X1.82958 Y2.34635
G01 X1.83438 Y2.35173
G01 X1.83530 Y2.35255
G01 X1.84114 Y2.35676
G01 X1.84771 Y2.35972
G01 X1.84888 Y2.36010
G01 X1.85532 Y2.36147
G01 X1.85655 Y2.36160
G01 X1.86375 Y2.36157
G01 X1.87140 Y2.35994
G01 X1.87854 Y2.35676
G01 X1.88487 Y2.35216
G01 X1.89010 Y2.34635
G01 X1.89401 Y2.33958
G01 X1.89643 Y2.33215
G01 X1.89724 Y2.32437
G01 X1.89643 Y2.31659
G01 X1.89401 Y2.30916
G01 X1.89010 Y2.30239
G01 X1.88531 Y2.29701
G01 X1.88439 Y2.29619
G01 X1.87906 Y2.29232
G01 X1.87799 Y2.29170
G01 X1.87140 Y2.28880
G01 X1.86436 Y2.28727
G01 X1.86313 Y2.28714
G01 X1.85593 Y2.28717
G01 X1.84828 Y2.28880
G01 X1.84114 Y2.29198
G01 X1.83482 Y2.29658
G01 X1.82958 Y2.30239
G01 X1.82567 Y2.30916
G01 X1.82326 Y2.31659
G01 X1.82244 Y2.32437
G01 X1.82441 Y2.32437
G01 X1.82529 Y2.31661
G01 X1.82747 Y2.30996
G01 X1.83095 Y2.30389
G01 X1.83613 Y2.29804
G01 X1.84178 Y2.29391
G01 X1.84889 Y2.29067
G01 X1.85614 Y2.28913
G01 X1.86355 Y2.28913
G01 X1.87118 Y2.29082
G01 X1.87790 Y2.29391
G01 X1.88355 Y2.29804
G01 X1.88825 Y2.30322
G01 X1.89221 Y2.30996
G01 X1.89450 Y2.31700
G01 X1.89528 Y2.32437
G01 X1.89439 Y2.33214
G01 X1.89221 Y2.33878
G01 X1.88873 Y2.34485
G01 X1.88355 Y2.35070
G01 X1.87719 Y2.35524
G01 X1.87079 Y2.35807
G01 X1.86355 Y2.35961
G01 X1.85573 Y2.35954
G01 X1.84889 Y2.35807
G01 X1.84249 Y2.35524
G01 X1.83613 Y2.35070
G01 X1.83095 Y2.34485
G01 X1.82747 Y2.33878
G01 X1.82529 Y2.33214
G01 X1.82441 Y2.32437
G04 P0 ( dwell for no time -- G64 should not smooth over this point )
G00 Z0.07874 ( retract )

G00 X1.92244 Y2.32437 ( rapid move to begin. )
G01 F3.93701
( Mill infeed pass 1/1 )
G01 Z-0.00591
G04 P0 ( dwell for no time -- G64 should not smooth over this point )
G01 F7.87402
G01 X1.92244 Y2.32437
G01 X1.92326 Y2.33215
G01 X1.92567 Y2.33958
G01 X1.92958 Y2.34635
G01 X1.93438 Y2.35173
G01 X1.93530 Y2.35255
G01 X1.94114 Y2.35676
G01 X1.94771 Y2.35972
G01 X1.94888 Y2.36010
G01 X1.95532 Y2.36147
G01 X1.95655 Y2.36160
G01 X1.96375 Y2.36157
G01 X1.97140 Y2.35994
G01 X1.97854 Y2.35676
G01 X1.98487 Y2.35216
G01 X1.99010 Y2.34635
G01 X1.99401 Y2.33958
G01 X1.99643 Y2.33215
G01 X1.99724 Y2.32437
G01 X1.99643 Y2.31659
G01 X1.99401 Y2.30916
G01 X1.99010 Y2.30239
G01 X1.98531 Y2.29701
G01 X1.98439 Y2.29619
G01 X1.97906 Y2.29232
G01 X1.97799 Y2.29170
G01 X1.97140 Y2.28880
G01 X1.96436 Y2.28727
G01 X1.96313 Y2.28714
G01 X1.95593 Y2.28717
G01 X1.94828 Y2.28880
G01 X1.94114 Y2.29198
G01 X1.93482 Y2.29658
G01 X1.92958 Y2.30239
G01 X1.92567 Y2.30916
G01 X1.92326 Y2.31659
G01 X1.92244 Y2.32437
G01 X1.92441 Y2.32437
G01 X1.92529 Y2.31661
G01 X1.92747 Y2.30996
G01 X1.93095 Y2.30389
G01 X1.93613 Y2.29804
G01 X1.94178 Y2.29391
G01 X1.94889 Y2.29067
G01 X1.95614 Y2.28913
G01 X1.96355 Y2.28913
G01 X1.97118 Y2.29082
G01 X1.97790 Y2.29391
G01 X1.98355 Y2.29804
G01 X1.98825 Y2.30322
G01 X1.99221 Y2.30996
G01 X1.99450 Y2.31700
G01 X1.99528 Y2.32437
G01 X1.99439 Y2.33214
G01 X1.99221 Y2.33878
G01 X1.98873 Y2.34485
G01 X1.98355 Y2.35070
G01 X1.97719 Y2.35524
G01 X1.97079 Y2.35807
G01 X1.96355 Y2.35961
G01 X1.95573 Y2.35954
G01 X1.94889 Y2.35807
G01 X1.94249 Y2.35524
G01 X1.93613 Y2.35070
G01 X1.93095 Y2.34485
G01 X1.92747 Y2.33878
G01 X1.92529 Y2.33214
G01 X1.92441 Y2.32437
G04 P0 ( dwell for no time -- G64 should not smooth over this point )
G00 Z0.07874 ( retract )

G00 X2.12244 Y2.32437 ( rapid move to begin. )
G01 F3.93701
( Mill infeed pass 1/1 )
G01 Z-0.00591
G04 P0 ( dwell for no time -- G64 should not smooth over this point )
G01 F7.87402
G01 X2.12244 Y2.32437
G01 X2.12326 Y2.33215
G01 X2.12567 Y2.33958
G01 X2.12958 Y2.34635
G01 X2.13438 Y2.35173
G01 X2.13530 Y2.35255
G01 X2.14114 Y2.35676
G01 X2.14771 Y2.35972
G01 X2.14888 Y2.36010
G01 X2.15532 Y2.36147
G01 X2.15655 Y2.36160
G01 X2.16375 Y2.36157
G01 X2.17140 Y2.35994
G01 X2.17854 Y2.35676
G01 X2.18487 Y2.35216
G01 X2.19010 Y2.34635
G01 X2.19401 Y2.33958
G01 X2.19643 Y2.33215
G01 X2.19724 Y2.32437
G01 X2.19643 Y2.31659
G01 X2.19401 Y2.30916
G01 X2.19010 Y2.30239
G01 X2.18531 Y2.29701
G01 X2.18439 Y2.29619
G01 X2.17906 Y2.29232
G01 X2.17799 Y2.29170
G01 X2.17140 Y2.28880
G01 X2.16436 Y2.28727
G01 X2.16313 Y2.28714
G01 X2.15593 Y2.28717
G01 X2.14828 Y2.28880
G01 X2.14114 Y2.29198
G01 X2.13482 Y2.29658
G01 X2.12958 Y2.30239
G01 X2.12567 Y2.30916
G01 X2.12326 Y2.31659
G01 X2.12244 Y2.32437
G01 X2.12441 Y2.32437
G01 X2.12529 Y2.31661
G01 X2.12747 Y2.30996
G01 X2.13095 Y2.30389
G01 X2.13613 Y2.29804
G01 X2.14178 Y2.29391
G01 X2.14889 Y2.29067
G01 X2.15614 Y2.28913
G01 X2.16355 Y2.28913
G01 X2.17118 Y2.29082
G01 X2.17790 Y2.29391
G01 X2.18355 Y2.29804
G01 X2.18825 Y2.30322
G01 X2.19221 Y2.30996
G01 X2.19450 Y2.31700
G01 X2.19528 Y2.32437
G01 X2.19439 Y2.33214
G01 X2.19221 Y2.33878
G01 X2.18873 Y2.34485
G01 X2.18355 Y2.35070
G01 X2.17719 Y2.35524
G01 X2.17079 Y2.35807
G01 X2.16355 Y2.35961
G01 X2.15573 Y2.35954
G01 X2.14889 Y2.35807
G01 X2.14249 Y2.35524
G01 X2.13613 Y2.35070
G01 X2.13095 Y2.34485
G01 X2.12747 Y2.33878
G01 X2.12529 Y2.33214
G01 X2.12441 Y2.32437
G04 P0 ( dwell for no time -- G64 should not smooth over this point )
G00 Z0.07874 ( retract )

G00 X1.72244 Y1.72437 ( rapid move to begin. )
G01 F3.93701
( Mill infeed pass 1/1 )
G01 Z-0.00591
G04 P0 ( dwell for no time -- G64 should not smooth over this point )
G01 F7.87402
G01 X1.72244 Y1.72437
G01 X1.72316 Y1.73154
G01 X1.72342 Y1.73274
G01 X1.72567 Y1.73958
G01 X1.72958 Y1.74635
G01 X1.73438 Y1.75173
G01 X1.73530 Y1.75255
G01 X1.74114 Y1.75676
G01 X1.74828 Y1.75994
G01 X1.75532 Y1.76147
G01 X1.75655 Y1.76160
G01 X1.76375 Y1.76157
G01 X1.77140 Y1.75994
G01 X1.77799 Y1.75704
G01 X1.77906 Y1.75642
G01 X1.78487 Y1.75216
G01 X1.78971 Y1.74683
G01 X1.79044 Y1.74584
G01 X1.79373 Y1.74013
G01 X1.79423 Y1.73901
G01 X1.79643 Y1.73215
G01 X1.79724 Y1.72437
G01 X1.79643 Y1.71659
G01 X1.79525 Y1.71295
G01 X1.79527 Y1.64169
G01 X1.79470 Y1.64112
G01 X1.79527 Y1.64169
G01 X2.40107 Y1.64169
G01 X2.40113 Y1.64154
G01 X2.40107 Y1.64169
G01 X2.58754 Y1.82817
G01 X2.59245 Y1.83223
G01 X2.59851 Y1.83560
G01 X2.59958 Y1.83604
G01 X2.60569 Y1.83786
G01 X2.60669 Y1.83799
G01 X2.60707 Y1.83770
G01 X2.60669 Y1.83799
G01 X2.60681 Y1.84363
G01 X2.60714 Y1.84474
G01 X2.60769 Y1.84576
G01 X2.60842 Y1.84666
G01 X2.60932 Y1.84739
G01 X2.61034 Y1.84794
G01 X2.61145 Y1.84827
G01 X2.61260 Y1.84839
G01 X2.69134 Y1.84839
G01 X2.69249 Y1.84827
G01 X2.69360 Y1.84794
G01 X2.69462 Y1.84739
G01 X2.69551 Y1.84666
G01 X2.69625 Y1.84576
G01 X2.69679 Y1.84474
G01 X2.69713 Y1.84363
G01 X2.69724 Y1.84248
G01 X2.69724 Y1.76374
G01 X2.69713 Y1.76259
G01 X2.69679 Y1.76148
G01 X2.69625 Y1.76046
G01 X2.69551 Y1.75957
G01 X2.69462 Y1.75883
G01 X2.69360 Y1.75829
G01 X2.69249 Y1.75795
G01 X2.69134 Y1.75784
G01 X2.61743 Y1.75784
G01 X2.61737 Y1.75799
G01 X2.61743 Y1.75784
G01 X2.44080 Y1.58121
G01 X2.43590 Y1.57715
G01 X2.42983 Y1.57377
G01 X2.42876 Y1.57333
G01 X2.42209 Y1.57142
G01 X2.41575 Y1.57083
G01 X1.76614 Y1.57083
G01 X1.75980 Y1.57142
G01 X1.75867 Y1.57165
G01 X1.75313 Y1.57333
G01 X1.74695 Y1.57650
G01 X1.74152 Y1.58082
G01 X1.73479 Y1.58751
G01 X1.73073 Y1.59241
G01 X1.72735 Y1.59848
G01 X1.72691 Y1.59955
G01 X1.72509 Y1.60565
G01 X1.72441 Y1.61256
G01 X1.72443 Y1.71295
G01 X1.72326 Y1.71659
G01 X1.72244 Y1.72437
G01 X1.72441 Y1.72437
G01 X1.72518 Y1.71700
G01 X1.72638 Y1.71326
G01 X1.72638 Y1.61256
G01 X1.72702 Y1.60603
G01 X1.72909 Y1.59940
G01 X1.73225 Y1.59366
G01 X1.73618 Y1.58890
G01 X1.74248 Y1.58260
G01 X1.74755 Y1.57844
G01 X1.75299 Y1.57551
G01 X1.75924 Y1.57353
G01 X1.76614 Y1.57280
G01 X2.41575 Y1.57280
G01 X2.42189 Y1.57338
G01 X2.42890 Y1.57551
G01 X2.43465 Y1.57867
G01 X2.43941 Y1.58260
G01 X2.61662 Y1.75980
G01 X2.69134 Y1.75980
G01 X2.69284 Y1.76010
G01 X2.69412 Y1.76096
G01 X2.69498 Y1.76223
G01 X2.69528 Y1.76374
G01 X2.69528 Y1.84248
G01 X2.69498 Y1.84399
G01 X2.69412 Y1.84526
G01 X2.69284 Y1.84612
G01 X2.69134 Y1.84642
G01 X2.61260 Y1.84642
G01 X2.61183 Y1.84634
G01 X2.61041 Y1.84575
G01 X2.60932 Y1.84467
G01 X2.60874 Y1.84325
G01 X2.60866 Y1.83621
G01 X2.60569 Y1.83584
G01 X2.59944 Y1.83386
G01 X2.59370 Y1.83071
G01 X2.58894 Y1.82677
G01 X2.40189 Y1.63973
G01 X1.79331 Y1.63973
G01 X1.79331 Y1.71326
G01 X1.79450 Y1.71700
G01 X1.79528 Y1.72437
G01 X1.79450 Y1.73174
G01 X1.79236 Y1.73840
G01 X1.78825 Y1.74552
G01 X1.78355 Y1.75070
G01 X1.77790 Y1.75483
G01 X1.77079 Y1.75807
G01 X1.76313 Y1.75963
G01 X1.75614 Y1.75961
G01 X1.74889 Y1.75807
G01 X1.74213 Y1.75506
G01 X1.73645 Y1.75096
G01 X1.73118 Y1.74520
G01 X1.72732 Y1.73840
G01 X1.72518 Y1.73174
G01 X1.72441 Y1.72437
G04 P0 ( dwell for no time -- G64 should not smooth over this point )
G00 Z0.07874 ( retract )

G00 X1.92244 Y1.72437 ( rapid move to begin. )
G01 F3.93701
( Mill infeed pass 1/1 )
G01 Z-0.00591
G04 P0 ( dwell for no time -- G64 should not smooth over this point )
G01 F7.87402
G01 X1.92244 Y1.72437
G01 X1.92326 Y1.73215
G01 X1.92567 Y1.73958
G01 X1.92958 Y1.74635
G01 X1.93438 Y1.75173
G01 X1.93530 Y1.75255
G01 X1.94114 Y1.75676
G01 X1.94771 Y1.75972
G01 X1.94888 Y1.76010
G01 X1.95532 Y1.76147
G01 X1.95655 Y1.76160
G01 X1.96375 Y1.76157
G01 X1.97140 Y1.75994
G01 X1.97854 Y1.75676
G01 X1.98487 Y1.75216
G01 X1.99010 Y1.74635
G01 X1.99401 Y1.73958
G01 X1.99643 Y1.73215
G01 X1.99724 Y1.72437
G01 X1.99643 Y1.71659
G01 X1.99401 Y1.70916
G01 X1.99010 Y1.70239
G01 X1.98531 Y1.69701
G01 X1.98439 Y1.69619
G01 X1.97906 Y1.69232
G01 X1.97799 Y1.69170
G01 X1.97140 Y1.68880
G01 X1.96436 Y1.68727
G01 X1.96313 Y1.68714
G01 X1.95593 Y1.68717
G01 X1.94828 Y1.68880
G01 X1.94114 Y1.69198
G01 X1.93482 Y1.69658
G01 X1.92958 Y1.70239
G01 X1.92567 Y1.70916
G01 X1.92326 Y1.71659
G01 X1.92244 Y1.72437
G01 X1.92441 Y1.72437
G01 X1.92529 Y1.71661
G01 X1.92747 Y1.70996
G01 X1.93095 Y1.70389
G01 X1.93613 Y1.69804
G01 X1.94178 Y1.69391
G01 X1.94889 Y1.69067
G01 X1.95614 Y1.68913
G01 X1.96355 Y1.68913
G01 X1.97118 Y1.69082
G01 X1.97790 Y1.69391
G01 X1.98355 Y1.69804
G01 X1.98825 Y1.70322
G01 X1.99221 Y1.70996
G01 X1.99450 Y1.71700
G01 X1.99528 Y1.72437
G01 X1.99439 Y1.73214
G01 X1.99221 Y1.73878
G01 X1.98873 Y1.74485
G01 X1.98355 Y1.75070
G01 X1.97719 Y1.75524
G01 X1.97079 Y1.75807
G01 X1.96355 Y1.75961
G01 X1.95573 Y1.75954
G01 X1.94889 Y1.75807
G01 X1.94249 Y1.75524
G01 X1.93613 Y1.75070
G01 X1.93095 Y1.74485
G01 X1.92747 Y1.73878
G01 X1.92529 Y1.73214
G01 X1.92441 Y1.72437
G04 P0 ( dwell for no time -- G64 should not smooth over this point )
G00 Z0.07874 ( retract )

G00 X2.02244 Y1.72437 ( rapid move to begin. )
G01 F3.93701
( Mill infeed pass 1/1 )
G01 Z-0.00591
G04 P0 ( dwell for no time -- G64 should not smooth over this point )
G01 F7.87402
G01 X2.02244 Y1.72437
G01 X2.02326 Y1.73215
G01 X2.02567 Y1.73958
G01 X2.02958 Y1.74635
G01 X2.03438 Y1.75173
G01 X2.03530 Y1.75255
G01 X2.04114 Y1.75676
G01 X2.04771 Y1.75972
G01 X2.04888 Y1.76010
G01 X2.05532 Y1.76147
G01 X2.05655 Y1.76160
G01 X2.06375 Y1.76157
G01 X2.07140 Y1.75994
G01 X2.07854 Y1.75676
G01 X2.08487 Y1.75216
G01 X2.09010 Y1.74635
G01 X2.09401 Y1.73958
G01 X2.09643 Y1.73215
G01 X2.09724 Y1.72437
G01 X2.09643 Y1.71659
G01 X2.09401 Y1.70916
G01 X2.09010 Y1.70239
G01 X2.08531 Y1.69701
G01 X2.08439 Y1.69619
G01 X2.07906 Y1.69232
G01 X2.07799 Y1.69170
G01 X2.07140 Y1.68880
G01 X2.06436 Y1.68727
G01 X2.06313 Y1.68714
G01 X2.05593 Y1.68717
G01 X2.04828 Y1.68880
G01 X2.04114 Y1.69198
G01 X2.03482 Y1.69658
G01 X2.02958 Y1.70239
G01 X2.02567 Y1.70916
G01 X2.02326 Y1.71659
G01 X2.02244 Y1.72437
G01 X2.02441 Y1.72437
G01 X2.02529 Y1.71661
G01 X2.02747 Y1.70996
G01 X2.03095 Y1.70389
G01 X2.03613 Y1.69804
G01 X2.04178 Y1.69391
G01 X2.04889 Y1.69067
G01 X2.05614 Y1.68913
G01 X2.06355 Y1.68913
G01 X2.07118 Y1.69082
G01 X2.07790 Y1.69391
G01 X2.08355 Y1.69804
G01 X2.08825 Y1.70322
G01 X2.09221 Y1.70996
G01 X2.09450 Y1.71700
G01 X2.09528 Y1.72437
G01 X2.09439 Y1.73214
G01 X2.09221 Y1.73878
G01 X2.08873 Y1.74485
G01 X2.08355 Y1.75070
G01 X2.07719 Y1.75524
G01 X2.07079 Y1.75807
G01 X2.06355 Y1.75961
G01 X2.05573 Y1.75954
G01 X2.04889 Y1.75807
G01 X2.04249 Y1.75524
G01 X2.03613 Y1.75070
G01 X2.03095 Y1.74485
G01 X2.02747 Y1.73878
G01 X2.02529 Y1.73214
G01 X2.02441 Y1.72437
G04 P0 ( dwell for no time -- G64 should not smooth over this point )
G00 Z0.07874 ( retract )

G00 X2.12244 Y1.69287 ( rapid move to begin. )
G01 F3.93701
( Mill infeed pass 1/1 )
G01 Z-0.00591
G04 P0 ( dwell for no time -- G64 should not smooth over this point )
G01 F7.87402
G01 X2.12244 Y1.69287
G01 X2.12255 Y1.69172
G01 X2.12289 Y1.69061
G01 X2.12344 Y1.68959
G01 X2.12417 Y1.68870
G01 X2.12507 Y1.68796
G01 X2.12609 Y1.68742
G01 X2.12719 Y1.68708
G01 X2.12835 Y1.68697
G01 X2.19134 Y1.68697
G01 X2.19249 Y1.68708
G01 X2.19360 Y1.68742
G01 X2.19462 Y1.68796
G01 X2.19551 Y1.68870
G01 X2.19625 Y1.68959
G01 X2.19679 Y1.69061
G01 X2.19713 Y1.69172
G01 X2.19724 Y1.69287
G01 X2.19724 Y1.75587
G01 X2.19713 Y1.75702
G01 X2.19679 Y1.75813
G01 X2.19625 Y1.75915
G01 X2.19551 Y1.76004
G01 X2.19462 Y1.76078
G01 X2.19360 Y1.76132
G01 X2.19249 Y1.76166
G01 X2.19134 Y1.76177
G01 X2.12835 Y1.76177
G01 X2.12719 Y1.76166
G01 X2.12609 Y1.76132
G01 X2.12507 Y1.76078
G01 X2.12417 Y1.76004
G01 X2.12344 Y1.75915
G01 X2.12289 Y1.75813
G01 X2.12255 Y1.75702
G01 X2.12244 Y1.75587
G01 X2.12244 Y1.69287
G01 X2.12441 Y1.69287
G01 X2.12441 Y1.75587
G01 X2.12471 Y1.75737
G01 X2.12556 Y1.75865
G01 X2.12684 Y1.75950
G01 X2.12835 Y1.75980
G01 X2.19134 Y1.75980
G01 X2.19284 Y1.75950
G01 X2.19412 Y1.75865
G01 X2.19498 Y1.75737
G01 X2.19528 Y1.75587
G01 X2.19528 Y1.69287
G01 X2.19498 Y1.69137
G01 X2.19412 Y1.69009
G01 X2.19284 Y1.68924
G01 X2.19134 Y1.68894
G01 X2.12835 Y1.68894
G01 X2.12684 Y1.68924
G01 X2.12556 Y1.69009
G01 X2.12471 Y1.69137
G01 X2.12441 Y1.69287
G04 P0 ( dwell for no time -- G64 should not smooth over this point )
G00 Z0.07874 ( retract )

G00 X1.89824 Y1.03305 ( rapid move to begin. )
G01 F3.93701
( Mill infeed pass 1/1 )
G01 Z-0.00591
G04 P0 ( dwell for no time -- G64 should not smooth over this point )
G01 F7.87402
G01 X1.89824 Y1.03305
G01 X1.89837 Y1.03182
G01 X1.90000 Y1.02415
G01 X1.90038 Y1.02298
G01 X1.90385 Y1.01527
G01 X1.90918 Y1.00793
G01 X1.91544 Y1.00224
G01 X1.91644 Y1.00152
G01 X1.92378 Y0.99732
G01 X1.93241 Y0.99451
G01 X1.94144 Y0.99356
G01 X1.94579 Y0.99360
G01 X1.95420 Y0.99451
G01 X1.96283 Y0.99732
G01 X1.97018 Y1.00160
G01 X2.06299 Y1.00154
G01 X2.06990 Y1.00222
G01 X2.07600 Y1.00404
G01 X2.07707 Y1.00448
G01 X2.08314 Y1.00785
G01 X2.08805 Y1.01191
G01 X2.19420 Y1.11807
G01 X2.19414 Y1.11822
G01 X2.19420 Y1.11807
G01 X2.19724 Y1.11807
G01 X2.19780 Y1.11864
G01 X2.19724 Y1.11807
G01 X2.19724 Y1.10823
G01 X2.19749 Y1.10557
G01 X2.19861 Y1.10182
G01 X2.19992 Y1.09949
G01 X2.20245 Y1.09653
G01 X2.20460 Y1.09493
G01 X2.20755 Y1.09347
G01 X2.20872 Y1.09309
G01 X2.21074 Y1.09266
G01 X2.21299 Y1.09248
G01 X2.30354 Y1.09248
G01 X2.30580 Y1.09266
G01 X2.30781 Y1.09309
G01 X2.31142 Y1.09459
G01 X2.31408 Y1.09653
G01 X2.31662 Y1.09949
G01 X2.31793 Y1.10182
G01 X2.31904 Y1.10557
G01 X2.31929 Y1.10823
G01 X2.31929 Y1.11807
G01 X2.31874 Y1.11864
G01 X2.31929 Y1.11807
G01 X2.39134 Y1.11807
G01 X2.39825 Y1.11875
G01 X2.40435 Y1.12057
G01 X2.41053 Y1.12375
G01 X2.41149 Y1.12439
G01 X2.41639 Y1.12845
G01 X2.55458 Y1.26667
G01 X2.55889 Y1.27211
G01 X2.56162 Y1.27722
G01 X2.56206 Y1.27829
G01 X2.56388 Y1.28439
G01 X2.56454 Y1.29072
G01 X2.56454 Y1.29188
G01 X2.56388 Y1.29821
G01 X2.56206 Y1.30431
G01 X2.55889 Y1.31049
G01 X2.55825 Y1.31145
G01 X2.55419 Y1.31635
G01 X2.54928 Y1.32042
G01 X2.54832 Y1.32106
G01 X2.54215 Y1.32423
G01 X2.53547 Y1.32614
G01 X2.52971 Y1.32670
G01 X2.52279 Y1.32614
G01 X2.51612 Y1.32423
G01 X2.50994 Y1.32106
G01 X2.50898 Y1.32042
G01 X2.50408 Y1.31635
G01 X2.37666 Y1.18894
G01 X2.37672 Y1.18879
G01 X2.37666 Y1.18894
G01 X2.31929 Y1.18894
G01 X2.31872 Y1.18836
G01 X2.31929 Y1.18894
G01 X2.31926 Y1.19940
G01 X2.31895 Y1.20205
G01 X2.31765 Y1.20574
G01 X2.31628 Y1.20804
G01 X2.31452 Y1.21005
G01 X2.31194 Y1.21208
G01 X2.30841 Y1.21376
G01 X2.30519 Y1.21444
G01 X2.21300 Y1.21453
G01 X2.21074 Y1.21434
G01 X2.20755 Y1.21353
G01 X2.20512 Y1.21242
G01 X2.20245 Y1.21048
G01 X2.20025 Y1.20804
G01 X2.19861 Y1.20518
G01 X2.19759 Y1.20205
G01 X2.19724 Y1.19878
G01 X2.19724 Y1.18894
G01 X2.19782 Y1.18836
G01 X2.19724 Y1.18894
G01 X2.17953 Y1.18894
G01 X2.17261 Y1.18826
G01 X2.16651 Y1.18644
G01 X2.16544 Y1.18599
G01 X2.15938 Y1.18262
G01 X2.15447 Y1.17856
G01 X2.04831 Y1.07240
G01 X2.04838 Y1.07225
G01 X2.04831 Y1.07240
G01 X1.97018 Y1.07234
G01 X1.96283 Y1.07662
G01 X1.95420 Y1.07942
G01 X1.94518 Y1.08037
G01 X1.94082 Y1.08034
G01 X1.93241 Y1.07942
G01 X1.92378 Y1.07662
G01 X1.91644 Y1.07242
G01 X1.91544 Y1.07169
G01 X1.90962 Y1.06645
G01 X1.90879 Y1.06553
G01 X1.90385 Y1.05867
G01 X1.90016 Y1.05038
G01 X1.89827 Y1.04151
G01 X1.89824 Y1.03305
G01 X1.90021 Y1.03305
G01 X1.90023 Y1.04130
G01 X1.90218 Y1.05016
G01 X1.90555 Y1.05769
G01 X1.91038 Y1.06438
G01 X1.91743 Y1.07072
G01 X1.92458 Y1.07482
G01 X1.93282 Y1.07750
G01 X1.94144 Y1.07841
G01 X1.94559 Y1.07838
G01 X1.95379 Y1.07750
G01 X1.96203 Y1.07482
G01 X1.96961 Y1.07043
G01 X2.04913 Y1.07043
G01 X2.15586 Y1.17717
G01 X2.16062 Y1.18110
G01 X2.16637 Y1.18426
G01 X2.17338 Y1.18638
G01 X2.17953 Y1.18697
G01 X2.19921 Y1.18697
G01 X2.19923 Y1.19919
G01 X2.19951 Y1.20164
G01 X2.20040 Y1.20438
G01 X2.20184 Y1.20688
G01 X2.20377 Y1.20902
G01 X2.20610 Y1.21071
G01 X2.20873 Y1.21188
G01 X2.21114 Y1.21242
G01 X2.21299 Y1.21256
G01 X2.30498 Y1.21248
G01 X2.30819 Y1.21174
G01 X2.31043 Y1.21071
G01 X2.31244 Y1.20928
G01 X2.31469 Y1.20688
G01 X2.31613 Y1.20438
G01 X2.31702 Y1.20164
G01 X2.31730 Y1.19919
G01 X2.31732 Y1.18697
G01 X2.37748 Y1.18697
G01 X2.50547 Y1.31496
G01 X2.51023 Y1.31889
G01 X2.51669 Y1.32235
G01 X2.52299 Y1.32418
G01 X2.52913 Y1.32476
G01 X2.53528 Y1.32418
G01 X2.54158 Y1.32235
G01 X2.54772 Y1.31912
G01 X2.55280 Y1.31496
G01 X2.55716 Y1.30956
G01 X2.56005 Y1.30411
G01 X2.56201 Y1.29745
G01 X2.56260 Y1.29130
G01 X2.56186 Y1.28440
G01 X2.55989 Y1.27814
G01 X2.55696 Y1.27271
G01 X2.55280 Y1.26764
G01 X2.41500 Y1.12984
G01 X2.40993 Y1.12568
G01 X2.40378 Y1.12246
G01 X2.39748 Y1.12063
G01 X2.39134 Y1.12004
G01 X2.31732 Y1.12004
G01 X2.31730 Y1.10782
G01 X2.31702 Y1.10536
G01 X2.31594 Y1.10226
G01 X2.31469 Y1.10013
G01 X2.31305 Y1.09828
G01 X2.31043 Y1.09630
G01 X2.30740 Y1.09502
G01 X2.30539 Y1.09459
G01 X2.30354 Y1.09445
G01 X2.21299 Y1.09445
G01 X2.21114 Y1.09459
G01 X2.20913 Y1.09502
G01 X2.20610 Y1.09630
G01 X2.20377 Y1.09799
G01 X2.20184 Y1.10013
G01 X2.20040 Y1.10262
G01 X2.19951 Y1.10536
G01 X2.19923 Y1.10782
G01 X2.19921 Y1.12004
G01 X2.19339 Y1.12004
G01 X2.08665 Y1.01331
G01 X2.08158 Y1.00914
G01 X2.07615 Y1.00622
G01 X2.06914 Y1.00409
G01 X2.06299 Y1.00350
G01 X1.96961 Y1.00350
G01 X1.96203 Y0.99911
G01 X1.95379 Y0.99644
G01 X1.94518 Y0.99553
G01 X1.94103 Y0.99555
G01 X1.93282 Y0.99644
G01 X1.92422 Y0.99930
G01 X1.91708 Y1.00345
G01 X1.91064 Y1.00924
G01 X1.90555 Y1.01625
G01 X1.90218 Y1.02378
G01 X1.90021 Y1.03305
G04 P0 ( dwell for no time -- G64 should not smooth over this point )
G00 Z0.07874 ( retract )

G00 X1.85887 Y0.55746 ( rapid move to begin. )
G01 F3.93701
( Mill infeed pass 1/1 )
G01 Z-0.00591
G04 P0 ( dwell for no time -- G64 should not smooth over this point )
G01 F7.87402
G01 X1.85887 Y0.55746
G01 X1.85900 Y0.55623
G01 X1.86063 Y0.54856
G01 X1.86101 Y0.54739
G01 X1.86448 Y0.53968
G01 X1.86981 Y0.53233
G01 X1.87655 Y0.52626
G01 X1.88386 Y0.52201
G01 X1.88499 Y0.52150
G01 X1.89304 Y0.51892
G01 X1.90207 Y0.51797
G01 X1.90642 Y0.51801
G01 X1.91483 Y0.51892
G01 X1.92346 Y0.52173
G01 X1.93081 Y0.52601
G01 X1.98484 Y0.52598
G01 X1.99117 Y0.52663
G01 X1.99421 Y0.52753
G01 X2.00737 Y0.52752
G01 X2.00743 Y0.52767
G01 X2.00737 Y0.52752
G01 X2.04567 Y0.48922
G01 X2.04582 Y0.48928
G01 X2.04567 Y0.48922
G01 X2.04567 Y0.40547
G01 X2.04635 Y0.39856
G01 X2.04817 Y0.39246
G01 X2.04861 Y0.39139
G01 X2.05199 Y0.38532
G01 X2.05605 Y0.38042
G01 X2.08321 Y0.35325
G01 X2.08812 Y0.34919
G01 X2.08908 Y0.34855
G01 X2.09525 Y0.34538
G01 X2.10135 Y0.34356
G01 X2.10827 Y0.34288
G01 X2.29822 Y0.34290
G01 X2.30455 Y0.34356
G01 X2.31065 Y0.34538
G01 X2.31172 Y0.34582
G01 X2.31779 Y0.34919
G01 X2.32269 Y0.35325
G01 X2.32675 Y0.35816
G01 X2.33012 Y0.36422
G01 X2.33057 Y0.36529
G01 X2.33247 Y0.37197
G01 X2.33304 Y0.37773
G01 X2.33247 Y0.38465
G01 X2.33057 Y0.39132
G01 X2.32740 Y0.39750
G01 X2.32675 Y0.39846
G01 X2.32269 Y0.40336
G01 X2.31779 Y0.40742
G01 X2.31172 Y0.41080
G01 X2.31065 Y0.41124
G01 X2.30455 Y0.41306
G01 X2.29764 Y0.41374
G01 X2.12294 Y0.41374
G01 X2.12288 Y0.41359
G01 X2.12294 Y0.41374
G01 X2.11653 Y0.42015
G01 X2.11638 Y0.42009
G01 X2.11653 Y0.42015
G01 X2.11653 Y0.50390
G01 X2.11585 Y0.51081
G01 X2.11403 Y0.51691
G01 X2.11086 Y0.52309
G01 X2.11022 Y0.52405
G01 X2.10616 Y0.52895
G01 X2.05748 Y0.57763
G01 X2.05733 Y0.57757
G01 X2.05748 Y0.57763
G01 X2.05748 Y0.60733
G01 X2.05733 Y0.60739
G01 X2.05748 Y0.60733
G01 X2.17452 Y0.72437
G01 X2.17446 Y0.72452
G01 X2.17452 Y0.72437
G01 X2.20862 Y0.72437
G01 X2.20869 Y0.72454
G01 X2.20862 Y0.72437
G01 X2.20929 Y0.72345
G01 X2.21744 Y0.71445
G01 X2.22776 Y0.70696
G01 X2.23941 Y0.70177
G01 X2.25189 Y0.69911
G01 X2.26465 Y0.69911
G01 X2.27712 Y0.70177
G01 X2.28878 Y0.70696
G01 X2.29862 Y0.71407
G01 X2.29954 Y0.71489
G01 X2.30764 Y0.72394
G01 X2.31373 Y0.73443
G01 X2.31424 Y0.73556
G01 X2.31780 Y0.74652
G01 X2.31805 Y0.74773
G01 X2.31929 Y0.75980
G01 X2.31796 Y0.77249
G01 X2.31401 Y0.78462
G01 X2.30797 Y0.79515
G01 X2.30725 Y0.79615
G01 X2.29910 Y0.80515
G01 X2.28930 Y0.81231
G01 X2.28823 Y0.81293
G01 X2.27770 Y0.81762
G01 X2.27653 Y0.81800
G01 X2.26526 Y0.82040
G01 X2.26403 Y0.82052
G01 X2.25189 Y0.82049
G01 X2.23941 Y0.81784
G01 X2.22776 Y0.81265
G01 X2.21792 Y0.80554
G01 X2.21700 Y0.80472
G01 X2.20929 Y0.79615
G01 X2.20862 Y0.79524
G01 X2.20869 Y0.79506
G01 X2.20862 Y0.79524
G01 X2.15926 Y0.79521
G01 X2.15293 Y0.79456
G01 X2.14683 Y0.79273
G01 X2.14065 Y0.78956
G01 X2.13969 Y0.78892
G01 X2.13479 Y0.78486
G01 X1.99699 Y0.64706
G01 X1.99293 Y0.64216
G01 X1.98956 Y0.63609
G01 X1.98912 Y0.63502
G01 X1.98721 Y0.62835
G01 X1.98661 Y0.62201
G01 X1.98661 Y0.59839
G01 X1.98715 Y0.59788
G01 X1.98661 Y0.59839
G01 X1.98209 Y0.59836
G01 X1.97634 Y0.59779
G01 X1.97272 Y0.59679
G01 X1.93081 Y0.59675
G01 X1.92346 Y0.60103
G01 X1.91483 Y0.60383
G01 X1.90642 Y0.60475
G01 X1.90207 Y0.60478
G01 X1.89365 Y0.60393
G01 X1.89245 Y0.60367
G01 X1.88441 Y0.60103
G01 X1.87707 Y0.59683
G01 X1.87607 Y0.59610
G01 X1.87025 Y0.59086
G01 X1.86942 Y0.58994
G01 X1.86448 Y0.58308
G01 X1.86079 Y0.57479
G01 X1.85890 Y0.56592
G01 X1.85887 Y0.55746
G01 X1.86084 Y0.55746
G01 X1.86086 Y0.56571
G01 X1.86281 Y0.57457
G01 X1.86618 Y0.58210
G01 X1.87101 Y0.58878
G01 X1.87806 Y0.59513
G01 X1.88521 Y0.59923
G01 X1.89305 Y0.60180
G01 X1.90207 Y0.60282
G01 X1.90622 Y0.60279
G01 X1.91442 Y0.60191
G01 X1.92266 Y0.59923
G01 X1.93023 Y0.59484
G01 X1.97301 Y0.59484
G01 X1.97653 Y0.59583
G01 X1.98267 Y0.59642
G01 X1.98858 Y0.59642
G01 X1.98858 Y0.62201
G01 X1.98917 Y0.62816
G01 X1.99129 Y0.63516
G01 X1.99445 Y0.64091
G01 X1.99838 Y0.64567
G01 X2.13618 Y0.78347
G01 X2.14158 Y0.78783
G01 X2.14740 Y0.79085
G01 X2.15370 Y0.79268
G01 X2.15946 Y0.79325
G01 X2.20975 Y0.79327
G01 X2.21075 Y0.79484
G01 X2.21875 Y0.80369
G01 X2.22874 Y0.81095
G01 X2.24002 Y0.81597
G01 X2.25169 Y0.81847
G01 X2.26485 Y0.81847
G01 X2.27652 Y0.81597
G01 X2.28743 Y0.81113
G01 X2.29778 Y0.80369
G01 X2.30604 Y0.79452
G01 X2.31222 Y0.78382
G01 X2.31610 Y0.77167
G01 X2.31732 Y0.75980
G01 X2.31593 Y0.74713
G01 X2.31222 Y0.73578
G01 X2.30627 Y0.72544
G01 X2.29807 Y0.71621
G01 X2.28780 Y0.70866
G01 X2.27652 Y0.70364
G01 X2.26444 Y0.70107
G01 X2.25209 Y0.70107
G01 X2.24002 Y0.70364
G01 X2.22874 Y0.70866
G01 X2.21875 Y0.71592
G01 X2.21075 Y0.72477
G01 X2.20975 Y0.72634
G01 X2.17370 Y0.72634
G01 X2.05551 Y0.60815
G01 X2.05551 Y0.57681
G01 X2.10477 Y0.52756
G01 X2.10893 Y0.52249
G01 X2.11215 Y0.51634
G01 X2.11398 Y0.51004
G01 X2.11457 Y0.50390
G01 X2.11457 Y0.41933
G01 X2.12213 Y0.41177
G01 X2.29764 Y0.41177
G01 X2.30378 Y0.41119
G01 X2.31008 Y0.40936
G01 X2.31654 Y0.40590
G01 X2.32130 Y0.40197
G01 X2.32523 Y0.39721
G01 X2.32839 Y0.39146
G01 X2.33052 Y0.38445
G01 X2.33110 Y0.37831
G01 X2.33052 Y0.37216
G01 X2.32839 Y0.36515
G01 X2.32546 Y0.35972
G01 X2.32156 Y0.35493
G01 X2.31623 Y0.35048
G01 X2.31008 Y0.34726
G01 X2.30378 Y0.34543
G01 X2.29764 Y0.34484
G01 X2.10827 Y0.34484
G01 X2.10136 Y0.34558
G01 X2.09511 Y0.34756
G01 X2.08968 Y0.35048
G01 X2.08460 Y0.35464
G01 X2.05744 Y0.38181
G01 X2.05328 Y0.38688
G01 X2.05035 Y0.39232
G01 X2.04837 Y0.39857
G01 X2.04764 Y0.40547
G01 X2.04764 Y0.49004
G01 X2.00819 Y0.52949
G01 X1.99391 Y0.52949
G01 X1.99079 Y0.52856
G01 X1.98465 Y0.52793
G01 X1.98268 Y0.52805
G01 X1.98110 Y0.52791
G01 X1.93024 Y0.52791
G01 X1.92266 Y0.52352
G01 X1.91442 Y0.52085
G01 X1.90581 Y0.51994
G01 X1.90166 Y0.51996
G01 X1.89345 Y0.52085
G01 X1.88485 Y0.52371
G01 X1.87771 Y0.52785
G01 X1.87127 Y0.53365
G01 X1.86618 Y0.54066
G01 X1.86281 Y0.54819
G01 X1.86084 Y0.55746
G04 P0 ( dwell for no time -- G64 should not smooth over this point )
G00 Z0.07874 ( retract )

G00 X1.55551 Y0.87319 ( rapid move to begin. )
G01 F3.93701
( Mill infeed pass 1/1 )
G01 Z-0.00591
G04 P0 ( dwell for no time -- G64 should not smooth over this point )
G01 F7.87402
G01 X1.55551 Y0.87319
G01 X1.55610 Y0.87934
G01 X1.55793 Y0.88563
G01 X1.56115 Y0.89178
G01 X1.56505 Y0.89657
G01 X1.57007 Y0.90078
G01 X1.57582 Y0.90394
G01 X1.58283 Y0.90607
G01 X1.58898 Y0.90665
G01 X1.86567 Y0.90665
G01 X1.90000 Y0.94099
G01 X1.90000 Y0.97447
G01 X1.90030 Y0.97598
G01 X1.90066 Y0.97666
G01 X1.90175 Y0.97774
G01 X1.90317 Y0.97833
G01 X1.90394 Y0.97841
G01 X1.98268 Y0.97841
G01 X1.98345 Y0.97833
G01 X1.98486 Y0.97774
G01 X1.98595 Y0.97666
G01 X1.98631 Y0.97598
G01 X1.98661 Y0.97447
G01 X1.98661 Y0.89947
G01 X1.98654 Y0.89870
G01 X1.98595 Y0.89728
G01 X1.98486 Y0.89620
G01 X1.98345 Y0.89561
G01 X1.98268 Y0.89553
G01 X1.94919 Y0.89553
G01 X1.90290 Y0.84927
G01 X1.89812 Y0.84537
G01 X1.89268 Y0.84244
G01 X1.88643 Y0.84046
G01 X1.87953 Y0.83973
G01 X1.58898 Y0.83973
G01 X1.58283 Y0.84031
G01 X1.57653 Y0.84214
G01 X1.57038 Y0.84537
G01 X1.56531 Y0.84953
G01 X1.56115 Y0.85460
G01 X1.55793 Y0.86075
G01 X1.55610 Y0.86704
G01 X1.55551 Y0.87319
G01 X1.55357 Y0.87261
G01 X1.55414 Y0.87953
G01 X1.55605 Y0.88620
G01 X1.55649 Y0.88727
G01 X1.55986 Y0.89334
G01 X1.56435 Y0.89863
G01 X1.56979 Y0.90295
G01 X1.57489 Y0.90568
G01 X1.57596 Y0.90612
G01 X1.58206 Y0.90794
G01 X1.58840 Y0.90859
G01 X1.86485 Y0.90862
G01 X1.86491 Y0.90847
G01 X1.86485 Y0.90862
G01 X1.89803 Y0.94180
G01 X1.89818 Y0.94174
G01 X1.89803 Y0.94180
G01 X1.89803 Y0.97447
G01 X1.89815 Y0.97562
G01 X1.89848 Y0.97673
G01 X1.89903 Y0.97775
G01 X1.89976 Y0.97864
G01 X1.90066 Y0.97938
G01 X1.90168 Y0.97992
G01 X1.90278 Y0.98026
G01 X1.90394 Y0.98037
G01 X1.98268 Y0.98037
G01 X1.98383 Y0.98026
G01 X1.98494 Y0.97992
G01 X1.98596 Y0.97938
G01 X1.98685 Y0.97864
G01 X1.98759 Y0.97775
G01 X1.98813 Y0.97673
G01 X1.98847 Y0.97562
G01 X1.98858 Y0.97447
G01 X1.98858 Y0.89947
G01 X1.98847 Y0.89832
G01 X1.98813 Y0.89721
G01 X1.98759 Y0.89619
G01 X1.98685 Y0.89529
G01 X1.98596 Y0.89456
G01 X1.98494 Y0.89401
G01 X1.98383 Y0.89368
G01 X1.98268 Y0.89356
G01 X1.95001 Y0.89356
G01 X1.94995 Y0.89371
G01 X1.95001 Y0.89356
G01 X1.90415 Y0.84775
G01 X1.89872 Y0.84343
G01 X1.89361 Y0.84070
G01 X1.89254 Y0.84026
G01 X1.88644 Y0.83844
G01 X1.87953 Y0.83776
G01 X1.58898 Y0.83776
G01 X1.58264 Y0.83835
G01 X1.57596 Y0.84026
G01 X1.57489 Y0.84070
G01 X1.56883 Y0.84407
G01 X1.56353 Y0.84856
G01 X1.55922 Y0.85400
G01 X1.55649 Y0.85911
G01 X1.55605 Y0.86018
G01 X1.55422 Y0.86628
G01 X1.55357 Y0.87261
G04 P0 ( dwell for no time -- G64 should not smooth over this point )
G00 Z0.07874 ( retract )

G00 X1.37835 Y0.75980 ( rapid move to begin. )
G01 F3.93701
( Mill infeed pass 1/1 )
G01 Z-0.00591
G04 P0 ( dwell for no time -- G64 should not smooth over this point )
G01 F7.87402
G01 X1.37835 Y0.75980
G01 X1.37908 Y0.75290
G01 X1.38106 Y0.74665
G01 X1.38399 Y0.74121
G01 X1.38815 Y0.73614
G01 X1.42780 Y0.69651
G01 X1.43259 Y0.69261
G01 X1.43802 Y0.68968
G01 X1.44428 Y0.68771
G01 X1.45118 Y0.68697
G01 X1.83102 Y0.68697
G01 X1.86063 Y0.65736
G01 X1.86063 Y0.62388
G01 X1.86093 Y0.62237
G01 X1.86129 Y0.62169
G01 X1.86238 Y0.62060
G01 X1.86380 Y0.62002
G01 X1.86457 Y0.61994
G01 X1.94331 Y0.61994
G01 X1.94407 Y0.62002
G01 X1.94549 Y0.62060
G01 X1.94658 Y0.62169
G01 X1.94717 Y0.62311
G01 X1.94724 Y0.69888
G01 X1.94717 Y0.69965
G01 X1.94658 Y0.70107
G01 X1.94549 Y0.70215
G01 X1.94481 Y0.70252
G01 X1.94331 Y0.70282
G01 X1.90983 Y0.70282
G01 X1.86826 Y0.74436
G01 X1.86347 Y0.74826
G01 X1.85804 Y0.75119
G01 X1.85178 Y0.75316
G01 X1.84488 Y0.75390
G01 X1.46504 Y0.75390
G01 X1.44527 Y0.77367
G01 X1.44527 Y0.87319
G01 X1.44469 Y0.87934
G01 X1.44286 Y0.88563
G01 X1.43983 Y0.89145
G01 X1.43519 Y0.89711
G01 X1.43040 Y0.90101
G01 X1.42497 Y0.90394
G01 X1.41871 Y0.90592
G01 X1.41181 Y0.90665
G01 X1.40566 Y0.90607
G01 X1.39900 Y0.90411
G01 X1.39355 Y0.90121
G01 X1.38815 Y0.89685
G01 X1.38399 Y0.89178
G01 X1.38106 Y0.88635
G01 X1.37908 Y0.88009
G01 X1.37835 Y0.87319
G01 X1.37835 Y0.75980
G01 X1.37638 Y0.75980
G01 X1.37638 Y0.87319
G01 X1.37697 Y0.87953
G01 X1.37720 Y0.88066
G01 X1.37932 Y0.88727
G01 X1.38269 Y0.89334
G01 X1.38676 Y0.89824
G01 X1.39166 Y0.90231
G01 X1.39262 Y0.90295
G01 X1.39880 Y0.90612
G01 X1.40490 Y0.90794
G01 X1.41123 Y0.90859
G01 X1.41239 Y0.90859
G01 X1.41872 Y0.90794
G01 X1.42482 Y0.90612
G01 X1.42589 Y0.90568
G01 X1.43100 Y0.90295
G01 X1.43644 Y0.89863
G01 X1.43725 Y0.89782
G01 X1.44157 Y0.89238
G01 X1.44474 Y0.88620
G01 X1.44656 Y0.88010
G01 X1.44724 Y0.87319
G01 X1.44724 Y0.77448
G01 X1.44709 Y0.77442
G01 X1.44724 Y0.77448
G01 X1.46586 Y0.75587
G01 X1.46579 Y0.75572
G01 X1.46586 Y0.75587
G01 X1.84488 Y0.75587
G01 X1.85122 Y0.75527
G01 X1.85236 Y0.75504
G01 X1.85896 Y0.75292
G01 X1.86407 Y0.75019
G01 X1.86951 Y0.74588
G01 X1.91064 Y0.70478
G01 X1.91058 Y0.70463
G01 X1.91064 Y0.70478
G01 X1.94331 Y0.70478
G01 X1.94446 Y0.70467
G01 X1.94557 Y0.70433
G01 X1.94659 Y0.70379
G01 X1.94748 Y0.70305
G01 X1.94822 Y0.70216
G01 X1.94876 Y0.70114
G01 X1.94910 Y0.70003
G01 X1.94921 Y0.69888
G01 X1.94921 Y0.62388
G01 X1.94910 Y0.62273
G01 X1.94876 Y0.62162
G01 X1.94822 Y0.62060
G01 X1.94748 Y0.61970
G01 X1.94659 Y0.61897
G01 X1.94557 Y0.61842
G01 X1.94446 Y0.61809
G01 X1.94331 Y0.61797
G01 X1.86457 Y0.61797
G01 X1.86341 Y0.61809
G01 X1.86231 Y0.61842
G01 X1.86129 Y0.61897
G01 X1.86039 Y0.61970
G01 X1.85966 Y0.62060
G01 X1.85911 Y0.62162
G01 X1.85878 Y0.62273
G01 X1.85866 Y0.62388
G01 X1.85866 Y0.65654
G01 X1.85881 Y0.65661
G01 X1.85866 Y0.65654
G01 X1.83020 Y0.68500
G01 X1.83027 Y0.68515
G01 X1.83020 Y0.68500
G01 X1.45118 Y0.68500
G01 X1.44427 Y0.68568
G01 X1.43817 Y0.68750
G01 X1.43710 Y0.68795
G01 X1.43199 Y0.69068
G01 X1.42655 Y0.69499
G01 X1.38676 Y0.73475
G01 X1.38269 Y0.73965
G01 X1.37932 Y0.74572
G01 X1.37888 Y0.74679
G01 X1.37706 Y0.75289
G01 X1.37638 Y0.75980
G04 P0 ( dwell for no time -- G64 should not smooth over this point )
G00 Z0.07874 ( retract )

G00 X0.81732 Y0.62388 ( rapid move to begin. )
G01 F3.93701
( Mill infeed pass 1/1 )
G01 Z-0.00591
G04 P0 ( dwell for no time -- G64 should not smooth over this point )
G01 F7.87402
G01 X0.81732 Y0.62388
G01 X0.81762 Y0.62237
G01 X0.81848 Y0.62109
G01 X0.81975 Y0.62024
G01 X0.82126 Y0.61994
G01 X0.90000 Y0.61994
G01 X0.90077 Y0.62002
G01 X0.90219 Y0.62060
G01 X0.90327 Y0.62169
G01 X0.90364 Y0.62237
G01 X0.90394 Y0.62388
G01 X0.90394 Y0.65736
G01 X0.93355 Y0.68697
G01 X1.13622 Y0.68697
G01 X1.14237 Y0.68756
G01 X1.14866 Y0.68939
G01 X1.15481 Y0.69261
G01 X1.15988 Y0.69677
G01 X1.23862 Y0.77551
G01 X1.24278 Y0.78058
G01 X1.24601 Y0.78673
G01 X1.24784 Y0.79303
G01 X1.24842 Y0.79917
G01 X1.24842 Y0.87319
G01 X1.24784 Y0.87934
G01 X1.24588 Y0.88600
G01 X1.24255 Y0.89209
G01 X1.23862 Y0.89685
G01 X1.23386 Y0.90078
G01 X1.22740 Y0.90424
G01 X1.22111 Y0.90607
G01 X1.21496 Y0.90665
G01 X1.20881 Y0.90607
G01 X1.20252 Y0.90424
G01 X1.19606 Y0.90078
G01 X1.19130 Y0.89685
G01 X1.18714 Y0.89178
G01 X1.18391 Y0.88563
G01 X1.18208 Y0.87934
G01 X1.18151 Y0.87358
G01 X1.18150 Y0.81304
G01 X1.12236 Y0.75390
G01 X0.91968 Y0.75390
G01 X0.91316 Y0.75326
G01 X0.90688 Y0.75135
G01 X0.90142 Y0.74846
G01 X0.89602 Y0.74410
G01 X0.85474 Y0.70282
G01 X0.82126 Y0.70282
G01 X0.81975 Y0.70252
G01 X0.81848 Y0.70166
G01 X0.81799 Y0.70107
G01 X0.81762 Y0.70038
G01 X0.81732 Y0.69888
G01 X0.81732 Y0.62388
G01 X0.81535 Y0.62388
G01 X0.81535 Y0.69888
G01 X0.81547 Y0.70003
G01 X0.81580 Y0.70114
G01 X0.81635 Y0.70216
G01 X0.81708 Y0.70305
G01 X0.81798 Y0.70379
G01 X0.81900 Y0.70433
G01 X0.82011 Y0.70467
G01 X0.82126 Y0.70478
G01 X0.85392 Y0.70478
G01 X0.85399 Y0.70463
G01 X0.85392 Y0.70478
G01 X0.89506 Y0.74588
G01 X0.90050 Y0.75019
G01 X0.90560 Y0.75292
G01 X0.90667 Y0.75336
G01 X0.91277 Y0.75519
G01 X0.91968 Y0.75587
G01 X1.12154 Y0.75587
G01 X1.12161 Y0.75572
G01 X1.12154 Y0.75587
G01 X1.17953 Y0.81385
G01 X1.17968 Y0.81379
G01 X1.17953 Y0.81385
G01 X1.17953 Y0.87319
G01 X1.18012 Y0.87953
G01 X1.18203 Y0.88620
G01 X1.18247 Y0.88727
G01 X1.18520 Y0.89238
G01 X1.18952 Y0.89782
G01 X1.19033 Y0.89863
G01 X1.19577 Y0.90295
G01 X1.20195 Y0.90612
G01 X1.20862 Y0.90803
G01 X1.21438 Y0.90859
G01 X1.22130 Y0.90803
G01 X1.22797 Y0.90612
G01 X1.23415 Y0.90295
G01 X1.23511 Y0.90231
G01 X1.24001 Y0.89824
G01 X1.24408 Y0.89334
G01 X1.24472 Y0.89238
G01 X1.24745 Y0.88727
G01 X1.24957 Y0.88066
G01 X1.24980 Y0.87953
G01 X1.25039 Y0.87319
G01 X1.25039 Y0.79917
G01 X1.24971 Y0.79226
G01 X1.24789 Y0.78616
G01 X1.24745 Y0.78509
G01 X1.24408 Y0.77902
G01 X1.24001 Y0.77412
G01 X1.16127 Y0.69538
G01 X1.15637 Y0.69132
G01 X1.15541 Y0.69068
G01 X1.15030 Y0.68795
G01 X1.14369 Y0.68582
G01 X1.14256 Y0.68560
G01 X1.13622 Y0.68500
G01 X0.93436 Y0.68500
G01 X0.93430 Y0.68515
G01 X0.93436 Y0.68500
G01 X0.90590 Y0.65655
G01 X0.90575 Y0.65661
G01 X0.90590 Y0.65655
G01 X0.90590 Y0.62388
G01 X0.90579 Y0.62273
G01 X0.90546 Y0.62162
G01 X0.90491 Y0.62060
G01 X0.90418 Y0.61970
G01 X0.90328 Y0.61897
G01 X0.90226 Y0.61842
G01 X0.90115 Y0.61809
G01 X0.90000 Y0.61797
G01 X0.82126 Y0.61797
G01 X0.82011 Y0.61809
G01 X0.81900 Y0.61842
G01 X0.81798 Y0.61897
G01 X0.81708 Y0.61970
G01 X0.81635 Y0.62060
G01 X0.81580 Y0.62162
G01 X0.81547 Y0.62273
G01 X0.81535 Y0.62388
G04 P0 ( dwell for no time -- G64 should not smooth over this point )
G00 Z0.07874 ( retract )

G00 X0.00787 Y0.12240 ( rapid move to begin. )
G01 F3.93701
( Mill infeed pass 1/1 )
G01 Z-0.00591
G04 P0 ( dwell for no time -- G64 should not smooth over this point )
G01 F7.87402
G01 X0.00787 Y0.12240
G01 X0.00846 Y0.11626
G01 X0.01029 Y0.10996
G01 X0.01351 Y0.10381
G01 X0.01742 Y0.09903
G01 X0.09874 Y0.01768
G01 X0.10414 Y0.01332
G01 X0.10959 Y0.01042
G01 X0.11587 Y0.00852
G01 X0.12240 Y0.00787
G01 X2.63228 Y0.00787
G01 X2.63721 Y0.00825
G01 X2.64233 Y0.00943
G01 X2.64719 Y0.01139
G01 X2.65170 Y0.01409
G01 X2.65595 Y0.01768
G01 X2.85280 Y0.21453
G01 X2.85673 Y0.21929
G01 X2.85989 Y0.22503
G01 X2.86201 Y0.23204
G01 X2.86260 Y0.23819
G01 X2.86260 Y2.03933
G01 X2.86201 Y2.04548
G01 X2.85989 Y2.05249
G01 X2.85716 Y2.05759
G01 X2.85306 Y2.06271
G01 X2.81343 Y2.10236
G01 X2.80918 Y2.10595
G01 X2.80468 Y2.10865
G01 X2.79981 Y2.11061
G01 X2.79469 Y2.11179
G01 X2.78976 Y2.11217
G01 X2.35079 Y2.11217
G01 X2.35079 Y2.59051
G01 X2.35005 Y2.59742
G01 X2.34824 Y2.60332
G01 X2.34535 Y2.60877
G01 X2.34099 Y2.61418
G01 X2.20319 Y2.75197
G01 X2.19812 Y2.75613
G01 X2.19197 Y2.75936
G01 X2.18567 Y2.76119
G01 X2.17953 Y2.76177
G01 X1.23465 Y2.76177
G01 X1.22850 Y2.76119
G01 X1.22149 Y2.75906
G01 X1.21605 Y2.75613
G01 X1.21127 Y2.75223
G01 X1.18789 Y2.72885
G01 X1.18379 Y2.72373
G01 X1.18089 Y2.71828
G01 X1.17893 Y2.71162
G01 X1.17835 Y2.70547
G01 X1.17835 Y2.65678
G01 X1.17692 Y2.65427
G01 X1.17446 Y2.64668
G01 X1.17364 Y2.63915
G01 X1.17362 Y2.62102
G01 X1.17439 Y2.61349
G01 X1.17692 Y2.60549
G01 X1.18117 Y2.59826
G01 X1.18626 Y2.59264
G01 X1.19237 Y2.58818
G01 X1.20001 Y2.58470
G01 X1.20823 Y2.58302
G01 X1.21580 Y2.58304
G01 X1.22321 Y2.58460
G01 X1.23091 Y2.58795
G01 X1.23766 Y2.59294
G01 X1.24271 Y2.59858
G01 X1.24651 Y2.60512
G01 X1.24923 Y2.61349
G01 X1.25000 Y2.62102
G01 X1.24998 Y2.63915
G01 X1.24917 Y2.64668
G01 X1.24670 Y2.65427
G01 X1.24527 Y2.65678
G01 X1.24527 Y2.69161
G01 X1.24851 Y2.69484
G01 X2.16567 Y2.69484
G01 X2.28386 Y2.57665
G01 X2.28386 Y2.07870
G01 X2.28450 Y2.07217
G01 X2.28640 Y2.06590
G01 X2.28930 Y2.06044
G01 X2.29366 Y2.05504
G01 X2.29873 Y2.05088
G01 X2.30417 Y2.04795
G01 X2.31042 Y2.04597
G01 X2.31732 Y2.04524
G01 X2.77590 Y2.04524
G01 X2.79567 Y2.02547
G01 X2.79567 Y0.99012
G01 X2.30679 Y0.99012
G01 X2.30578 Y0.99169
G01 X2.29778 Y1.00054
G01 X2.28743 Y1.00798
G01 X2.27652 Y1.01282
G01 X2.26485 Y1.01532
G01 X2.25209 Y1.01539
G01 X2.24002 Y1.01282
G01 X2.22911 Y1.00798
G01 X2.21846 Y1.00025
G01 X2.21049 Y0.99137
G01 X2.20432 Y0.98067
G01 X2.20050 Y0.96893
G01 X2.19923 Y0.95707
G01 X2.20061 Y0.94398
G01 X2.20432 Y0.93263
G01 X2.21075 Y0.92162
G01 X2.21875 Y0.91277
G01 X2.22874 Y0.90551
G01 X2.24002 Y0.90049
G01 X2.25209 Y0.89792
G01 X2.26485 Y0.89799
G01 X2.27652 Y0.90049
G01 X2.28743 Y0.90532
G01 X2.29778 Y0.91277
G01 X2.30578 Y0.92162
G01 X2.30679 Y0.92319
G01 X2.79567 Y0.92319
G01 X2.79567 Y0.69484
G01 X2.35669 Y0.69484
G01 X2.35115 Y0.69437
G01 X2.34606 Y0.69310
G01 X2.34123 Y0.69105
G01 X2.33728 Y0.68862
G01 X2.33326 Y0.68525
G01 X2.26877 Y0.62079
G01 X2.26444 Y0.62168
G01 X2.25209 Y0.62168
G01 X2.24002 Y0.61912
G01 X2.22874 Y0.61410
G01 X2.21907 Y0.60710
G01 X2.21027 Y0.59732
G01 X2.20432 Y0.58697
G01 X2.20050 Y0.57523
G01 X2.19921 Y0.56295
G01 X2.20061 Y0.55028
G01 X2.20432 Y0.53893
G01 X2.21027 Y0.52859
G01 X2.21846 Y0.51936
G01 X2.22874 Y0.51181
G01 X2.24002 Y0.50679
G01 X2.25209 Y0.50422
G01 X2.26444 Y0.50422
G01 X2.27652 Y0.50679
G01 X2.28780 Y0.51181
G01 X2.29778 Y0.51907
G01 X2.30578 Y0.52792
G01 X2.31222 Y0.53893
G01 X2.31603 Y0.55067
G01 X2.31732 Y0.56295
G01 X2.31623 Y0.57359
G01 X2.37055 Y0.62791
G01 X2.79567 Y0.62791
G01 X2.79567 Y0.25205
G01 X2.61842 Y0.07480
G01 X2.33110 Y0.07480
G01 X2.33108 Y0.07869
G01 X2.33052 Y0.08445
G01 X2.32855 Y0.09111
G01 X2.32566 Y0.09657
G01 X2.32130 Y0.10197
G01 X2.31623 Y0.10613
G01 X2.31079 Y0.10906
G01 X2.30454 Y0.11104
G01 X2.29764 Y0.11177
G01 X2.29149 Y0.11119
G01 X2.28483 Y0.10923
G01 X2.27938 Y0.10633
G01 X2.27397 Y0.10197
G01 X2.26981 Y0.09690
G01 X2.26659 Y0.09075
G01 X2.26476 Y0.08445
G01 X2.26419 Y0.07869
G01 X2.26417 Y0.07480
G01 X1.33701 Y0.07480
G01 X1.33701 Y0.23984
G01 X1.34306 Y0.24426
G01 X1.35106 Y0.25312
G01 X1.35731 Y0.26376
G01 X1.36131 Y0.27587
G01 X1.36258 Y0.28856
G01 X1.36131 Y0.30043
G01 X1.35749 Y0.31217
G01 X1.35132 Y0.32286
G01 X1.34335 Y0.33174
G01 X1.33270 Y0.33948
G01 X1.32179 Y0.34431
G01 X1.30930 Y0.34690
G01 X1.29737 Y0.34688
G01 X1.28529 Y0.34431
G01 X1.27402 Y0.33929
G01 X1.26435 Y0.33230
G01 X1.25577 Y0.32286
G01 X1.24978 Y0.31254
G01 X1.24571 Y0.30002
G01 X1.24449 Y0.28815
G01 X1.24571 Y0.27628
G01 X1.24959 Y0.26413
G01 X1.25603 Y0.25312
G01 X1.26403 Y0.24426
G01 X1.27008 Y0.23984
G01 X1.27008 Y0.07480
G01 X0.59882 Y0.07480
G01 X0.59882 Y0.09799
G01 X0.59823 Y0.10414
G01 X0.59640 Y0.11044
G01 X0.59338 Y0.11625
G01 X0.58902 Y0.12166
G01 X0.58361 Y0.12602
G01 X0.57780 Y0.12904
G01 X0.57188 Y0.13081
G01 X0.56574 Y0.13144
G01 X0.55883 Y0.13081
G01 X0.55220 Y0.12875
G01 X0.54645 Y0.12559
G01 X0.54198 Y0.12192
G01 X0.53733 Y0.11625
G01 X0.53431 Y0.11044
G01 X0.53248 Y0.10414
G01 X0.53189 Y0.09799
G01 X0.53181 Y0.07480
G01 X0.13626 Y0.07480
G01 X0.07480 Y0.13626
G01 X0.07480 Y0.82468
G01 X0.45778 Y0.82476
G01 X0.45878 Y0.82320
G01 X0.46678 Y0.81434
G01 X0.47714 Y0.80690
G01 X0.48805 Y0.80206
G01 X0.49972 Y0.79956
G01 X0.51247 Y0.79950
G01 X0.52455 Y0.80206
G01 X0.53583 Y0.80709
G01 X0.54581 Y0.81434
G01 X0.55382 Y0.82320
G01 X0.56040 Y0.83459
G01 X0.56406 Y0.84595
G01 X0.56533 Y0.85864
G01 X0.56406 Y0.87051
G01 X0.56025 Y0.88225
G01 X0.55408 Y0.89294
G01 X0.54611 Y0.90182
G01 X0.53546 Y0.90956
G01 X0.52455 Y0.91439
G01 X0.51247 Y0.91696
G01 X0.49972 Y0.91690
G01 X0.48805 Y0.91439
G01 X0.47714 Y0.90956
G01 X0.46678 Y0.90212
G01 X0.45878 Y0.89326
G01 X0.45778 Y0.89169
G01 X0.07480 Y0.89169
G01 X0.07480 Y1.06838
G01 X0.22488 Y1.21847
G01 X0.45778 Y1.21847
G01 X0.45878 Y1.21690
G01 X0.46678 Y1.20804
G01 X0.47677 Y1.20079
G01 X0.48805 Y1.19576
G01 X0.50054 Y1.19318
G01 X0.51247 Y1.19320
G01 X0.52455 Y1.19576
G01 X0.53583 Y1.20079
G01 X0.54581 Y1.20804
G01 X0.55408 Y1.21722
G01 X0.56025 Y1.22791
G01 X0.56406 Y1.23965
G01 X0.56535 Y1.25193
G01 X0.56406 Y1.26421
G01 X0.56006 Y1.27632
G01 X0.55382 Y1.28696
G01 X0.54581 Y1.29582
G01 X0.53976 Y1.30024
G01 X0.53976 Y1.38807
G01 X0.61618 Y1.46449
G01 X0.62054 Y1.46989
G01 X0.62344 Y1.47534
G01 X0.62534 Y1.48162
G01 X0.62596 Y1.48776
G01 X0.62534 Y1.49468
G01 X0.62327 Y1.50131
G01 X0.62011 Y1.50705
G01 X0.61644 Y1.51153
G01 X0.61142 Y1.51574
G01 X0.60567 Y1.51890
G01 X0.59905 Y1.52097
G01 X0.59291 Y1.52160
G01 X0.58637 Y1.52103
G01 X0.58008 Y1.51920
G01 X0.57393 Y1.51597
G01 X0.56914 Y1.51207
G01 X0.48264 Y1.42559
G01 X0.47942 Y1.42184
G01 X0.47663 Y1.41739
G01 X0.47439 Y1.41197
G01 X0.47321 Y1.40686
G01 X0.47283 Y1.40193
G01 X0.47283 Y1.30024
G01 X0.46678 Y1.29582
G01 X0.45878 Y1.28696
G01 X0.45778 Y1.28539
G01 X0.21102 Y1.28539
G01 X0.20449 Y1.28475
G01 X0.19822 Y1.28285
G01 X0.19276 Y1.27995
G01 X0.18736 Y1.27559
G01 X0.01767 Y1.10591
G01 X0.01351 Y1.10084
G01 X0.01058 Y1.09540
G01 X0.00861 Y1.08915
G01 X0.00787 Y1.08224
G01 X0.00787 Y0.12240
G01 X0.00591 Y0.12240
G01 X0.00591 Y1.08224
G01 X0.00650 Y1.08858
G01 X0.00841 Y1.09526
G01 X0.00885 Y1.09633
G01 X0.01222 Y1.10240
G01 X0.01628 Y1.10730
G01 X0.18597 Y1.27698
G01 X0.19087 Y1.28105
G01 X0.19694 Y1.28442
G01 X0.19801 Y1.28486
G01 X0.20411 Y1.28668
G01 X0.21102 Y1.28736
G01 X0.45665 Y1.28736
G01 X0.45673 Y1.28719
G01 X0.45665 Y1.28736
G01 X0.45732 Y1.28828
G01 X0.46547 Y1.29728
G01 X0.47087 Y1.30124
G01 X0.47108 Y1.30113
G01 X0.47087 Y1.30124
G01 X0.47088 Y1.40239
G01 X0.47139 Y1.40793
G01 X0.47276 Y1.41331
G01 X0.47495 Y1.41842
G01 X0.47792 Y1.42312
G01 X0.48124 Y1.42698
G01 X0.56746 Y1.51320
G01 X0.57237 Y1.51727
G01 X0.57333 Y1.51791
G01 X0.57951 Y1.52108
G01 X0.58561 Y1.52290
G01 X0.59194 Y1.52355
G01 X0.59310 Y1.52355
G01 X0.59943 Y1.52290
G01 X0.60553 Y1.52108
G01 X0.60660 Y1.52064
G01 X0.61220 Y1.51761
G01 X0.61714 Y1.51359
G01 X0.62198 Y1.50783
G01 X0.62501 Y1.50223
G01 X0.62545 Y1.50116
G01 X0.62727 Y1.49506
G01 X0.62792 Y1.48873
G01 X0.62736 Y1.48181
G01 X0.62713 Y1.48068
G01 X0.62525 Y1.47459
G01 X0.62228 Y1.46896
G01 X0.62163 Y1.46800
G01 X0.61757 Y1.46310
G01 X0.54173 Y1.38725
G01 X0.54158 Y1.38732
G01 X0.54173 Y1.38725
G01 X0.54173 Y1.30124
G01 X0.54152 Y1.30113
G01 X0.54173 Y1.30124
G01 X0.54713 Y1.29728
G01 X0.55528 Y1.28828
G01 X0.55600 Y1.28728
G01 X0.56177 Y1.27730
G01 X0.56227 Y1.27617
G01 X0.56599 Y1.26462
G01 X0.56732 Y1.25193
G01 X0.56599 Y1.23924
G01 X0.56205 Y1.22711
G01 X0.55567 Y1.21606
G01 X0.54757 Y1.20702
G01 X0.54665 Y1.20619
G01 X0.53681 Y1.19908
G01 X0.52516 Y1.19389
G01 X0.51268 Y1.19124
G01 X0.50054 Y1.19121
G01 X0.49931 Y1.19134
G01 X0.48744 Y1.19389
G01 X0.47579 Y1.19908
G01 X0.46547 Y1.20658
G01 X0.45732 Y1.21558
G01 X0.45665 Y1.21650
G01 X0.45672 Y1.21667
G01 X0.45665 Y1.21650
G01 X0.22570 Y1.21650
G01 X0.22564 Y1.21665
G01 X0.22570 Y1.21650
G01 X0.07677 Y1.06757
G01 X0.07662 Y1.06763
G01 X0.07677 Y1.06757
G01 X0.07677 Y0.89366
G01 X0.07619 Y0.89308
G01 X0.07677 Y0.89366
G01 X0.45665 Y0.89366
G01 X0.45673 Y0.89349
G01 X0.45665 Y0.89366
G01 X0.45732 Y0.89458
G01 X0.46547 Y0.90358
G01 X0.47527 Y0.91074
G01 X0.47634 Y0.91136
G01 X0.48744 Y0.91626
G01 X0.49931 Y0.91882
G01 X0.50054 Y0.91895
G01 X0.51268 Y0.91892
G01 X0.52516 Y0.91626
G01 X0.53626 Y0.91136
G01 X0.53733 Y0.91074
G01 X0.54665 Y0.90397
G01 X0.54757 Y0.90314
G01 X0.55567 Y0.89410
G01 X0.56205 Y0.88305
G01 X0.56599 Y0.87092
G01 X0.56729 Y0.85885
G01 X0.56729 Y0.85761
G01 X0.56609 Y0.84615
G01 X0.56583 Y0.84494
G01 X0.56205 Y0.83341
G01 X0.55600 Y0.82288
G01 X0.55528 Y0.82188
G01 X0.54713 Y0.81288
G01 X0.53681 Y0.80538
G01 X0.52516 Y0.80019
G01 X0.51268 Y0.79754
G01 X0.50054 Y0.79751
G01 X0.49931 Y0.79764
G01 X0.48744 Y0.80019
G01 X0.47634 Y0.80510
G01 X0.47527 Y0.80572
G01 X0.46547 Y0.81288
G01 X0.45732 Y0.82188
G01 X0.45665 Y0.82280
G01 X0.45672 Y0.82297
G01 X0.45665 Y0.82280
G01 X0.07677 Y0.82280
G01 X0.07619 Y0.82337
G01 X0.07677 Y0.82280
G01 X0.07677 Y0.13708
G01 X0.07662 Y0.13702
G01 X0.07677 Y0.13708
G01 X0.13708 Y0.07677
G01 X0.13702 Y0.07662
G01 X0.13708 Y0.07677
G01 X0.52992 Y0.07677
G01 X0.53050 Y0.07619
G01 X0.52992 Y0.07677
G01 X0.52992 Y0.09799
G01 X0.53052 Y0.10433
G01 X0.53242 Y0.11101
G01 X0.53560 Y0.11718
G01 X0.53991 Y0.12262
G01 X0.54073 Y0.12344
G01 X0.54617 Y0.12775
G01 X0.55127 Y0.13048
G01 X0.55234 Y0.13092
G01 X0.55844 Y0.13274
G01 X0.56478 Y0.13340
G01 X0.56593 Y0.13340
G01 X0.57227 Y0.13274
G01 X0.57837 Y0.13092
G01 X0.58454 Y0.12775
G01 X0.58550 Y0.12711
G01 X0.59041 Y0.12305
G01 X0.59447 Y0.11814
G01 X0.59511 Y0.11718
G01 X0.59828 Y0.11101
G01 X0.60019 Y0.10433
G01 X0.60079 Y0.09799
G01 X0.60079 Y0.07677
G01 X0.60021 Y0.07619
G01 X0.60079 Y0.07677
G01 X1.26811 Y0.07677
G01 X1.26869 Y0.07619
G01 X1.26811 Y0.07677
G01 X1.26811 Y0.23884
G01 X1.26832 Y0.23895
G01 X1.26811 Y0.23884
G01 X1.26271 Y0.24280
G01 X1.25456 Y0.25180
G01 X1.25384 Y0.25280
G01 X1.24780 Y0.26333
G01 X1.24401 Y0.27487
G01 X1.24376 Y0.27607
G01 X1.24252 Y0.28815
G01 X1.24376 Y0.30023
G01 X1.24401 Y0.30143
G01 X1.24757 Y0.31239
G01 X1.24808 Y0.31352
G01 X1.25417 Y0.32402
G01 X1.26271 Y0.33350
G01 X1.27303 Y0.34100
G01 X1.28411 Y0.34596
G01 X1.28528 Y0.34635
G01 X1.29655 Y0.34874
G01 X1.29778 Y0.34887
G01 X1.30992 Y0.34884
G01 X1.32240 Y0.34619
G01 X1.33405 Y0.34100
G01 X1.34390 Y0.33389
G01 X1.34481 Y0.33306
G01 X1.35252 Y0.32450
G01 X1.35325 Y0.32350
G01 X1.35929 Y0.31297
G01 X1.36307 Y0.30143
G01 X1.36333 Y0.30023
G01 X1.36457 Y0.28815
G01 X1.36333 Y0.27607
G01 X1.36307 Y0.27487
G01 X1.35929 Y0.26333
G01 X1.35325 Y0.25280
G01 X1.35252 Y0.25180
G01 X1.34438 Y0.24280
G01 X1.33898 Y0.23884
G01 X1.33876 Y0.23895
G01 X1.33898 Y0.23884
G01 X1.33898 Y0.07677
G01 X1.33840 Y0.07619
G01 X1.33898 Y0.07677
G01 X2.26220 Y0.07677
G01 X2.26269 Y0.07625
G01 X2.26220 Y0.07677
G01 X2.26220 Y0.07831
G01 X2.26280 Y0.08465
G01 X2.26471 Y0.09132
G01 X2.26788 Y0.09750
G01 X2.26852 Y0.09846
G01 X2.27258 Y0.10336
G01 X2.27749 Y0.10742
G01 X2.28355 Y0.11080
G01 X2.28462 Y0.11124
G01 X2.29072 Y0.11306
G01 X2.29706 Y0.11371
G01 X2.29822 Y0.11371
G01 X2.30455 Y0.11306
G01 X2.31065 Y0.11124
G01 X2.31683 Y0.10807
G01 X2.31779 Y0.10742
G01 X2.32269 Y0.10336
G01 X2.32675 Y0.09846
G01 X2.32740 Y0.09750
G01 X2.33057 Y0.09132
G01 X2.33247 Y0.08465
G01 X2.33307 Y0.07831
G01 X2.33307 Y0.07677
G01 X2.33259 Y0.07625
G01 X2.33307 Y0.07677
G01 X2.61761 Y0.07677
G01 X2.61767 Y0.07662
G01 X2.61761 Y0.07677
G01 X2.79370 Y0.25287
G01 X2.79385 Y0.25280
G01 X2.79370 Y0.25287
G01 X2.79370 Y0.62595
G01 X2.79428 Y0.62652
G01 X2.79370 Y0.62595
G01 X2.37137 Y0.62595
G01 X2.37131 Y0.62610
G01 X2.37137 Y0.62595
G01 X2.31828 Y0.57286
G01 X2.31808 Y0.57293
G01 X2.31828 Y0.57286
G01 X2.31929 Y0.56295
G01 X2.31796 Y0.55027
G01 X2.31401 Y0.53813
G01 X2.30797 Y0.52760
G01 X2.30725 Y0.52660
G01 X2.29910 Y0.51760
G01 X2.28878 Y0.51011
G01 X2.27712 Y0.50492
G01 X2.26465 Y0.50226
G01 X2.25189 Y0.50226
G01 X2.24001 Y0.50476
G01 X2.23883 Y0.50514
G01 X2.22831 Y0.50983
G01 X2.22724 Y0.51044
G01 X2.21744 Y0.51760
G01 X2.20929 Y0.52660
G01 X2.20856 Y0.52760
G01 X2.20252 Y0.53813
G01 X2.19858 Y0.55027
G01 X2.19724 Y0.56295
G01 X2.19858 Y0.57564
G01 X2.20252 Y0.58777
G01 X2.20856 Y0.59830
G01 X2.20929 Y0.59930
G01 X2.21700 Y0.60786
G01 X2.21792 Y0.60869
G01 X2.22776 Y0.61580
G01 X2.23941 Y0.62099
G01 X2.25189 Y0.62364
G01 X2.26465 Y0.62364
G01 X2.26814 Y0.62293
G01 X2.26821 Y0.62269
G01 X2.26814 Y0.62293
G01 X2.33198 Y0.68675
G01 X2.33625 Y0.69030
G01 X2.34103 Y0.69314
G01 X2.34531 Y0.69492
G01 X2.35069 Y0.69628
G01 X2.35669 Y0.69681
G01 X2.79370 Y0.69681
G01 X2.79428 Y0.69623
G01 X2.79370 Y0.69681
G01 X2.79370 Y0.92122
G01 X2.79428 Y0.92180
G01 X2.79370 Y0.92122
G01 X2.30792 Y0.92122
G01 X2.30784 Y0.92139
G01 X2.30792 Y0.92122
G01 X2.30725 Y0.92031
G01 X2.29910 Y0.91130
G01 X2.28930 Y0.90414
G01 X2.28823 Y0.90353
G01 X2.27712 Y0.89862
G01 X2.26526 Y0.89606
G01 X2.26403 Y0.89593
G01 X2.25189 Y0.89597
G01 X2.23941 Y0.89862
G01 X2.22776 Y0.90381
G01 X2.21744 Y0.91130
G01 X2.20929 Y0.92031
G01 X2.20856 Y0.92130
G01 X2.20280 Y0.93128
G01 X2.20230 Y0.93241
G01 X2.19858 Y0.94397
G01 X2.19728 Y0.95604
G01 X2.19728 Y0.95727
G01 X2.19858 Y0.96934
G01 X2.20252 Y0.98147
G01 X2.20890 Y0.99252
G01 X2.21700 Y1.00157
G01 X2.21792 Y1.00239
G01 X2.22724 Y1.00916
G01 X2.22831 Y1.00978
G01 X2.23941 Y1.01469
G01 X2.25189 Y1.01734
G01 X2.26403 Y1.01737
G01 X2.26526 Y1.01725
G01 X2.27712 Y1.01469
G01 X2.28823 Y1.00978
G01 X2.28930 Y1.00916
G01 X2.29910 Y1.00200
G01 X2.30725 Y0.99300
G01 X2.30792 Y0.99209
G01 X2.30784 Y0.99191
G01 X2.30792 Y0.99209
G01 X2.79370 Y0.99209
G01 X2.79428 Y0.99151
G01 X2.79370 Y0.99209
G01 X2.79370 Y2.02465
G01 X2.79385 Y2.02472
G01 X2.79370 Y2.02465
G01 X2.77509 Y2.04327
G01 X2.77515 Y2.04342
G01 X2.77509 Y2.04327
G01 X2.31732 Y2.04327
G01 X2.31041 Y2.04395
G01 X2.30431 Y2.04577
G01 X2.30324 Y2.04621
G01 X2.29717 Y2.04959
G01 X2.29227 Y2.05365
G01 X2.28821 Y2.05855
G01 X2.28483 Y2.06462
G01 X2.28439 Y2.06569
G01 X2.28257 Y2.07179
G01 X2.28189 Y2.07870
G01 X2.28189 Y2.57584
G01 X2.28204 Y2.57590
G01 X2.28189 Y2.57584
G01 X2.16485 Y2.69288
G01 X2.16491 Y2.69303
G01 X2.16485 Y2.69288
G01 X1.24932 Y2.69288
G01 X1.24926 Y2.69303
G01 X1.24932 Y2.69288
G01 X1.24724 Y2.69080
G01 X1.24709 Y2.69086
G01 X1.24724 Y2.69080
G01 X1.24719 Y2.65730
G01 X1.24822 Y2.65562
G01 X1.24872 Y2.65450
G01 X1.25093 Y2.64769
G01 X1.25119 Y2.64648
G01 X1.25197 Y2.63874
G01 X1.25197 Y2.62102
G01 X1.25109 Y2.61267
G01 X1.24872 Y2.60527
G01 X1.24822 Y2.60414
G01 X1.24463 Y2.59794
G01 X1.24391 Y2.59694
G01 X1.23868 Y2.59118
G01 X1.23189 Y2.58625
G01 X1.22480 Y2.58305
G01 X1.22362 Y2.58267
G01 X1.21601 Y2.58109
G01 X1.20823 Y2.58105
G01 X1.20700 Y2.58118
G01 X1.20000 Y2.58267
G01 X1.19882 Y2.58305
G01 X1.19173 Y2.58625
G01 X1.18494 Y2.59118
G01 X1.17971 Y2.59694
G01 X1.17899 Y2.59794
G01 X1.17513 Y2.60469
G01 X1.17253 Y2.61267
G01 X1.17165 Y2.62102
G01 X1.17169 Y2.63936
G01 X1.17253 Y2.64709
G01 X1.17490 Y2.65450
G01 X1.17641 Y2.65730
G01 X1.17638 Y2.70547
G01 X1.17706 Y2.71239
G01 X1.17907 Y2.71903
G01 X1.18205 Y2.72466
G01 X1.18269 Y2.72562
G01 X1.18676 Y2.73053
G01 X1.20959 Y2.75336
G01 X1.21449 Y2.75742
G01 X1.22056 Y2.76080
G01 X1.22163 Y2.76124
G01 X1.22773 Y2.76306
G01 X1.23465 Y2.76374
G01 X2.17953 Y2.76374
G01 X2.18644 Y2.76306
G01 X2.19254 Y2.76124
G01 X2.19361 Y2.76080
G01 X2.19921 Y2.75777
G01 X2.20458 Y2.75336
G01 X2.34238 Y2.61557
G01 X2.34644 Y2.61066
G01 X2.34981 Y2.60460
G01 X2.35025 Y2.60353
G01 X2.35207 Y2.59743
G01 X2.35275 Y2.59051
G01 X2.35275 Y2.11413
G01 X2.35218 Y2.11356
G01 X2.35275 Y2.11413
G01 X2.78976 Y2.11413
G01 X2.79485 Y2.11375
G01 X2.80027 Y2.11253
G01 X2.80543 Y2.11047
G01 X2.81020 Y2.10762
G01 X2.81448 Y2.10407
G01 X2.85419 Y2.06439
G01 X2.85825 Y2.05948
G01 X2.86162 Y2.05341
G01 X2.86206 Y2.05234
G01 X2.86397 Y2.04567
G01 X2.86457 Y2.03933
G01 X2.86457 Y0.23819
G01 X2.86397 Y0.23185
G01 X2.86206 Y0.22518
G01 X2.86162 Y0.22411
G01 X2.85825 Y0.21804
G01 X2.85419 Y0.21314
G01 X2.65734 Y0.01628
G01 X2.65272 Y0.01242
G01 X2.64795 Y0.00957
G01 X2.64279 Y0.00752
G01 X2.63737 Y0.00629
G01 X2.63228 Y0.00591
G01 X0.12240 Y0.00591
G01 X0.11549 Y0.00659
G01 X0.10939 Y0.00841
G01 X0.10321 Y0.01158
G01 X0.09778 Y0.01590
G01 X0.01628 Y0.09735
G01 X0.01222 Y0.10225
G01 X0.00885 Y0.10832
G01 X0.00841 Y0.10939
G01 X0.00659 Y0.11549
G01 X0.00591 Y0.12240
G04 P0 ( dwell for no time -- G64 should not smooth over this point )
G00 Z0.07874 ( retract )

G00 X0.44528 Y0.61610 ( rapid move to begin. )
G01 F3.93701
( Mill infeed pass 1/1 )
G01 Z-0.00591
G04 P0 ( dwell for no time -- G64 should not smooth over this point )
G01 F7.87402
G01 X0.44528 Y0.61610
G01 X0.44562 Y0.61283
G01 X0.44642 Y0.61027
G01 X0.44692 Y0.60915
G01 X0.44867 Y0.60637
G01 X0.45049 Y0.60440
G01 X0.45315 Y0.60247
G01 X0.45616 Y0.60113
G01 X0.45877 Y0.60054
G01 X0.46103 Y0.60036
G01 X0.55322 Y0.60044
G01 X0.55644 Y0.60113
G01 X0.55997 Y0.60280
G01 X0.56211 Y0.60440
G01 X0.56393 Y0.60637
G01 X0.56568 Y0.60915
G01 X0.56698 Y0.61283
G01 X0.56729 Y0.61549
G01 X0.56732 Y0.62595
G01 X0.56675 Y0.62652
G01 X0.56732 Y0.62595
G01 X0.62942 Y0.62595
G01 X0.62948 Y0.62610
G01 X0.62942 Y0.62595
G01 X0.68631 Y0.56906
G01 X0.68712 Y0.56906
G01 X0.68631 Y0.56906
G01 X0.54030 Y0.42305
G01 X0.53589 Y0.41768
G01 X0.53287 Y0.41208
G01 X0.53242 Y0.41101
G01 X0.53052 Y0.40433
G01 X0.52995 Y0.39857
G01 X0.53052 Y0.39165
G01 X0.53242 Y0.38498
G01 X0.53287 Y0.38391
G01 X0.53589 Y0.37831
G01 X0.53991 Y0.37337
G01 X0.54520 Y0.36888
G01 X0.54617 Y0.36823
G01 X0.55179 Y0.36526
G01 X0.55788 Y0.36338
G01 X0.55901 Y0.36316
G01 X0.56535 Y0.36256
G01 X0.57169 Y0.36316
G01 X0.57837 Y0.36506
G01 X0.58454 Y0.36823
G01 X0.58998 Y0.37255
G01 X0.74342 Y0.52595
G01 X0.74335 Y0.52610
G01 X0.74342 Y0.52595
G01 X0.83375 Y0.52601
G01 X0.84111 Y0.52173
G01 X0.84974 Y0.51892
G01 X0.85876 Y0.51797
G01 X0.86312 Y0.51801
G01 X0.87152 Y0.51892
G01 X0.88015 Y0.52173
G01 X0.88749 Y0.52593
G01 X0.88849 Y0.52665
G01 X0.89476 Y0.53233
G01 X0.90009 Y0.53968
G01 X0.90356 Y0.54739
G01 X0.90394 Y0.54856
G01 X0.90567 Y0.55684
G01 X0.90567 Y0.56592
G01 X0.90394 Y0.57419
G01 X0.90356 Y0.57537
G01 X0.90037 Y0.58253
G01 X0.89975 Y0.58360
G01 X0.89476 Y0.59042
G01 X0.88801 Y0.59649
G01 X0.88015 Y0.60103
G01 X0.87212 Y0.60367
G01 X0.87091 Y0.60393
G01 X0.86250 Y0.60478
G01 X0.85814 Y0.60475
G01 X0.84974 Y0.60383
G01 X0.84111 Y0.60103
G01 X0.83375 Y0.59675
G01 X0.75877 Y0.59681
G01 X0.75871 Y0.59666
G01 X0.75877 Y0.59681
G01 X0.66915 Y0.68643
G01 X0.66424 Y0.69049
G01 X0.66328 Y0.69114
G01 X0.65711 Y0.69431
G01 X0.65101 Y0.69613
G01 X0.64409 Y0.69681
G01 X0.56732 Y0.69681
G01 X0.56675 Y0.69624
G01 X0.56732 Y0.69681
G01 X0.56729 Y0.70727
G01 X0.56698 Y0.70993
G01 X0.56568 Y0.71361
G01 X0.56393 Y0.71639
G01 X0.56211 Y0.71836
G01 X0.55997 Y0.71995
G01 X0.55644 Y0.72163
G01 X0.55322 Y0.72231
G01 X0.45999 Y0.72235
G01 X0.45616 Y0.72163
G01 X0.45315 Y0.72029
G01 X0.45049 Y0.71836
G01 X0.44795 Y0.71539
G01 X0.44664 Y0.71306
G01 X0.44578 Y0.71052
G01 X0.44531 Y0.70727
G01 X0.44528 Y0.61610
G01 X0.44724 Y0.61610
G01 X0.44727 Y0.70707
G01 X0.44754 Y0.70952
G01 X0.44844 Y0.71226
G01 X0.44988 Y0.71475
G01 X0.45180 Y0.71689
G01 X0.45413 Y0.71859
G01 X0.45638 Y0.71961
G01 X0.45999 Y0.72038
G01 X0.55301 Y0.72036
G01 X0.55622 Y0.71961
G01 X0.55846 Y0.71859
G01 X0.56047 Y0.71715
G01 X0.56272 Y0.71475
G01 X0.56416 Y0.71226
G01 X0.56505 Y0.70952
G01 X0.56533 Y0.70707
G01 X0.56535 Y0.69484
G01 X0.64448 Y0.69482
G01 X0.65062 Y0.69420
G01 X0.65654 Y0.69243
G01 X0.66235 Y0.68940
G01 X0.66776 Y0.68504
G01 X0.75796 Y0.59484
G01 X0.83433 Y0.59484
G01 X0.84191 Y0.59923
G01 X0.85014 Y0.60191
G01 X0.85876 Y0.60282
G01 X0.86291 Y0.60279
G01 X0.87071 Y0.60197
G01 X0.87935 Y0.59923
G01 X0.88718 Y0.59464
G01 X0.89329 Y0.58910
G01 X0.89816 Y0.58244
G01 X0.90191 Y0.57418
G01 X0.90371 Y0.56571
G01 X0.90371 Y0.55705
G01 X0.90191 Y0.54857
G01 X0.89839 Y0.54066
G01 X0.89329 Y0.53365
G01 X0.88686 Y0.52785
G01 X0.87935 Y0.52352
G01 X0.87151 Y0.52095
G01 X0.86250 Y0.51994
G01 X0.85835 Y0.51996
G01 X0.85014 Y0.52085
G01 X0.84191 Y0.52352
G01 X0.83433 Y0.52791
G01 X0.74260 Y0.52791
G01 X0.58873 Y0.37407
G01 X0.58361 Y0.36997
G01 X0.57780 Y0.36695
G01 X0.57150 Y0.36511
G01 X0.56535 Y0.36453
G01 X0.55921 Y0.36511
G01 X0.55255 Y0.36708
G01 X0.54645 Y0.37040
G01 X0.54198 Y0.37407
G01 X0.53776 Y0.37909
G01 X0.53460 Y0.38484
G01 X0.53248 Y0.39185
G01 X0.53191 Y0.39838
G01 X0.53248 Y0.40414
G01 X0.53431 Y0.41044
G01 X0.53753 Y0.41658
G01 X0.54169 Y0.42166
G01 X0.68909 Y0.56906
G01 X0.63023 Y0.62791
G01 X0.56535 Y0.62791
G01 X0.56533 Y0.61569
G01 X0.56505 Y0.61324
G01 X0.56416 Y0.61050
G01 X0.56246 Y0.60768
G01 X0.56079 Y0.60586
G01 X0.55881 Y0.60439
G01 X0.55583 Y0.60300
G01 X0.55302 Y0.60240
G01 X0.45979 Y0.60238
G01 X0.45677 Y0.60300
G01 X0.45450 Y0.60398
G01 X0.45151 Y0.60615
G01 X0.44988 Y0.60800
G01 X0.44844 Y0.61050
G01 X0.44754 Y0.61324
G01 X0.44724 Y0.61610
G04 P0 ( dwell for no time -- G64 should not smooth over this point )
G00 Z0.07874 ( retract )

G00 X0.44528 Y1.05508 ( rapid move to begin. )
G01 F3.93701
( Mill infeed pass 1/1 )
G01 Z-0.00591
G04 P0 ( dwell for no time -- G64 should not smooth over this point )
G01 F7.87402
G01 X0.44528 Y1.05508
G01 X0.44651 Y1.06716
G01 X0.44677 Y1.06836
G01 X0.45055 Y1.07990
G01 X0.45693 Y1.09095
G01 X0.46547 Y1.10043
G01 X0.47527 Y1.10759
G01 X0.47634 Y1.10821
G01 X0.48686 Y1.11289
G01 X0.48804 Y1.11328
G01 X0.49992 Y1.11577
G01 X0.51206 Y1.11580
G01 X0.51329 Y1.11567
G01 X0.52516 Y1.11312
G01 X0.53681 Y1.10793
G01 X0.54665 Y1.10082
G01 X0.54757 Y1.09999
G01 X0.55528 Y1.09143
G01 X0.55595 Y1.09051
G01 X0.55588 Y1.09034
G01 X0.55595 Y1.09051
G01 X0.60866 Y1.09051
G01 X0.60924 Y1.08994
G01 X0.60866 Y1.09051
G01 X0.60869 Y1.15408
G01 X0.60934 Y1.16042
G01 X0.61116 Y1.16652
G01 X0.61161 Y1.16759
G01 X0.61498 Y1.17366
G01 X0.61904 Y1.17856
G01 X0.85709 Y1.41661
G01 X0.85724 Y1.41654
G01 X0.85709 Y1.41661
G01 X0.85709 Y1.48815
G01 X0.85768 Y1.49449
G01 X0.85959 Y1.50116
G01 X0.86003 Y1.50223
G01 X0.86276 Y1.50734
G01 X0.86708 Y1.51278
G01 X0.87237 Y1.51727
G01 X0.87844 Y1.52064
G01 X0.87951 Y1.52108
G01 X0.88561 Y1.52290
G01 X0.89194 Y1.52355
G01 X0.89310 Y1.52355
G01 X0.89943 Y1.52290
G01 X0.90553 Y1.52108
G01 X0.91171 Y1.51791
G01 X0.91267 Y1.51727
G01 X0.91757 Y1.51320
G01 X0.92163 Y1.50830
G01 X0.92501 Y1.50223
G01 X0.92545 Y1.50116
G01 X0.92727 Y1.49506
G01 X0.92795 Y1.48815
G01 X0.92792 Y1.40135
G01 X0.92727 Y1.39502
G01 X0.92545 Y1.38892
G01 X0.92228 Y1.38274
G01 X0.92163 Y1.38178
G01 X0.91757 Y1.37688
G01 X0.67953 Y1.13883
G01 X0.67938 Y1.13889
G01 X0.67953 Y1.13883
G01 X0.67953 Y1.09051
G01 X0.67900 Y1.09002
G01 X0.67953 Y1.09051
G01 X0.68346 Y1.09051
G01 X0.68980 Y1.08992
G01 X0.69094 Y1.08969
G01 X0.69755 Y1.08757
G01 X0.70361 Y1.08419
G01 X0.70852 Y1.08013
G01 X0.73909 Y1.04957
G01 X0.73902 Y1.04942
G01 X0.73909 Y1.04957
G01 X0.83375 Y1.04950
G01 X0.84111 Y1.05379
G01 X0.84914 Y1.05643
G01 X0.85035 Y1.05669
G01 X0.85814 Y1.05751
G01 X0.86250 Y1.05754
G01 X0.87091 Y1.05669
G01 X0.87212 Y1.05643
G01 X0.88015 Y1.05379
G01 X0.88801 Y1.04925
G01 X0.89476 Y1.04318
G01 X0.90009 Y1.03584
G01 X0.90378 Y1.02755
G01 X0.90567 Y1.01867
G01 X0.90567 Y1.00960
G01 X0.90378 Y1.00072
G01 X0.90009 Y0.99243
G01 X0.89514 Y0.98557
G01 X0.89432 Y0.98465
G01 X0.88801 Y0.97902
G01 X0.88015 Y0.97448
G01 X0.87152 Y0.97168
G01 X0.86250 Y0.97073
G01 X0.85814 Y0.97076
G01 X0.85035 Y0.97158
G01 X0.84914 Y0.97184
G01 X0.84111 Y0.97448
G01 X0.83375 Y0.97877
G01 X0.72441 Y0.97870
G01 X0.71807 Y0.97930
G01 X0.71140 Y0.98120
G01 X0.71033 Y0.98165
G01 X0.70426 Y0.98502
G01 X0.69978 Y0.98869
G01 X0.66879 Y1.01965
G01 X0.66885 Y1.01980
G01 X0.66879 Y1.01965
G01 X0.55595 Y1.01965
G01 X0.55587 Y1.01982
G01 X0.55595 Y1.01965
G01 X0.55528 Y1.01873
G01 X0.54713 Y1.00973
G01 X0.53733 Y1.00257
G01 X0.53626 Y1.00195
G01 X0.52516 Y0.99704
G01 X0.51329 Y0.99449
G01 X0.51206 Y0.99436
G01 X0.49992 Y0.99439
G01 X0.48744 Y0.99704
G01 X0.47634 Y1.00195
G01 X0.47527 Y1.00257
G01 X0.46595 Y1.00934
G01 X0.46503 Y1.01017
G01 X0.45693 Y1.01921
G01 X0.45055 Y1.03026
G01 X0.44661 Y1.04239
G01 X0.44528 Y1.05508
G01 X0.44724 Y1.05508
G01 X0.44853 Y1.06736
G01 X0.45235 Y1.07910
G01 X0.45852 Y1.08979
G01 X0.46649 Y1.09867
G01 X0.47714 Y1.10641
G01 X0.48805 Y1.11124
G01 X0.49972 Y1.11375
G01 X0.51288 Y1.11375
G01 X0.52455 Y1.11124
G01 X0.53546 Y1.10641
G01 X0.54581 Y1.09897
G01 X0.55382 Y1.09011
G01 X0.55482 Y1.08854
G01 X0.61063 Y1.08854
G01 X0.61065 Y1.15389
G01 X0.61122 Y1.15965
G01 X0.61305 Y1.16595
G01 X0.61627 Y1.17210
G01 X0.62043 Y1.17717
G01 X0.85905 Y1.41579
G01 X0.85905 Y1.48815
G01 X0.85964 Y1.49430
G01 X0.86147 Y1.50059
G01 X0.86492 Y1.50705
G01 X0.86886 Y1.51181
G01 X0.87426 Y1.51617
G01 X0.87971 Y1.51907
G01 X0.88599 Y1.52097
G01 X0.89213 Y1.52160
G01 X0.89905 Y1.52097
G01 X0.90567 Y1.51890
G01 X0.91142 Y1.51574
G01 X0.91618 Y1.51181
G01 X0.92034 Y1.50674
G01 X0.92327 Y1.50131
G01 X0.92540 Y1.49430
G01 X0.92598 Y1.48815
G01 X0.92598 Y1.40193
G01 X0.92525 Y1.39503
G01 X0.92327 Y1.38877
G01 X0.92054 Y1.38367
G01 X0.91618 Y1.37827
G01 X0.67756 Y1.13964
G01 X0.67756 Y1.08854
G01 X0.68385 Y1.08852
G01 X0.69037 Y1.08781
G01 X0.69662 Y1.08583
G01 X0.70237 Y1.08267
G01 X0.70713 Y1.07874
G01 X0.73827 Y1.04760
G01 X0.83433 Y1.04760
G01 X0.84229 Y1.05214
G01 X0.85014 Y1.05467
G01 X0.85876 Y1.05557
G01 X0.86291 Y1.05555
G01 X0.87151 Y1.05456
G01 X0.87935 Y1.05199
G01 X0.88686 Y1.04766
G01 X0.89329 Y1.04186
G01 X0.89839 Y1.03485
G01 X0.90191 Y1.02694
G01 X0.90371 Y1.01847
G01 X0.90371 Y1.00980
G01 X0.90191 Y1.00133
G01 X0.89839 Y0.99342
G01 X0.89329 Y0.98641
G01 X0.88686 Y0.98061
G01 X0.87935 Y0.97628
G01 X0.87112 Y0.97360
G01 X0.86250 Y0.97270
G01 X0.85835 Y0.97272
G01 X0.84975 Y0.97371
G01 X0.84191 Y0.97628
G01 X0.83433 Y0.98067
G01 X0.72441 Y0.98067
G01 X0.71826 Y0.98126
G01 X0.71125 Y0.98338
G01 X0.70615 Y0.98611
G01 X0.70103 Y0.99021
G01 X0.66960 Y1.02161
G01 X0.55482 Y1.02161
G01 X0.55382 Y1.02005
G01 X0.54581 Y1.01119
G01 X0.53546 Y1.00375
G01 X0.52455 Y0.99891
G01 X0.51288 Y0.99641
G01 X0.50013 Y0.99635
G01 X0.48805 Y0.99891
G01 X0.47677 Y1.00394
G01 X0.46678 Y1.01119
G01 X0.45878 Y1.02005
G01 X0.45220 Y1.03144
G01 X0.44853 Y1.04280
G01 X0.44724 Y1.05508
G04 P0 ( dwell for no time -- G64 should not smooth over this point )
G00 Z0.07874 ( retract )

G00 X0.81535 Y1.07663 ( rapid move to begin. )
G01 F3.93701
( Mill infeed pass 1/1 )
G01 Z-0.00591
G04 P0 ( dwell for no time -- G64 should not smooth over this point )
G01 F7.87402
G01 X0.81535 Y1.07663
G01 X0.81547 Y1.07548
G01 X0.81580 Y1.07437
G01 X0.81635 Y1.07335
G01 X0.81708 Y1.07246
G01 X0.81798 Y1.07172
G01 X0.81900 Y1.07118
G01 X0.82011 Y1.07084
G01 X0.82126 Y1.07073
G01 X0.90000 Y1.07073
G01 X0.90115 Y1.07084
G01 X0.90226 Y1.07118
G01 X0.90328 Y1.07172
G01 X0.90418 Y1.07246
G01 X0.90491 Y1.07335
G01 X0.90546 Y1.07437
G01 X0.90579 Y1.07548
G01 X0.90590 Y1.07663
G01 X0.90590 Y1.10930
G01 X0.90575 Y1.10936
G01 X0.90590 Y1.10930
G01 X0.93436 Y1.13776
G01 X0.93430 Y1.13791
G01 X0.93436 Y1.13776
G01 X1.07717 Y1.13776
G01 X1.08408 Y1.13844
G01 X1.09018 Y1.14026
G01 X1.09635 Y1.14343
G01 X1.09732 Y1.14407
G01 X1.10261 Y1.14856
G01 X1.10692 Y1.15400
G01 X1.10965 Y1.15911
G01 X1.11010 Y1.16018
G01 X1.11192 Y1.16628
G01 X1.11257 Y1.17261
G01 X1.11260 Y1.27909
G01 X1.11192 Y1.28601
G01 X1.11010 Y1.29211
G01 X1.10965 Y1.29318
G01 X1.10628 Y1.29925
G01 X1.10222 Y1.30415
G01 X1.09732 Y1.30821
G01 X1.09635 Y1.30885
G01 X1.09018 Y1.31203
G01 X1.08408 Y1.31385
G01 X1.07774 Y1.31450
G01 X1.07659 Y1.31450
G01 X1.07025 Y1.31385
G01 X1.06415 Y1.31203
G01 X1.06308 Y1.31158
G01 X1.05798 Y1.30885
G01 X1.05254 Y1.30454
G01 X1.04805 Y1.29925
G01 X1.04468 Y1.29318
G01 X1.04423 Y1.29211
G01 X1.04241 Y1.28601
G01 X1.04176 Y1.27967
G01 X1.04173 Y1.20862
G01 X1.04231 Y1.20805
G01 X1.04173 Y1.20862
G01 X0.91968 Y1.20862
G01 X0.91277 Y1.20794
G01 X0.90667 Y1.20612
G01 X0.90560 Y1.20568
G01 X0.90050 Y1.20295
G01 X0.89506 Y1.19863
G01 X0.85392 Y1.15754
G01 X0.85399 Y1.15739
G01 X0.85392 Y1.15754
G01 X0.82126 Y1.15754
G01 X0.82011 Y1.15743
G01 X0.81900 Y1.15709
G01 X0.81798 Y1.15654
G01 X0.81708 Y1.15581
G01 X0.81635 Y1.15491
G01 X0.81580 Y1.15389
G01 X0.81547 Y1.15279
G01 X0.81535 Y1.15163
G01 X0.81535 Y1.07663
G01 X0.81732 Y1.07663
G01 X0.81732 Y1.15163
G01 X0.81762 Y1.15314
G01 X0.81799 Y1.15382
G01 X0.81907 Y1.15491
G01 X0.81975 Y1.15527
G01 X0.82126 Y1.15557
G01 X0.85474 Y1.15557
G01 X0.89631 Y1.19711
G01 X0.90078 Y1.20078
G01 X0.90653 Y1.20394
G01 X0.91316 Y1.20601
G01 X0.91968 Y1.20665
G01 X1.04370 Y1.20665
G01 X1.04370 Y1.27909
G01 X1.04444 Y1.28600
G01 X1.04612 Y1.29154
G01 X1.04914 Y1.29736
G01 X1.05350 Y1.30276
G01 X1.05826 Y1.30669
G01 X1.06401 Y1.30985
G01 X1.07102 Y1.31197
G01 X1.07717 Y1.31256
G01 X1.08407 Y1.31182
G01 X1.09032 Y1.30985
G01 X1.09576 Y1.30692
G01 X1.10083 Y1.30276
G01 X1.10519 Y1.29736
G01 X1.10808 Y1.29190
G01 X1.11004 Y1.28524
G01 X1.11063 Y1.27909
G01 X1.11063 Y1.17319
G01 X1.11004 Y1.16704
G01 X1.10821 Y1.16075
G01 X1.10499 Y1.15460
G01 X1.10083 Y1.14953
G01 X1.09607 Y1.14560
G01 X1.08961 Y1.14214
G01 X1.08331 Y1.14031
G01 X1.07717 Y1.13973
G01 X0.93355 Y1.13973
G01 X0.90394 Y1.11012
G01 X0.90394 Y1.07663
G01 X0.90364 Y1.07513
G01 X0.90327 Y1.07445
G01 X0.90219 Y1.07336
G01 X0.90077 Y1.07277
G01 X0.90000 Y1.07270
G01 X0.82126 Y1.07270
G01 X0.81975 Y1.07300
G01 X0.81848 Y1.07385
G01 X0.81762 Y1.07513
G01 X0.81732 Y1.07663
G04 P0 ( dwell for no time -- G64 should not smooth over this point )
G00 Z0.07874 ( retract )

G00 X1.17953 Y1.17319 ( rapid move to begin. )
G01 F3.93701
( Mill infeed pass 1/1 )
G01 Z-0.00591
G04 P0 ( dwell for no time -- G64 should not smooth over this point )
G01 F7.87402
G01 X1.17953 Y1.17319
G01 X1.18021 Y1.16628
G01 X1.18203 Y1.16018
G01 X1.18247 Y1.15911
G01 X1.18584 Y1.15304
G01 X1.18991 Y1.14814
G01 X1.19481 Y1.14407
G01 X1.20088 Y1.14070
G01 X1.20195 Y1.14026
G01 X1.20805 Y1.13844
G01 X1.21438 Y1.13779
G01 X1.21554 Y1.13779
G01 X1.22187 Y1.13844
G01 X1.22797 Y1.14026
G01 X1.22904 Y1.14070
G01 X1.23511 Y1.14407
G01 X1.24001 Y1.14814
G01 X1.24408 Y1.15304
G01 X1.24745 Y1.15911
G01 X1.24789 Y1.16018
G01 X1.24971 Y1.16628
G01 X1.25039 Y1.17319
G01 X1.25039 Y1.31599
G01 X1.25024 Y1.31606
G01 X1.25039 Y1.31599
G01 X1.48490 Y1.55050
G01 X1.48896 Y1.55540
G01 X1.49233 Y1.56147
G01 X1.49277 Y1.56254
G01 X1.49459 Y1.56864
G01 X1.49527 Y1.57555
G01 X1.49525 Y1.71295
G01 X1.49643 Y1.71659
G01 X1.49721 Y1.72375
G01 X1.49721 Y1.72499
G01 X1.49643 Y1.73215
G01 X1.49423 Y1.73901
G01 X1.49373 Y1.74013
G01 X1.49044 Y1.74584
G01 X1.48971 Y1.74683
G01 X1.48487 Y1.75216
G01 X1.47854 Y1.75676
G01 X1.47140 Y1.75994
G01 X1.46375 Y1.76157
G01 X1.45593 Y1.76157
G01 X1.44888 Y1.76010
G01 X1.44771 Y1.75972
G01 X1.44114 Y1.75676
G01 X1.43530 Y1.75255
G01 X1.43438 Y1.75173
G01 X1.42997 Y1.74683
G01 X1.42925 Y1.74584
G01 X1.42567 Y1.73958
G01 X1.42342 Y1.73274
G01 X1.42316 Y1.73154
G01 X1.42244 Y1.72437
G01 X1.42326 Y1.71659
G01 X1.42443 Y1.71295
G01 X1.42441 Y1.59023
G01 X1.42456 Y1.59017
G01 X1.42441 Y1.59023
G01 X1.18991 Y1.35572
G01 X1.18584 Y1.35082
G01 X1.18247 Y1.34475
G01 X1.18203 Y1.34368
G01 X1.18021 Y1.33758
G01 X1.17953 Y1.33067
G01 X1.17953 Y1.17319
G01 X1.18150 Y1.17319
G01 X1.18150 Y1.33067
G01 X1.18223 Y1.33757
G01 X1.18421 Y1.34383
G01 X1.18714 Y1.34926
G01 X1.19130 Y1.35433
G01 X1.42638 Y1.58941
G01 X1.42638 Y1.71326
G01 X1.42518 Y1.71700
G01 X1.42443 Y1.72396
G01 X1.42518 Y1.73174
G01 X1.42766 Y1.73915
G01 X1.43118 Y1.74520
G01 X1.43613 Y1.75070
G01 X1.44249 Y1.75524
G01 X1.44889 Y1.75807
G01 X1.45573 Y1.75954
G01 X1.46395 Y1.75954
G01 X1.47079 Y1.75807
G01 X1.47790 Y1.75483
G01 X1.48355 Y1.75070
G01 X1.48851 Y1.74520
G01 X1.49221 Y1.73878
G01 X1.49450 Y1.73174
G01 X1.49525 Y1.72396
G01 X1.49450 Y1.71700
G01 X1.49331 Y1.71326
G01 X1.49331 Y1.57555
G01 X1.49257 Y1.56865
G01 X1.49059 Y1.56240
G01 X1.48767 Y1.55696
G01 X1.48351 Y1.55189
G01 X1.24842 Y1.31681
G01 X1.24842 Y1.17319
G01 X1.24784 Y1.16704
G01 X1.24601 Y1.16075
G01 X1.24255 Y1.15429
G01 X1.23862 Y1.14953
G01 X1.23386 Y1.14560
G01 X1.22740 Y1.14214
G01 X1.22111 Y1.14031
G01 X1.21496 Y1.13973
G01 X1.20881 Y1.14031
G01 X1.20252 Y1.14214
G01 X1.19606 Y1.14560
G01 X1.19130 Y1.14953
G01 X1.18714 Y1.15460
G01 X1.18391 Y1.16075
G01 X1.18208 Y1.16704
G01 X1.18150 Y1.17319
G04 P0 ( dwell for no time -- G64 should not smooth over this point )
G00 Z0.07874 ( retract )

G00 X1.37638 Y1.17319 ( rapid move to begin. )
G01 F3.93701
( Mill infeed pass 1/1 )
G01 Z-0.00591
G04 P0 ( dwell for no time -- G64 should not smooth over this point )
G01 F7.87402
G01 X1.37638 Y1.17319
G01 X1.37706 Y1.16628
G01 X1.37888 Y1.16018
G01 X1.37932 Y1.15911
G01 X1.38269 Y1.15304
G01 X1.38676 Y1.14814
G01 X1.39166 Y1.14407
G01 X1.39773 Y1.14070
G01 X1.39880 Y1.14026
G01 X1.40490 Y1.13844
G01 X1.41123 Y1.13779
G01 X1.41239 Y1.13779
G01 X1.41872 Y1.13844
G01 X1.42482 Y1.14026
G01 X1.42589 Y1.14070
G01 X1.43196 Y1.14407
G01 X1.43686 Y1.14814
G01 X1.44093 Y1.15304
G01 X1.44430 Y1.15911
G01 X1.44474 Y1.16018
G01 X1.44656 Y1.16628
G01 X1.44724 Y1.17319
G01 X1.44724 Y1.33568
G01 X1.44709 Y1.33574
G01 X1.44724 Y1.33568
G01 X1.58490 Y1.47333
G01 X1.58896 Y1.47824
G01 X1.58960 Y1.47920
G01 X1.59277 Y1.48537
G01 X1.59459 Y1.49147
G01 X1.59527 Y1.49839
G01 X1.59525 Y1.71295
G01 X1.59643 Y1.71659
G01 X1.59721 Y1.72375
G01 X1.59721 Y1.72499
G01 X1.59643 Y1.73215
G01 X1.59423 Y1.73901
G01 X1.59373 Y1.74013
G01 X1.59010 Y1.74635
G01 X1.58487 Y1.75216
G01 X1.57906 Y1.75642
G01 X1.57799 Y1.75704
G01 X1.57140 Y1.75994
G01 X1.56375 Y1.76157
G01 X1.55593 Y1.76157
G01 X1.54828 Y1.75994
G01 X1.54114 Y1.75676
G01 X1.53482 Y1.75216
G01 X1.52958 Y1.74635
G01 X1.52567 Y1.73958
G01 X1.52326 Y1.73215
G01 X1.52247 Y1.72499
G01 X1.52247 Y1.72375
G01 X1.52326 Y1.71659
G01 X1.52443 Y1.71295
G01 X1.52441 Y1.51306
G01 X1.52456 Y1.51300
G01 X1.52441 Y1.51306
G01 X1.38676 Y1.37541
G01 X1.38269 Y1.37051
G01 X1.38205 Y1.36954
G01 X1.37888 Y1.36337
G01 X1.37706 Y1.35727
G01 X1.37638 Y1.35035
G01 X1.37638 Y1.17319
G01 X1.37835 Y1.17319
G01 X1.37835 Y1.35035
G01 X1.37893 Y1.35650
G01 X1.38076 Y1.36280
G01 X1.38399 Y1.36895
G01 X1.38815 Y1.37402
G01 X1.52638 Y1.51225
G01 X1.52638 Y1.71326
G01 X1.52518 Y1.71700
G01 X1.52443 Y1.72396
G01 X1.52512 Y1.73133
G01 X1.52766 Y1.73915
G01 X1.53118 Y1.74520
G01 X1.53613 Y1.75070
G01 X1.54249 Y1.75524
G01 X1.54889 Y1.75807
G01 X1.55614 Y1.75961
G01 X1.56355 Y1.75961
G01 X1.57079 Y1.75807
G01 X1.57756 Y1.75506
G01 X1.58323 Y1.75096
G01 X1.58873 Y1.74485
G01 X1.59221 Y1.73878
G01 X1.59457 Y1.73133
G01 X1.59525 Y1.72396
G01 X1.59450 Y1.71700
G01 X1.59331 Y1.71326
G01 X1.59331 Y1.49839
G01 X1.59272 Y1.49224
G01 X1.59089 Y1.48594
G01 X1.58767 Y1.47980
G01 X1.58351 Y1.47472
G01 X1.44527 Y1.33649
G01 X1.44527 Y1.17319
G01 X1.44469 Y1.16704
G01 X1.44286 Y1.16075
G01 X1.43963 Y1.15460
G01 X1.43547 Y1.14953
G01 X1.43071 Y1.14560
G01 X1.42425 Y1.14214
G01 X1.41796 Y1.14031
G01 X1.41181 Y1.13973
G01 X1.40566 Y1.14031
G01 X1.39937 Y1.14214
G01 X1.39291 Y1.14560
G01 X1.38815 Y1.14953
G01 X1.38399 Y1.15460
G01 X1.38076 Y1.16075
G01 X1.37893 Y1.16704
G01 X1.37835 Y1.17319
G04 P0 ( dwell for no time -- G64 should not smooth over this point )
G00 Z0.07874 ( retract )

G00 X1.55354 Y1.17319 ( rapid move to begin. )
G01 F3.93701
( Mill infeed pass 1/1 )
G01 Z-0.00591
G04 P0 ( dwell for no time -- G64 should not smooth over this point )
G01 F7.87402
G01 X1.55354 Y1.17319
G01 X1.55422 Y1.16628
G01 X1.55605 Y1.16018
G01 X1.55649 Y1.15911
G01 X1.55986 Y1.15304
G01 X1.56392 Y1.14814
G01 X1.56883 Y1.14407
G01 X1.56979 Y1.14343
G01 X1.57489 Y1.14070
G01 X1.58150 Y1.13858
G01 X1.58840 Y1.13779
G01 X1.59532 Y1.13835
G01 X1.60199 Y1.14026
G01 X1.60306 Y1.14070
G01 X1.60816 Y1.14343
G01 X1.61360 Y1.14775
G01 X1.61442 Y1.14856
G01 X1.61873 Y1.15400
G01 X1.62146 Y1.15911
G01 X1.62359 Y1.16572
G01 X1.62381 Y1.16685
G01 X1.62441 Y1.17319
G01 X1.62441 Y1.31599
G01 X1.62426 Y1.31606
G01 X1.62441 Y1.31599
G01 X1.68529 Y1.37691
G01 X1.68960 Y1.38235
G01 X1.69233 Y1.38745
G01 X1.69277 Y1.38852
G01 X1.69459 Y1.39462
G01 X1.69527 Y1.40154
G01 X1.69525 Y1.71295
G01 X1.69643 Y1.71659
G01 X1.69721 Y1.72375
G01 X1.69721 Y1.72499
G01 X1.69643 Y1.73215
G01 X1.69423 Y1.73901
G01 X1.69373 Y1.74013
G01 X1.69044 Y1.74584
G01 X1.68971 Y1.74683
G01 X1.68487 Y1.75216
G01 X1.67854 Y1.75676
G01 X1.67140 Y1.75994
G01 X1.66436 Y1.76147
G01 X1.66313 Y1.76160
G01 X1.65593 Y1.76157
G01 X1.64888 Y1.76010
G01 X1.64771 Y1.75972
G01 X1.64169 Y1.75704
G01 X1.64062 Y1.75642
G01 X1.63482 Y1.75216
G01 X1.62958 Y1.74635
G01 X1.62567 Y1.73958
G01 X1.62326 Y1.73215
G01 X1.62247 Y1.72499
G01 X1.62247 Y1.72375
G01 X1.62326 Y1.71659
G01 X1.62443 Y1.71295
G01 X1.62441 Y1.41621
G01 X1.62456 Y1.41615
G01 X1.62441 Y1.41621
G01 X1.56353 Y1.35530
G01 X1.55922 Y1.34986
G01 X1.55649 Y1.34475
G01 X1.55437 Y1.33814
G01 X1.55414 Y1.33701
G01 X1.55354 Y1.33067
G01 X1.55354 Y1.17319
G01 X1.55551 Y1.17319
G01 X1.55551 Y1.33067
G01 X1.55625 Y1.33757
G01 X1.55822 Y1.34383
G01 X1.56115 Y1.34926
G01 X1.56505 Y1.35405
G01 X1.62638 Y1.41540
G01 X1.62638 Y1.71326
G01 X1.62518 Y1.71700
G01 X1.62443 Y1.72478
G01 X1.62518 Y1.73174
G01 X1.62747 Y1.73878
G01 X1.63118 Y1.74520
G01 X1.63584 Y1.75041
G01 X1.64249 Y1.75524
G01 X1.64889 Y1.75807
G01 X1.65614 Y1.75961
G01 X1.66355 Y1.75961
G01 X1.67079 Y1.75807
G01 X1.67756 Y1.75506
G01 X1.68355 Y1.75070
G01 X1.68851 Y1.74520
G01 X1.69221 Y1.73878
G01 X1.69450 Y1.73174
G01 X1.69525 Y1.72478
G01 X1.69450 Y1.71700
G01 X1.69331 Y1.71326
G01 X1.69331 Y1.40154
