( pcb2gcode 2.5.0 )
( Software-independent Gcode )

G94 ( Inches per minute feed rate. )
G20 ( Units == INCHES. )

G90 ( Absolute coordinates. )
G00 S12000 ( RPM spindle speed. )
G01 F7.87402 ( Feedrate. )


G00 Z0.39370 (Retract to tool change height)
T0
M5      (Spindle stop.)
G04 P1.00000 (Wait for spindle to stop)
(MSG, Change tool bit to mill diameter 0.00787in)
M0      (Temporary machine stop.)
M3 ( Spindle on clockwise. )
G04 P1.00000 (Wait for spindle to get up to speed)
G04 P0 ( dwell for no time -- G64 should not smooth over this point )
G00 Z0.07874 ( retract )

G00 X0.14273 Y2.41419 ( rapid move to begin. )
G01 F3.93701
( Mill infeed pass 1/1 )
G01 Z-0.00157
G04 P0 ( dwell for no time -- G64 should not smooth over this point )
G01 F7.87402
G01 X0.14273 Y2.41419
G01 X0.14590 Y2.38408
G01 X0.15531 Y2.35512
G01 X0.17054 Y2.32875
G01 X0.19091 Y2.30612
G01 X0.21555 Y2.28822
G01 X0.24337 Y2.27583
G01 X0.27316 Y2.26950
G01 X0.30279 Y2.26946
G01 X0.30402 Y2.26959
G01 X0.33299 Y2.27575
G01 X0.33417 Y2.27613
G01 X0.36122 Y2.28822
G01 X0.38553 Y2.30588
G01 X0.38644 Y2.30670
G01 X0.40623 Y2.32875
G01 X0.42146 Y2.35512
G01 X0.43087 Y2.38409
G01 X0.43405 Y2.41437
G01 X0.43087 Y2.44466
G01 X0.42146 Y2.47362
G01 X0.40623 Y2.49999
G01 X0.38586 Y2.52262
G01 X0.36122 Y2.54052
G01 X0.33340 Y2.55291
G01 X0.30361 Y2.55924
G01 X0.27398 Y2.55929
G01 X0.27276 Y2.55916
G01 X0.24337 Y2.55291
G01 X0.21629 Y2.54090
G01 X0.21522 Y2.54028
G01 X0.19125 Y2.52287
G01 X0.19033 Y2.52204
G01 X0.17054 Y2.49999
G01 X0.15531 Y2.47362
G01 X0.14590 Y2.44465
G01 X0.14273 Y2.41419
G01 X0.14469 Y2.41419
G01 X0.14782 Y2.44425
G01 X0.15696 Y2.47244
G01 X0.17190 Y2.49849
G01 X0.19208 Y2.52102
G01 X0.21637 Y2.53869
G01 X0.24398 Y2.55104
G01 X0.27357 Y2.55730
G01 X0.30341 Y2.55729
G01 X0.33279 Y2.55104
G01 X0.36024 Y2.53882
G01 X0.38483 Y2.52087
G01 X0.40487 Y2.49849
G01 X0.41966 Y2.47282
G01 X0.42884 Y2.44465
G01 X0.43209 Y2.41437
G01 X0.42895 Y2.38449
G01 X0.41966 Y2.35592
G01 X0.40438 Y2.32959
G01 X0.38469 Y2.30773
G01 X0.36058 Y2.29015
G01 X0.33298 Y2.27778
G01 X0.30279 Y2.27143
G01 X0.27336 Y2.27146
G01 X0.24398 Y2.27770
G01 X0.21619 Y2.29015
G01 X0.19223 Y2.30758
G01 X0.17213 Y2.32991
G01 X0.15696 Y2.35631
G01 X0.14782 Y2.38449
G01 X0.14469 Y2.41419
G04 P0 ( dwell for no time -- G64 should not smooth over this point )
G00 Z0.07874 ( retract )

G00 X0.15851 Y2.41437 ( rapid move to begin. )
G01 F3.93701
( Mill infeed pass 1/1 )
G01 Z-0.00157
G04 P0 ( dwell for no time -- G64 should not smooth over this point )
G01 F7.87402
G01 X0.15851 Y2.41437
G01 X0.16133 Y2.38737
G01 X0.16973 Y2.36154
G01 X0.18330 Y2.33802
G01 X0.20147 Y2.31784
G01 X0.22344 Y2.30188
G01 X0.24825 Y2.29084
G01 X0.27481 Y2.28519
G01 X0.30196 Y2.28519
G01 X0.32852 Y2.29084
G01 X0.35333 Y2.30188
G01 X0.37530 Y2.31784
G01 X0.39347 Y2.33802
G01 X0.40704 Y2.36154
G01 X0.41544 Y2.38737
G01 X0.41827 Y2.41437
G01 X0.41544 Y2.44138
G01 X0.40704 Y2.46720
G01 X0.39347 Y2.49072
G01 X0.37530 Y2.51090
G01 X0.35333 Y2.52686
G01 X0.32852 Y2.53790
G01 X0.30196 Y2.54355
G01 X0.27481 Y2.54355
G01 X0.24825 Y2.53790
G01 X0.22344 Y2.52686
G01 X0.20147 Y2.51090
G01 X0.18330 Y2.49072
G01 X0.16973 Y2.46720
G01 X0.16133 Y2.44138
G01 X0.15851 Y2.41437
G01 X0.15653 Y2.41437
G01 X0.15941 Y2.38696
G01 X0.16793 Y2.36074
G01 X0.18171 Y2.33687
G01 X0.20016 Y2.31638
G01 X0.22246 Y2.30018
G01 X0.24764 Y2.28897
G01 X0.27460 Y2.28324
G01 X0.30217 Y2.28324
G01 X0.32913 Y2.28897
G01 X0.35431 Y2.30018
G01 X0.37661 Y2.31638
G01 X0.39506 Y2.33687
G01 X0.40884 Y2.36074
G01 X0.41736 Y2.38696
G01 X0.42024 Y2.41437
G01 X0.41736 Y2.44179
G01 X0.40884 Y2.46800
G01 X0.39506 Y2.49187
G01 X0.37661 Y2.51236
G01 X0.35431 Y2.52856
G01 X0.32913 Y2.53977
G01 X0.30217 Y2.54551
G01 X0.27460 Y2.54551
G01 X0.24764 Y2.53977
G01 X0.22246 Y2.52856
G01 X0.20016 Y2.51236
G01 X0.18171 Y2.49187
G01 X0.16793 Y2.46800
G01 X0.15941 Y2.44179
G01 X0.15653 Y2.41437
G01 X0.24123 Y2.41252
G01 X0.24225 Y2.40425
G01 X0.24293 Y2.40176
G01 X0.24504 Y2.39563
G01 X0.24860 Y2.38903
G01 X0.24999 Y2.38686
G01 X0.25502 Y2.38100
G01 X0.25655 Y2.37948
G01 X0.25869 Y2.37770
G01 X0.26522 Y2.37322
G01 X0.27109 Y2.37048
G01 X0.27408 Y2.36935
G01 X0.28070 Y2.36782
G01 X0.28376 Y2.36736
G01 X0.28633 Y2.36724
G01 X0.29281 Y2.36736
G01 X0.30060 Y2.36879
G01 X0.30328 Y2.36954
G01 X0.30568 Y2.37048
G01 X0.31155 Y2.37322
G01 X0.31443 Y2.37504
G01 X0.32036 Y2.37962
G01 X0.32478 Y2.38436
G01 X0.32678 Y2.38686
G01 X0.32817 Y2.38903
G01 X0.33131 Y2.39469
G01 X0.33384 Y2.40176
G01 X0.33452 Y2.40425
G01 X0.33504 Y2.40740
G01 X0.33561 Y2.41386
G01 X0.33504 Y2.42134
G01 X0.33465 Y2.42389
G01 X0.33384 Y2.42698
G01 X0.33173 Y2.43311
G01 X0.32817 Y2.43972
G01 X0.32678 Y2.44189
G01 X0.32203 Y2.44744
G01 X0.31976 Y2.44968
G01 X0.31775 Y2.45129
G01 X0.31155 Y2.45552
G01 X0.30568 Y2.45826
G01 X0.30269 Y2.45939
G01 X0.29607 Y2.46092
G01 X0.29301 Y2.46138
G01 X0.29044 Y2.46150
G01 X0.28294 Y2.46128
G01 X0.27658 Y2.46004
G01 X0.27349 Y2.45920
G01 X0.27109 Y2.45826
G01 X0.26450 Y2.45512
G01 X0.26234 Y2.45371
G01 X0.25641 Y2.44912
G01 X0.25199 Y2.44438
G01 X0.24999 Y2.44189
G01 X0.24860 Y2.43972
G01 X0.24504 Y2.43311
G01 X0.24293 Y2.42698
G01 X0.24209 Y2.42368
G01 X0.24127 Y2.41698
G01 X0.24123 Y2.41248
G01 X0.24320 Y2.41248
G01 X0.24323 Y2.41674
G01 X0.24404 Y2.42344
G01 X0.24471 Y2.42608
G01 X0.24690 Y2.43247
G01 X0.25032 Y2.43876
G01 X0.25164 Y2.44081
G01 X0.25325 Y2.44283
G01 X0.25785 Y2.44778
G01 X0.26375 Y2.45229
G01 X0.26605 Y2.45374
G01 X0.27193 Y2.45648
G01 X0.27420 Y2.45736
G01 X0.27695 Y2.45811
G01 X0.28400 Y2.45942
G01 X0.29048 Y2.45953
G01 X0.29332 Y2.45937
G01 X0.30009 Y2.45805
G01 X0.30257 Y2.45736
G01 X0.30459 Y2.45659
G01 X0.31072 Y2.45374
G01 X0.31684 Y2.44951
G01 X0.31883 Y2.44788
G01 X0.32036 Y2.44635
G01 X0.32480 Y2.44125
G01 X0.32645 Y2.43876
G01 X0.32959 Y2.43309
G01 X0.33198 Y2.42634
G01 X0.33271 Y2.42358
G01 X0.33308 Y2.42117
G01 X0.33365 Y2.41403
G01 X0.33305 Y2.40730
G01 X0.33262 Y2.40476
G01 X0.33198 Y2.40240
G01 X0.32959 Y2.39565
G01 X0.32631 Y2.38974
G01 X0.32513 Y2.38793
G01 X0.32352 Y2.38591
G01 X0.31892 Y2.38097
G01 X0.31324 Y2.37661
G01 X0.31120 Y2.37527
G01 X0.30484 Y2.37226
G01 X0.30257 Y2.37138
G01 X0.30009 Y2.37069
G01 X0.29346 Y2.36939
G01 X0.28629 Y2.36921
G01 X0.28345 Y2.36937
G01 X0.27668 Y2.37069
G01 X0.27420 Y2.37138
G01 X0.27218 Y2.37216
G01 X0.26605 Y2.37500
G01 X0.25993 Y2.37923
G01 X0.25794 Y2.38087
G01 X0.25641 Y2.38239
G01 X0.25197 Y2.38749
G01 X0.25032 Y2.38998
G01 X0.24690 Y2.39627
G01 X0.24479 Y2.40240
G01 X0.24415 Y2.40476
G01 X0.24320 Y2.41248
G01 X0.24123 Y2.41252
G04 P0 ( dwell for no time -- G64 should not smooth over this point )
G00 Z0.07874 ( retract )

G00 X0.77277 Y2.56906 ( rapid move to begin. )
G01 F3.93701
( Mill infeed pass 1/1 )
G01 Z-0.00157
G04 P0 ( dwell for no time -- G64 should not smooth over this point )
G01 F7.87402
G01 X0.77277 Y2.56906
G01 X0.77350 Y2.56170
G01 X0.77417 Y2.55764
G01 X0.77509 Y2.55426
G01 X0.77706 Y2.54819
G01 X0.77856 Y2.54435
G01 X0.78016 Y2.54123
G01 X0.78335 Y2.53570
G01 X0.78525 Y2.53276
G01 X0.78782 Y2.52955
G01 X0.79209 Y2.52481
G01 X0.79456 Y2.52233
G01 X0.79774 Y2.51972
G01 X0.80290 Y2.51597
G01 X0.80583 Y2.51405
G01 X0.80950 Y2.51216
G01 X0.81533 Y2.50956
G01 X0.81859 Y2.50830
G01 X0.82257 Y2.50721
G01 X0.82881 Y2.50589
G01 X0.83227 Y2.50533
G01 X0.83638 Y2.50509
G01 X0.84276 Y2.50509
G01 X0.84687 Y2.50533
G01 X0.85032 Y2.50589
G01 X0.85656 Y2.50721
G01 X0.85995 Y2.50811
G01 X0.86381 Y2.50956
G01 X0.86963 Y2.51216
G01 X0.87276 Y2.51374
G01 X0.87598 Y2.51580
G01 X0.88164 Y2.51991
G01 X0.88458 Y2.52233
G01 X0.88683 Y2.52458
G01 X0.89131 Y2.52955
G01 X0.89389 Y2.53277
G01 X0.89579 Y2.53571
G01 X0.89898 Y2.54123
G01 X0.90083 Y2.54491
G01 X0.90207 Y2.54819
G01 X0.90405 Y2.55426
G01 X0.90509 Y2.55824
G01 X0.90563 Y2.56170
G01 X0.90629 Y2.56804
G01 X0.90649 Y2.57216
G01 X0.90629 Y2.57566
G01 X0.90563 Y2.58200
G01 X0.90496 Y2.58607
G01 X0.90405 Y2.58945
G01 X0.90207 Y2.59552
G01 X0.90058 Y2.59935
G01 X0.89898 Y2.60247
G01 X0.89579 Y2.60799
G01 X0.89352 Y2.61144
G01 X0.89131 Y2.61416
G01 X0.88704 Y2.61890
G01 X0.88457 Y2.62138
G01 X0.88139 Y2.62399
G01 X0.87623 Y2.62774
G01 X0.87330 Y2.62965
G01 X0.86964 Y2.63154
G01 X0.86381 Y2.63414
G01 X0.86054 Y2.63540
G01 X0.85656 Y2.63649
G01 X0.85032 Y2.63782
G01 X0.84687 Y2.63837
G01 X0.84276 Y2.63861
G01 X0.83638 Y2.63861
G01 X0.83227 Y2.63837
G01 X0.82881 Y2.63782
G01 X0.82257 Y2.63649
G01 X0.81859 Y2.63540
G01 X0.81532 Y2.63414
G01 X0.80949 Y2.63154
G01 X0.80637 Y2.62996
G01 X0.80316 Y2.62791
G01 X0.79774 Y2.62399
G01 X0.79502 Y2.62179
G01 X0.79209 Y2.61889
G01 X0.78782 Y2.61415
G01 X0.78525 Y2.61094
G01 X0.78335 Y2.60800
G01 X0.78016 Y2.60247
G01 X0.77831 Y2.59879
G01 X0.77706 Y2.59552
G01 X0.77509 Y2.58945
G01 X0.77404 Y2.58546
G01 X0.77350 Y2.58200
G01 X0.77280 Y2.57526
G01 X0.77277 Y2.56906
G01 X0.77473 Y2.56906
G01 X0.77475 Y2.57505
G01 X0.77546 Y2.58180
G01 X0.77599 Y2.58516
G01 X0.77696 Y2.58884
G01 X0.77893 Y2.59491
G01 X0.78031 Y2.59846
G01 X0.78186 Y2.60149
G01 X0.78505 Y2.60701
G01 X0.78714 Y2.61020
G01 X0.78928 Y2.61284
G01 X0.79369 Y2.61773
G01 X0.79626 Y2.62026
G01 X0.79890 Y2.62240
G01 X0.80406 Y2.62614
G01 X0.80691 Y2.62800
G01 X0.81030 Y2.62974
G01 X0.81612 Y2.63234
G01 X0.81969 Y2.63369
G01 X0.82298 Y2.63457
G01 X0.82922 Y2.63589
G01 X0.83257 Y2.63643
G01 X0.83617 Y2.63664
G01 X0.84276 Y2.63664
G01 X0.84615 Y2.63647
G01 X0.84992 Y2.63589
G01 X0.85616 Y2.63457
G01 X0.85944 Y2.63369
G01 X0.86301 Y2.63234
G01 X0.86884 Y2.62974
G01 X0.87222 Y2.62800
G01 X0.87507 Y2.62614
G01 X0.88039 Y2.62227
G01 X0.88318 Y2.61999
G01 X0.88544 Y2.61773
G01 X0.88985 Y2.61284
G01 X0.89199 Y2.61020
G01 X0.89409 Y2.60701
G01 X0.89727 Y2.60149
G01 X0.89882 Y2.59846
G01 X0.90020 Y2.59491
G01 X0.90223 Y2.58864
G01 X0.90314 Y2.58516
G01 X0.90364 Y2.58200
G01 X0.90434 Y2.57545
G01 X0.90452 Y2.57206
G01 X0.90434 Y2.56825
G01 X0.90367 Y2.56191
G01 X0.90306 Y2.55815
G01 X0.90217 Y2.55486
G01 X0.90020 Y2.54880
G01 X0.89882 Y2.54524
G01 X0.89727 Y2.54222
G01 X0.89398 Y2.53652
G01 X0.89199 Y2.53350
G01 X0.88985 Y2.53086
G01 X0.88558 Y2.52612
G01 X0.88288 Y2.52345
G01 X0.88024 Y2.52131
G01 X0.87491 Y2.51745
G01 X0.87187 Y2.51550
G01 X0.86902 Y2.51404
G01 X0.86301 Y2.51136
G01 X0.85944 Y2.51001
G01 X0.85616 Y2.50914
G01 X0.84992 Y2.50781
G01 X0.84656 Y2.50727
G01 X0.84276 Y2.50706
G01 X0.83638 Y2.50706
G01 X0.83298 Y2.50723
G01 X0.82942 Y2.50777
G01 X0.82298 Y2.50914
G01 X0.81930 Y2.51014
G01 X0.81613 Y2.51136
G01 X0.81011 Y2.51404
G01 X0.80691 Y2.51570
G01 X0.80405 Y2.51756
G01 X0.79889 Y2.52131
G01 X0.79595 Y2.52372
G01 X0.79355 Y2.52613
G01 X0.78928 Y2.53087
G01 X0.78714 Y2.53350
G01 X0.78505 Y2.53669
G01 X0.78176 Y2.54239
G01 X0.78014 Y2.54562
G01 X0.77893 Y2.54880
G01 X0.77696 Y2.55486
G01 X0.77599 Y2.55855
G01 X0.77546 Y2.56191
G01 X0.77473 Y2.56906
G04 P0 ( dwell for no time -- G64 should not smooth over this point )
G00 Z0.07874 ( retract )

G00 X2.03261 Y2.56906 ( rapid move to begin. )
G01 F3.93701
( Mill infeed pass 1/1 )
G01 Z-0.00157
G04 P0 ( dwell for no time -- G64 should not smooth over this point )
G01 F7.87402
G01 X2.03261 Y2.56906
G01 X2.03335 Y2.56170
G01 X2.03402 Y2.55764
G01 X2.03493 Y2.55426
G01 X2.03690 Y2.54819
G01 X2.03840 Y2.54435
G01 X2.04000 Y2.54123
G01 X2.04319 Y2.53571
G01 X2.04509 Y2.53277
G01 X2.04766 Y2.52955
G01 X2.05193 Y2.52481
G01 X2.05440 Y2.52233
G01 X2.05758 Y2.51972
G01 X2.06274 Y2.51597
G01 X2.06568 Y2.51405
G01 X2.06934 Y2.51216
G01 X2.07517 Y2.50956
G01 X2.07844 Y2.50830
G01 X2.08241 Y2.50721
G01 X2.08865 Y2.50589
G01 X2.09211 Y2.50533
G01 X2.09622 Y2.50509
G01 X2.10260 Y2.50509
G01 X2.10610 Y2.50527
G01 X2.11017 Y2.50589
G01 X2.11641 Y2.50721
G01 X2.11979 Y2.50811
G01 X2.12365 Y2.50956
G01 X2.12947 Y2.51216
G01 X2.13260 Y2.51374
G01 X2.13582 Y2.51580
G01 X2.14124 Y2.51972
G01 X2.14396 Y2.52192
G01 X2.14668 Y2.52459
G01 X2.15116 Y2.52955
G01 X2.15373 Y2.53276
G01 X2.15563 Y2.53570
G01 X2.15882 Y2.54123
G01 X2.16067 Y2.54491
G01 X2.16192 Y2.54819
G01 X2.16389 Y2.55426
G01 X2.16493 Y2.55824
G01 X2.16547 Y2.56171
G01 X2.16614 Y2.56805
G01 X2.16633 Y2.57216
G01 X2.16614 Y2.57565
G01 X2.16547 Y2.58200
G01 X2.16480 Y2.58607
G01 X2.16389 Y2.58945
G01 X2.16192 Y2.59552
G01 X2.16042 Y2.59935
G01 X2.15882 Y2.60247
G01 X2.15563 Y2.60800
G01 X2.15373 Y2.61094
G01 X2.15116 Y2.61415
G01 X2.14689 Y2.61889
G01 X2.14442 Y2.62138
G01 X2.14123 Y2.62399
G01 X2.13607 Y2.62774
G01 X2.13314 Y2.62965
G01 X2.12948 Y2.63154
G01 X2.12365 Y2.63414
G01 X2.12038 Y2.63540
G01 X2.11641 Y2.63649
G01 X2.11017 Y2.63782
G01 X2.10671 Y2.63837
G01 X2.10260 Y2.63861
G01 X2.09622 Y2.63861
G01 X2.09211 Y2.63837
G01 X2.08865 Y2.63782
G01 X2.08241 Y2.63649
G01 X2.07843 Y2.63540
G01 X2.07516 Y2.63414
G01 X2.06934 Y2.63154
G01 X2.06622 Y2.62996
G01 X2.06301 Y2.62791
G01 X2.05759 Y2.62399
G01 X2.05486 Y2.62179
G01 X2.05193 Y2.61889
G01 X2.04766 Y2.61415
G01 X2.04509 Y2.61094
G01 X2.04319 Y2.60799
G01 X2.04000 Y2.60247
G01 X2.03815 Y2.59879
G01 X2.03690 Y2.59552
G01 X2.03493 Y2.58945
G01 X2.03389 Y2.58546
G01 X2.03335 Y2.58200
G01 X2.03264 Y2.57526
G01 X2.03261 Y2.56906
G01 X2.03458 Y2.56906
G01 X2.03460 Y2.57505
G01 X2.03530 Y2.58180
G01 X2.03583 Y2.58516
G01 X2.03680 Y2.58884
G01 X2.03877 Y2.59491
G01 X2.04015 Y2.59846
G01 X2.04170 Y2.60149
G01 X2.04489 Y2.60701
G01 X2.04698 Y2.61020
G01 X2.04912 Y2.61284
G01 X2.05353 Y2.61773
G01 X2.05610 Y2.62026
G01 X2.05875 Y2.62240
G01 X2.06391 Y2.62615
G01 X2.06675 Y2.62800
G01 X2.07014 Y2.62974
G01 X2.07597 Y2.63234
G01 X2.07953 Y2.63369
G01 X2.08282 Y2.63457
G01 X2.08906 Y2.63589
G01 X2.09241 Y2.63643
G01 X2.09601 Y2.63664
G01 X2.10260 Y2.63664
G01 X2.10599 Y2.63647
G01 X2.10976 Y2.63589
G01 X2.11600 Y2.63457
G01 X2.11928 Y2.63369
G01 X2.12285 Y2.63234
G01 X2.12868 Y2.62975
G01 X2.13207 Y2.62800
G01 X2.13491 Y2.62614
G01 X2.14024 Y2.62227
G01 X2.14303 Y2.61998
G01 X2.14543 Y2.61758
G01 X2.14969 Y2.61284
G01 X2.15208 Y2.60987
G01 X2.15392 Y2.60701
G01 X2.15711 Y2.60149
G01 X2.15883 Y2.59808
G01 X2.16005 Y2.59491
G01 X2.16208 Y2.58864
G01 X2.16299 Y2.58515
G01 X2.16349 Y2.58200
G01 X2.16418 Y2.57545
G01 X2.16436 Y2.57206
G01 X2.16418 Y2.56825
G01 X2.16351 Y2.56191
G01 X2.16290 Y2.55815
G01 X2.16202 Y2.55486
G01 X2.16005 Y2.54880
G01 X2.15866 Y2.54524
G01 X2.15711 Y2.54221
G01 X2.15382 Y2.53651
G01 X2.15184 Y2.53350
G01 X2.14969 Y2.53087
G01 X2.14543 Y2.52613
G01 X2.14272 Y2.52345
G01 X2.14008 Y2.52131
G01 X2.13475 Y2.51745
G01 X2.13207 Y2.51570
G01 X2.12886 Y2.51404
G01 X2.12285 Y2.51136
G01 X2.11928 Y2.51001
G01 X2.11600 Y2.50914
G01 X2.10976 Y2.50781
G01 X2.10640 Y2.50727
G01 X2.10260 Y2.50706
G01 X2.09622 Y2.50706
G01 X2.09282 Y2.50723
G01 X2.08926 Y2.50777
G01 X2.08282 Y2.50914
G01 X2.07914 Y2.51014
G01 X2.07597 Y2.51136
G01 X2.06996 Y2.51404
G01 X2.06675 Y2.51570
G01 X2.06390 Y2.51756
G01 X2.05874 Y2.52131
G01 X2.05579 Y2.52372
G01 X2.05339 Y2.52613
G01 X2.04912 Y2.53087
G01 X2.04698 Y2.53351
G01 X2.04489 Y2.53669
G01 X2.04160 Y2.54240
G01 X2.03999 Y2.54562
G01 X2.03877 Y2.54880
G01 X2.03680 Y2.55486
G01 X2.03583 Y2.55855
G01 X2.03530 Y2.56191
G01 X2.03458 Y2.56906
G04 P0 ( dwell for no time -- G64 should not smooth over this point )
G00 Z0.07874 ( retract )

G00 X2.50493 Y2.41419 ( rapid move to begin. )
G01 F3.93701
( Mill infeed pass 1/1 )
G01 Z-0.00157
G04 P0 ( dwell for no time -- G64 should not smooth over this point )
G01 F7.87402
G01 X2.50493 Y2.41419
G01 X2.50811 Y2.38408
G01 X2.51751 Y2.35512
G01 X2.53274 Y2.32875
G01 X2.55312 Y2.30612
G01 X2.57776 Y2.28822
G01 X2.60558 Y2.27583
G01 X2.63536 Y2.26950
G01 X2.66499 Y2.26946
G01 X2.66622 Y2.26959
G01 X2.69520 Y2.27575
G01 X2.69638 Y2.27613
G01 X2.72343 Y2.28822
G01 X2.74773 Y2.30588
G01 X2.74865 Y2.30670
G01 X2.76844 Y2.32875
G01 X2.78366 Y2.35512
G01 X2.79308 Y2.38409
G01 X2.79626 Y2.41437
G01 X2.79308 Y2.44466
G01 X2.78366 Y2.47362
G01 X2.76844 Y2.49999
G01 X2.74806 Y2.52262
G01 X2.72342 Y2.54052
G01 X2.69560 Y2.55291
G01 X2.66582 Y2.55924
G01 X2.63619 Y2.55929
G01 X2.63496 Y2.55916
G01 X2.60558 Y2.55291
G01 X2.57849 Y2.54090
G01 X2.57742 Y2.54028
G01 X2.55345 Y2.52287
G01 X2.55253 Y2.52204
G01 X2.53274 Y2.49999
G01 X2.51751 Y2.47362
G01 X2.50810 Y2.44465
G01 X2.50493 Y2.41419
G01 X2.50690 Y2.41419
G01 X2.51003 Y2.44425
G01 X2.51916 Y2.47244
G01 X2.53411 Y2.49849
G01 X2.55429 Y2.52102
G01 X2.57858 Y2.53869
G01 X2.60619 Y2.55104
G01 X2.63578 Y2.55730
G01 X2.66561 Y2.55729
G01 X2.69500 Y2.55104
G01 X2.72244 Y2.53882
G01 X2.74704 Y2.52087
G01 X2.76685 Y2.49884
G01 X2.78168 Y2.47319
G01 X2.79104 Y2.44465
G01 X2.79429 Y2.41437
G01 X2.79115 Y2.38449
G01 X2.78187 Y2.35592
G01 X2.76659 Y2.32959
G01 X2.74689 Y2.30773
G01 X2.72279 Y2.29015
G01 X2.69519 Y2.27778
G01 X2.66499 Y2.27143
G01 X2.63557 Y2.27146
G01 X2.60618 Y2.27770
G01 X2.57839 Y2.29015
G01 X2.55444 Y2.30758
G01 X2.53433 Y2.32991
G01 X2.51916 Y2.35631
G01 X2.51003 Y2.38449
G01 X2.50690 Y2.41419
G04 P0 ( dwell for no time -- G64 should not smooth over this point )
G00 Z0.07874 ( retract )

G00 X2.52071 Y2.41437 ( rapid move to begin. )
G01 F3.93701
( Mill infeed pass 1/1 )
G01 Z-0.00157
G04 P0 ( dwell for no time -- G64 should not smooth over this point )
G01 F7.87402
G01 X2.52071 Y2.41437
G01 X2.52354 Y2.38737
G01 X2.53193 Y2.36154
G01 X2.54551 Y2.33802
G01 X2.56368 Y2.31784
G01 X2.58564 Y2.30188
G01 X2.61045 Y2.29084
G01 X2.63701 Y2.28519
G01 X2.66417 Y2.28519
G01 X2.69073 Y2.29084
G01 X2.71553 Y2.30188
G01 X2.73750 Y2.31784
G01 X2.75567 Y2.33802
G01 X2.76925 Y2.36154
G01 X2.77764 Y2.38737
G01 X2.78048 Y2.41437
G01 X2.77764 Y2.44138
G01 X2.76925 Y2.46720
G01 X2.75567 Y2.49072
G01 X2.73750 Y2.51090
G01 X2.71553 Y2.52686
G01 X2.69073 Y2.53790
G01 X2.66417 Y2.54355
G01 X2.63701 Y2.54355
G01 X2.61045 Y2.53790
G01 X2.58564 Y2.52686
G01 X2.56368 Y2.51090
G01 X2.54551 Y2.49072
G01 X2.53193 Y2.46720
G01 X2.52354 Y2.44138
G01 X2.52071 Y2.41437
G01 X2.51873 Y2.41437
G01 X2.52161 Y2.38696
G01 X2.53013 Y2.36074
G01 X2.54391 Y2.33687
G01 X2.56236 Y2.31638
G01 X2.58466 Y2.30018
G01 X2.60984 Y2.28897
G01 X2.63681 Y2.28324
G01 X2.66437 Y2.28324
G01 X2.69134 Y2.28897
G01 X2.71652 Y2.30018
G01 X2.73882 Y2.31638
G01 X2.75726 Y2.33687
G01 X2.77105 Y2.36074
G01 X2.77957 Y2.38696
G01 X2.78245 Y2.41437
G01 X2.77957 Y2.44179
G01 X2.77105 Y2.46800
G01 X2.75726 Y2.49187
G01 X2.73882 Y2.51236
G01 X2.71652 Y2.52856
G01 X2.69134 Y2.53977
G01 X2.66437 Y2.54551
G01 X2.63681 Y2.54551
G01 X2.60984 Y2.53977
G01 X2.58466 Y2.52856
G01 X2.56236 Y2.51236
G01 X2.54391 Y2.49187
G01 X2.53013 Y2.46800
G01 X2.52161 Y2.44179
G01 X2.51873 Y2.41437
G01 X2.60343 Y2.41252
G01 X2.60451 Y2.40405
G01 X2.60640 Y2.39785
G01 X2.60731 Y2.39544
G01 X2.60875 Y2.39259
G01 X2.61209 Y2.38703
G01 X2.61722 Y2.38101
G01 X2.61937 Y2.37894
G01 X2.62455 Y2.37503
G01 X2.62670 Y2.37362
G01 X2.62945 Y2.37219
G01 X2.63339 Y2.37044
G01 X2.63629 Y2.36935
G01 X2.64291 Y2.36782
G01 X2.64596 Y2.36736
G01 X2.64853 Y2.36724
G01 X2.65501 Y2.36735
G01 X2.66240 Y2.36870
G01 X2.66489 Y2.36935
G01 X2.66788 Y2.37048
G01 X2.67376 Y2.37322
G01 X2.67996 Y2.37745
G01 X2.68257 Y2.37962
G01 X2.68699 Y2.38436
G01 X2.68862 Y2.38636
G01 X2.69017 Y2.38867
G01 X2.69387 Y2.39544
G01 X2.69478 Y2.39785
G01 X2.69667 Y2.40405
G01 X2.69768 Y2.41149
G01 X2.69782 Y2.41406
G01 X2.69768 Y2.41725
G01 X2.69689 Y2.42369
G01 X2.69478 Y2.43089
G01 X2.69387 Y2.43330
G01 X2.69038 Y2.43972
G01 X2.68899 Y2.44189
G01 X2.68423 Y2.44744
G01 X2.68197 Y2.44968
G01 X2.67996 Y2.45129
G01 X2.67376 Y2.45552
G01 X2.66788 Y2.45826
G01 X2.66489 Y2.45939
G01 X2.65827 Y2.46092
G01 X2.65522 Y2.46138
G01 X2.65265 Y2.46150
G01 X2.64514 Y2.46128
G01 X2.63878 Y2.46004
G01 X2.63570 Y2.45920
G01 X2.63330 Y2.45826
G01 X2.62653 Y2.45501
G01 X2.62122 Y2.45129
G01 X2.61875 Y2.44927
G01 X2.61694 Y2.44743
G01 X2.61209 Y2.44171
G01 X2.60875 Y2.43616
G01 X2.60731 Y2.43330
G01 X2.60640 Y2.43089
G01 X2.60429 Y2.42368
G01 X2.60348 Y2.41697
G01 X2.60343 Y2.41248
G01 X2.60540 Y2.41248
G01 X2.60543 Y2.41674
G01 X2.60639 Y2.42412
G01 X2.60837 Y2.43058
G01 X2.60932 Y2.43297
G01 X2.61043 Y2.43514
G01 X2.61418 Y2.44125
G01 X2.61861 Y2.44634
G01 X2.62045 Y2.44815
G01 X2.62213 Y2.44951
G01 X2.62766 Y2.45340
G01 X2.63413 Y2.45648
G01 X2.63640 Y2.45736
G01 X2.63916 Y2.45811
G01 X2.64620 Y2.45942
G01 X2.65268 Y2.45953
G01 X2.65552 Y2.45937
G01 X2.66229 Y2.45805
G01 X2.66438 Y2.45749
G01 X2.66680 Y2.45659
G01 X2.67292 Y2.45374
G01 X2.67905 Y2.44951
G01 X2.68103 Y2.44788
G01 X2.68256 Y2.44635
G01 X2.68700 Y2.44125
G01 X2.68866 Y2.43876
G01 X2.69203 Y2.43259
G01 X2.69289 Y2.43032
G01 X2.69493 Y2.42345
G01 X2.69575 Y2.41674
G01 X2.69586 Y2.41458
G01 X2.69575 Y2.41200
G01 X2.69493 Y2.40530
G01 X2.69290 Y2.39843
G01 X2.69180 Y2.39565
G01 X2.68866 Y2.38998
G01 X2.68734 Y2.38793
G01 X2.68555 Y2.38570
G01 X2.68113 Y2.38096
G01 X2.67883 Y2.37906
G01 X2.67352 Y2.37535
G01 X2.66705 Y2.37226
G01 X2.66478 Y2.37138
G01 X2.66229 Y2.37069
G01 X2.65566 Y2.36939
G01 X2.64850 Y2.36921
G01 X2.64565 Y2.36937
G01 X2.63889 Y2.37069
G01 X2.63640 Y2.37138
G01 X2.63438 Y2.37216
G01 X2.63025 Y2.37399
G01 X2.62778 Y2.37527
G01 X2.62574 Y2.37661
G01 X2.62056 Y2.38051
G01 X2.61843 Y2.38260
G01 X2.61418 Y2.38749
G01 X2.61030 Y2.39384
G01 X2.60932 Y2.39577
G01 X2.60837 Y2.39817
G01 X2.60625 Y2.40530
G01 X2.60540 Y2.41248
G01 X2.60343 Y2.41252
G04 P0 ( dwell for no time -- G64 should not smooth over this point )
G00 Z0.07874 ( retract )

G00 X2.60343 Y0.40465 ( rapid move to begin. )
G01 F3.93701
( Mill infeed pass 1/1 )
G01 Z-0.00157
G04 P0 ( dwell for no time -- G64 should not smooth over this point )
G01 F7.87402
G01 X2.60343 Y0.40465
G01 X2.60540 Y0.40461
G01 X2.60625 Y0.39743
G01 X2.60837 Y0.39029
G01 X2.60932 Y0.38790
G01 X2.61030 Y0.38597
G01 X2.61418 Y0.37962
G01 X2.61843 Y0.37472
G01 X2.62056 Y0.37263
G01 X2.62574 Y0.36873
G01 X2.62778 Y0.36740
G01 X2.63025 Y0.36612
G01 X2.63438 Y0.36428
G01 X2.63640 Y0.36351
G01 X2.63889 Y0.36282
G01 X2.64565 Y0.36150
G01 X2.64850 Y0.36134
G01 X2.65566 Y0.36152
G01 X2.66229 Y0.36282
G01 X2.66478 Y0.36351
G01 X2.66705 Y0.36439
G01 X2.67352 Y0.36747
G01 X2.67883 Y0.37119
G01 X2.68113 Y0.37309
G01 X2.68555 Y0.37783
G01 X2.68734 Y0.38005
G01 X2.68866 Y0.38211
G01 X2.69180 Y0.38778
G01 X2.69290 Y0.39055
G01 X2.69493 Y0.39742
G01 X2.69575 Y0.40413
G01 X2.69586 Y0.40629
G01 X2.69575 Y0.40886
G01 X2.69493 Y0.41557
G01 X2.69289 Y0.42244
G01 X2.69203 Y0.42472
G01 X2.68866 Y0.43089
G01 X2.68700 Y0.43338
G01 X2.68256 Y0.43847
G01 X2.68103 Y0.44000
G01 X2.67905 Y0.44164
G01 X2.67292 Y0.44586
G01 X2.66680 Y0.44871
G01 X2.66438 Y0.44962
G01 X2.66229 Y0.45018
G01 X2.65552 Y0.45150
G01 X2.65268 Y0.45166
G01 X2.64620 Y0.45155
G01 X2.63916 Y0.45024
G01 X2.63640 Y0.44949
G01 X2.63413 Y0.44860
G01 X2.62766 Y0.44552
G01 X2.62213 Y0.44164
G01 X2.62045 Y0.44028
G01 X2.61861 Y0.43847
G01 X2.61418 Y0.43338
G01 X2.61043 Y0.42727
G01 X2.60932 Y0.42510
G01 X2.60837 Y0.42270
G01 X2.60639 Y0.41624
G01 X2.60543 Y0.40886
G01 X2.60540 Y0.40461
G01 X2.60343 Y0.40461
G01 X2.60348 Y0.40910
G01 X2.60429 Y0.41581
G01 X2.60640 Y0.42302
G01 X2.60731 Y0.42543
G01 X2.60875 Y0.42828
G01 X2.61209 Y0.43384
G01 X2.61694 Y0.43956
G01 X2.61875 Y0.44139
G01 X2.62122 Y0.44342
G01 X2.62653 Y0.44713
G01 X2.63330 Y0.45039
G01 X2.63570 Y0.45133
G01 X2.63878 Y0.45217
G01 X2.64514 Y0.45341
G01 X2.65265 Y0.45363
G01 X2.65522 Y0.45351
G01 X2.65827 Y0.45305
G01 X2.66489 Y0.45152
G01 X2.66788 Y0.45039
G01 X2.67376 Y0.44765
G01 X2.67996 Y0.44342
G01 X2.68197 Y0.44181
G01 X2.68423 Y0.43956
G01 X2.68899 Y0.43401
G01 X2.69038 Y0.43184
G01 X2.69387 Y0.42543
G01 X2.69478 Y0.42302
G01 X2.69689 Y0.41581
G01 X2.69768 Y0.40938
G01 X2.69782 Y0.40619
G01 X2.69768 Y0.40361
G01 X2.69667 Y0.39618
G01 X2.69478 Y0.38998
G01 X2.69387 Y0.38757
G01 X2.69017 Y0.38080
G01 X2.68862 Y0.37848
G01 X2.68699 Y0.37649
G01 X2.68257 Y0.37175
G01 X2.67996 Y0.36958
G01 X2.67376 Y0.36535
G01 X2.66788 Y0.36261
G01 X2.66489 Y0.36148
G01 X2.66240 Y0.36082
G01 X2.65501 Y0.35948
G01 X2.64853 Y0.35937
G01 X2.64596 Y0.35949
G01 X2.64291 Y0.35995
G01 X2.63629 Y0.36148
G01 X2.63339 Y0.36256
G01 X2.62945 Y0.36432
G01 X2.62670 Y0.36575
G01 X2.62455 Y0.36716
G01 X2.61937 Y0.37106
G01 X2.61722 Y0.37313
G01 X2.61209 Y0.37916
G01 X2.60875 Y0.38471
G01 X2.60731 Y0.38757
G01 X2.60640 Y0.38998
G01 X2.60451 Y0.39618
G01 X2.60343 Y0.40465
G01 X2.51873 Y0.40650
G01 X2.52161 Y0.43391
G01 X2.53013 Y0.46013
G01 X2.54391 Y0.48400
G01 X2.56236 Y0.50449
G01 X2.58466 Y0.52069
G01 X2.60984 Y0.53190
G01 X2.63681 Y0.53763
G01 X2.66437 Y0.53763
G01 X2.69134 Y0.53190
G01 X2.71652 Y0.52069
G01 X2.73882 Y0.50449
G01 X2.75726 Y0.48400
G01 X2.77105 Y0.46013
G01 X2.77957 Y0.43391
G01 X2.78245 Y0.40650
G01 X2.77957 Y0.37908
G01 X2.77105 Y0.35287
G01 X2.75726 Y0.32899
G01 X2.73882 Y0.30851
G01 X2.71652 Y0.29231
G01 X2.69134 Y0.28109
G01 X2.66437 Y0.27536
G01 X2.63681 Y0.27536
G01 X2.60984 Y0.28109
G01 X2.58466 Y0.29231
G01 X2.56236 Y0.30851
G01 X2.54391 Y0.32899
G01 X2.53013 Y0.35287
G01 X2.52161 Y0.37908
G01 X2.51873 Y0.40650
G01 X2.52071 Y0.40650
G01 X2.52354 Y0.43350
G01 X2.53193 Y0.45933
G01 X2.54551 Y0.48284
G01 X2.56368 Y0.50302
G01 X2.58564 Y0.51898
G01 X2.61045 Y0.53003
G01 X2.63701 Y0.53568
G01 X2.66417 Y0.53568
G01 X2.69073 Y0.53003
G01 X2.71553 Y0.51898
G01 X2.73750 Y0.50302
G01 X2.75567 Y0.48284
G01 X2.76925 Y0.45933
G01 X2.77764 Y0.43350
G01 X2.78048 Y0.40650
G01 X2.77764 Y0.37949
G01 X2.76925 Y0.35367
G01 X2.75567 Y0.33015
G01 X2.73750 Y0.30997
G01 X2.71553 Y0.29401
G01 X2.69073 Y0.28296
G01 X2.66417 Y0.27732
G01 X2.63701 Y0.27732
G01 X2.61045 Y0.28296
G01 X2.58564 Y0.29401
G01 X2.56368 Y0.30997
G01 X2.54551 Y0.33015
G01 X2.53193 Y0.35367
G01 X2.52354 Y0.37949
G01 X2.52071 Y0.40650
G04 P0 ( dwell for no time -- G64 should not smooth over this point )
G00 Z0.07874 ( retract )

G00 X2.50690 Y0.40631 ( rapid move to begin. )
G01 F3.93701
( Mill infeed pass 1/1 )
G01 Z-0.00157
G04 P0 ( dwell for no time -- G64 should not smooth over this point )
G01 F7.87402
G01 X2.50690 Y0.40631
G01 X2.51003 Y0.37662
G01 X2.51916 Y0.34843
G01 X2.53433 Y0.32203
G01 X2.55444 Y0.29971
G01 X2.57839 Y0.28227
G01 X2.60618 Y0.26983
G01 X2.63557 Y0.26358
G01 X2.66499 Y0.26355
G01 X2.69519 Y0.26990
G01 X2.72279 Y0.28228
G01 X2.74689 Y0.29985
G01 X2.76659 Y0.32171
G01 X2.78187 Y0.34805
G01 X2.79115 Y0.37662
G01 X2.79429 Y0.40650
G01 X2.79104 Y0.43677
G01 X2.78168 Y0.46531
G01 X2.76685 Y0.49096
G01 X2.74704 Y0.51300
G01 X2.72244 Y0.53095
G01 X2.69500 Y0.54316
G01 X2.66561 Y0.54941
G01 X2.63578 Y0.54942
G01 X2.60619 Y0.54317
G01 X2.57858 Y0.53081
G01 X2.55429 Y0.51314
G01 X2.53411 Y0.49062
G01 X2.51916 Y0.46456
G01 X2.51003 Y0.43637
G01 X2.50690 Y0.40631
G01 X2.50493 Y0.40631
G01 X2.50810 Y0.43678
G01 X2.51751 Y0.46575
G01 X2.53274 Y0.49212
G01 X2.55253 Y0.51417
G01 X2.55345 Y0.51499
G01 X2.57742 Y0.53241
G01 X2.57849 Y0.53302
G01 X2.60558 Y0.54504
G01 X2.63496 Y0.55128
G01 X2.63619 Y0.55141
G01 X2.66582 Y0.55137
G01 X2.69560 Y0.54504
G01 X2.72342 Y0.53265
G01 X2.74806 Y0.51475
G01 X2.76844 Y0.49212
G01 X2.78366 Y0.46575
G01 X2.79308 Y0.43678
G01 X2.79626 Y0.40650
G01 X2.79308 Y0.37621
G01 X2.78366 Y0.34725
G01 X2.76844 Y0.32088
G01 X2.74865 Y0.29883
G01 X2.74773 Y0.29800
G01 X2.72343 Y0.28035
G01 X2.69638 Y0.26825
G01 X2.69520 Y0.26787
G01 X2.66622 Y0.26171
G01 X2.66499 Y0.26158
G01 X2.63536 Y0.26163
G01 X2.60558 Y0.26796
G01 X2.57776 Y0.28034
G01 X2.55312 Y0.29824
G01 X2.53274 Y0.32088
G01 X2.51751 Y0.34725
G01 X2.50811 Y0.37621
G01 X2.50493 Y0.40631
G04 P0 ( dwell for no time -- G64 should not smooth over this point )
G00 Z0.07874 ( retract )

G00 X2.05029 Y0.24694 ( rapid move to begin. )
G01 F3.93701
( Mill infeed pass 1/1 )
G01 Z-0.00157
G04 P0 ( dwell for no time -- G64 should not smooth over this point )
G01 F7.87402
G01 X2.05029 Y0.24694
G01 X2.05121 Y0.23913
G01 X2.05201 Y0.23603
G01 X2.05460 Y0.22869
G01 X2.05805 Y0.22248
G01 X2.05948 Y0.22026
G01 X2.06139 Y0.21788
G01 X2.06674 Y0.21223
G01 X2.07241 Y0.20795
G01 X2.07463 Y0.20651
G01 X2.08179 Y0.20313
G01 X2.08401 Y0.20228
G01 X2.08669 Y0.20154
G01 X2.09461 Y0.20005
G01 X2.10171 Y0.19993
G01 X2.10435 Y0.20006
G01 X2.11186 Y0.20148
G01 X2.11442 Y0.20215
G01 X2.11702 Y0.20313
G01 X2.12384 Y0.20630
G01 X2.12635 Y0.20791
G01 X2.13034 Y0.21082
G01 X2.13249 Y0.21259
G01 X2.13435 Y0.21446
G01 X2.13901 Y0.21982
G01 X2.14077 Y0.22248
G01 X2.14449 Y0.22932
G01 X2.14688 Y0.23629
G01 X2.14750 Y0.23858
G01 X2.14795 Y0.24133
G01 X2.14861 Y0.24867
G01 X2.14799 Y0.25643
G01 X2.14750 Y0.25945
G01 X2.14680 Y0.26200
G01 X2.14421 Y0.26934
G01 X2.14063 Y0.27578
G01 X2.13910 Y0.27811
G01 X2.13742 Y0.28016
G01 X2.13207 Y0.28581
G01 X2.12618 Y0.29024
G01 X2.12384 Y0.29173
G01 X2.12172 Y0.29281
G01 X2.11494 Y0.29570
G01 X2.10737 Y0.29751
G01 X2.10476 Y0.29793
G01 X2.09711 Y0.29811
G01 X2.09392 Y0.29791
G01 X2.08669 Y0.29649
G01 X2.08401 Y0.29575
G01 X2.08179 Y0.29490
G01 X2.07511 Y0.29179
G01 X2.06870 Y0.28738
G01 X2.06664 Y0.28572
G01 X2.06465 Y0.28377
G01 X2.05981 Y0.27821
G01 X2.05804 Y0.27555
G01 X2.05460 Y0.26934
G01 X2.05201 Y0.26200
G01 X2.05121 Y0.25891
G01 X2.05032 Y0.25157
G01 X2.05029 Y0.24694
G01 X2.04832 Y0.24694
G01 X2.04837 Y0.25181
G01 X2.04926 Y0.25914
G01 X2.05015 Y0.26264
G01 X2.05246 Y0.26935
G01 X2.05632 Y0.27650
G01 X2.05783 Y0.27884
G01 X2.06298 Y0.28486
G01 X2.06494 Y0.28684
G01 X2.06724 Y0.28874
G01 X2.07338 Y0.29306
G01 X2.08071 Y0.29658
G01 X2.08330 Y0.29759
G01 X2.08658 Y0.29849
G01 X2.09355 Y0.29984
G01 X2.09673 Y0.30007
G01 X2.10507 Y0.29988
G01 X2.10781 Y0.29943
G01 X2.11571 Y0.29751
G01 X2.12224 Y0.29474
G01 X2.12526 Y0.29318
G01 X2.12759 Y0.29165
G01 X2.13402 Y0.28669
G01 X2.13886 Y0.28150
G01 X2.14099 Y0.27884
G01 X2.14249 Y0.27650
G01 X2.14593 Y0.27029
G01 X2.14866 Y0.26264
G01 X2.14940 Y0.25996
G01 X2.14995 Y0.25660
G01 X2.15057 Y0.24953
G01 X2.14995 Y0.24143
G01 X2.14953 Y0.23868
G01 X2.14866 Y0.23539
G01 X2.14635 Y0.22868
G01 X2.14249 Y0.22153
G01 X2.14099 Y0.21919
G01 X2.13555 Y0.21287
G01 X2.13342 Y0.21078
G01 X2.12751 Y0.20632
G01 X2.12526 Y0.20486
G01 X2.12234 Y0.20334
G01 X2.11552 Y0.20044
G01 X2.11264 Y0.19964
G01 X2.10527 Y0.19819
G01 X2.10208 Y0.19797
G01 X2.09355 Y0.19819
G01 X2.08658 Y0.19955
G01 X2.08330 Y0.20044
G01 X2.08071 Y0.20146
G01 X2.07355 Y0.20486
G01 X2.07123 Y0.20638
G01 X2.06480 Y0.21134
G01 X2.05995 Y0.21654
G01 X2.05783 Y0.21919
G01 X2.05632 Y0.22153
G01 X2.05288 Y0.22774
G01 X2.05015 Y0.23539
G01 X2.04942 Y0.23808
G01 X2.04832 Y0.24694
G04 P0 ( dwell for no time -- G64 should not smooth over this point )
G00 Z0.07874 ( retract )

G00 X0.77473 Y0.24623 ( rapid move to begin. )
G01 F3.93701
( Mill infeed pass 1/1 )
G01 Z-0.00157
G04 P0 ( dwell for no time -- G64 should not smooth over this point )
G01 F7.87402
G01 X0.77473 Y0.24623
G01 X0.77546 Y0.23907
G01 X0.77599 Y0.23571
G01 X0.77696 Y0.23203
G01 X0.77893 Y0.22596
G01 X0.78014 Y0.22279
G01 X0.78176 Y0.21956
G01 X0.78505 Y0.21386
G01 X0.78714 Y0.21067
G01 X0.78928 Y0.20803
G01 X0.79369 Y0.20314
G01 X0.79626 Y0.20061
G01 X0.79890 Y0.19847
G01 X0.80406 Y0.19472
G01 X0.80727 Y0.19266
G01 X0.81030 Y0.19112
G01 X0.81612 Y0.18853
G01 X0.81930 Y0.18730
G01 X0.82298 Y0.18630
G01 X0.82942 Y0.18494
G01 X0.83298 Y0.18440
G01 X0.83638 Y0.18422
G01 X0.84276 Y0.18422
G01 X0.84656 Y0.18444
G01 X0.84992 Y0.18498
G01 X0.85616 Y0.18630
G01 X0.85944 Y0.18718
G01 X0.86301 Y0.18853
G01 X0.86902 Y0.19121
G01 X0.87222 Y0.19287
G01 X0.87490 Y0.19461
G01 X0.88023 Y0.19847
G01 X0.88287 Y0.20061
G01 X0.88558 Y0.20329
G01 X0.88985 Y0.20803
G01 X0.89199 Y0.21067
G01 X0.89398 Y0.21369
G01 X0.89728 Y0.21939
G01 X0.89882 Y0.22241
G01 X0.90020 Y0.22596
G01 X0.90217 Y0.23203
G01 X0.90306 Y0.23531
G01 X0.90367 Y0.23907
G01 X0.90434 Y0.24541
G01 X0.90452 Y0.24922
G01 X0.90434 Y0.25262
G01 X0.90364 Y0.25917
G01 X0.90314 Y0.26232
G01 X0.90223 Y0.26581
G01 X0.90020 Y0.27207
G01 X0.89899 Y0.27525
G01 X0.89727 Y0.27865
G01 X0.89409 Y0.28417
G01 X0.89224 Y0.28703
G01 X0.88985 Y0.29000
G01 X0.88558 Y0.29474
G01 X0.88318 Y0.29715
G01 X0.88039 Y0.29944
G01 X0.87507 Y0.30331
G01 X0.87222 Y0.30517
G01 X0.86883 Y0.30691
G01 X0.86301 Y0.30951
G01 X0.85983 Y0.31073
G01 X0.85616 Y0.31173
G01 X0.84992 Y0.31306
G01 X0.84615 Y0.31364
G01 X0.84276 Y0.31381
G01 X0.83617 Y0.31380
G01 X0.83257 Y0.31359
G01 X0.82922 Y0.31306
G01 X0.82298 Y0.31173
G01 X0.81930 Y0.31073
G01 X0.81613 Y0.30951
G01 X0.81030 Y0.30691
G01 X0.80691 Y0.30517
G01 X0.80406 Y0.30331
G01 X0.79890 Y0.29956
G01 X0.79625 Y0.29743
G01 X0.79369 Y0.29489
G01 X0.78928 Y0.29000
G01 X0.78714 Y0.28736
G01 X0.78505 Y0.28418
G01 X0.78186 Y0.27865
G01 X0.78031 Y0.27563
G01 X0.77893 Y0.27207
G01 X0.77696 Y0.26601
G01 X0.77599 Y0.26232
G01 X0.77546 Y0.25896
G01 X0.77475 Y0.25222
G01 X0.77473 Y0.24623
G01 X0.77277 Y0.24623
G01 X0.77280 Y0.25242
G01 X0.77350 Y0.25917
G01 X0.77404 Y0.26263
G01 X0.77509 Y0.26661
G01 X0.77706 Y0.27268
G01 X0.77831 Y0.27595
G01 X0.78016 Y0.27964
G01 X0.78335 Y0.28516
G01 X0.78525 Y0.28810
G01 X0.78782 Y0.29132
G01 X0.79208 Y0.29606
G01 X0.79456 Y0.29854
G01 X0.79774 Y0.30115
G01 X0.80290 Y0.30490
G01 X0.80584 Y0.30682
G01 X0.80950 Y0.30871
G01 X0.81533 Y0.31130
G01 X0.81859 Y0.31257
G01 X0.82227 Y0.31358
G01 X0.82881 Y0.31498
G01 X0.83227 Y0.31554
G01 X0.83638 Y0.31578
G01 X0.84276 Y0.31578
G01 X0.84687 Y0.31554
G01 X0.85032 Y0.31498
G01 X0.85656 Y0.31366
G01 X0.86054 Y0.31257
G01 X0.86381 Y0.31130
G01 X0.86963 Y0.30871
G01 X0.87329 Y0.30682
G01 X0.87623 Y0.30490
G01 X0.88139 Y0.30115
G01 X0.88457 Y0.29854
G01 X0.88704 Y0.29606
G01 X0.89131 Y0.29132
G01 X0.89352 Y0.28860
G01 X0.89579 Y0.28516
G01 X0.89898 Y0.27963
G01 X0.90058 Y0.27652
G01 X0.90207 Y0.27268
G01 X0.90405 Y0.26661
G01 X0.90496 Y0.26323
G01 X0.90563 Y0.25917
G01 X0.90629 Y0.25282
G01 X0.90649 Y0.24933
G01 X0.90629 Y0.24521
G01 X0.90563 Y0.23887
G01 X0.90509 Y0.23540
G01 X0.90405 Y0.23142
G01 X0.90207 Y0.22535
G01 X0.90083 Y0.22208
G01 X0.89898 Y0.21840
G01 X0.89579 Y0.21288
G01 X0.89389 Y0.20993
G01 X0.89131 Y0.20671
G01 X0.88704 Y0.20197
G01 X0.88411 Y0.19908
G01 X0.88139 Y0.19688
G01 X0.87597 Y0.19296
G01 X0.87276 Y0.19091
G01 X0.86964 Y0.18933
G01 X0.86381 Y0.18673
G01 X0.86054 Y0.18547
G01 X0.85656 Y0.18438
G01 X0.85032 Y0.18305
G01 X0.84687 Y0.18250
G01 X0.84276 Y0.18226
G01 X0.83638 Y0.18226
G01 X0.83227 Y0.18250
G01 X0.82881 Y0.18305
G01 X0.82257 Y0.18438
G01 X0.81859 Y0.18547
G01 X0.81532 Y0.18673
G01 X0.80949 Y0.18933
G01 X0.80584 Y0.19122
G01 X0.80290 Y0.19313
G01 X0.79774 Y0.19688
G01 X0.79456 Y0.19949
G01 X0.79209 Y0.20197
G01 X0.78782 Y0.20671
G01 X0.78561 Y0.20943
G01 X0.78334 Y0.21287
G01 X0.78015 Y0.21840
G01 X0.77856 Y0.22152
G01 X0.77706 Y0.22535
G01 X0.77509 Y0.23142
G01 X0.77417 Y0.23480
G01 X0.77350 Y0.23887
G01 X0.77277 Y0.24623
G04 P0 ( dwell for no time -- G64 should not smooth over this point )
G00 Z0.07874 ( retract )

G00 X0.24123 Y0.40464 ( rapid move to begin. )
G01 F3.93701
( Mill infeed pass 1/1 )
G01 Z-0.00157
G04 P0 ( dwell for no time -- G64 should not smooth over this point )
G01 F7.87402
G01 X0.24123 Y0.40464
G01 X0.24320 Y0.40460
G01 X0.24415 Y0.39688
G01 X0.24479 Y0.39453
G01 X0.24690 Y0.38840
G01 X0.25032 Y0.38211
G01 X0.25197 Y0.37962
G01 X0.25641 Y0.37452
G01 X0.25794 Y0.37299
G01 X0.25993 Y0.37136
G01 X0.26605 Y0.36713
G01 X0.27218 Y0.36428
G01 X0.27420 Y0.36351
G01 X0.27668 Y0.36282
G01 X0.28345 Y0.36150
G01 X0.28629 Y0.36134
G01 X0.29346 Y0.36152
G01 X0.30009 Y0.36282
G01 X0.30257 Y0.36351
G01 X0.30484 Y0.36439
G01 X0.31120 Y0.36740
G01 X0.31324 Y0.36873
G01 X0.31892 Y0.37309
G01 X0.32352 Y0.37804
G01 X0.32513 Y0.38005
G01 X0.32631 Y0.38187
G01 X0.32959 Y0.38777
G01 X0.33198 Y0.39453
G01 X0.33262 Y0.39688
G01 X0.33305 Y0.39943
G01 X0.33365 Y0.40615
G01 X0.33308 Y0.41329
G01 X0.33271 Y0.41571
G01 X0.33198 Y0.41847
G01 X0.32959 Y0.42522
G01 X0.32645 Y0.43089
G01 X0.32480 Y0.43338
G01 X0.32036 Y0.43847
G01 X0.31883 Y0.44000
G01 X0.31684 Y0.44164
G01 X0.31072 Y0.44586
G01 X0.30459 Y0.44871
G01 X0.30257 Y0.44949
G01 X0.30009 Y0.45018
G01 X0.29332 Y0.45150
G01 X0.29048 Y0.45166
G01 X0.28400 Y0.45155
G01 X0.27695 Y0.45024
G01 X0.27420 Y0.44949
G01 X0.27193 Y0.44860
G01 X0.26605 Y0.44586
G01 X0.26375 Y0.44442
G01 X0.25785 Y0.43990
G01 X0.25325 Y0.43496
G01 X0.25164 Y0.43294
G01 X0.25032 Y0.43089
G01 X0.24690 Y0.42459
G01 X0.24471 Y0.41821
G01 X0.24404 Y0.41557
G01 X0.24323 Y0.40887
G01 X0.24320 Y0.40460
G01 X0.24123 Y0.40460
G01 X0.24127 Y0.40910
G01 X0.24209 Y0.41581
G01 X0.24293 Y0.41911
G01 X0.24504 Y0.42524
G01 X0.24860 Y0.43184
G01 X0.24999 Y0.43401
G01 X0.25199 Y0.43651
G01 X0.25641 Y0.44124
G01 X0.26234 Y0.44583
G01 X0.26450 Y0.44725
G01 X0.27109 Y0.45039
G01 X0.27349 Y0.45133
G01 X0.27658 Y0.45217
G01 X0.28294 Y0.45341
G01 X0.29044 Y0.45363
G01 X0.29301 Y0.45351
G01 X0.29607 Y0.45305
G01 X0.30269 Y0.45152
G01 X0.30568 Y0.45039
G01 X0.31155 Y0.44765
G01 X0.31775 Y0.44341
G01 X0.31976 Y0.44181
G01 X0.32203 Y0.43956
G01 X0.32678 Y0.43401
G01 X0.32817 Y0.43184
G01 X0.33173 Y0.42524
G01 X0.33384 Y0.41911
G01 X0.33465 Y0.41602
G01 X0.33504 Y0.41347
G01 X0.33561 Y0.40598
G01 X0.33504 Y0.39953
G01 X0.33452 Y0.39637
G01 X0.33384 Y0.39389
G01 X0.33131 Y0.38682
G01 X0.32817 Y0.38115
G01 X0.32678 Y0.37898
G01 X0.32478 Y0.37649
G01 X0.32036 Y0.37175
G01 X0.31443 Y0.36716
G01 X0.31155 Y0.36535
G01 X0.30568 Y0.36261
G01 X0.30328 Y0.36167
G01 X0.30060 Y0.36092
G01 X0.29281 Y0.35948
G01 X0.28633 Y0.35937
G01 X0.28376 Y0.35949
G01 X0.28070 Y0.35995
G01 X0.27408 Y0.36148
G01 X0.27109 Y0.36261
G01 X0.26522 Y0.36535
G01 X0.25869 Y0.36983
G01 X0.25655 Y0.37160
G01 X0.25502 Y0.37313
G01 X0.24999 Y0.37898
G01 X0.24860 Y0.38115
G01 X0.24504 Y0.38776
G01 X0.24293 Y0.39389
G01 X0.24225 Y0.39637
G01 X0.24123 Y0.40464
G01 X0.15653 Y0.40650
G01 X0.15941 Y0.43391
G01 X0.16793 Y0.46013
G01 X0.18171 Y0.48400
G01 X0.20016 Y0.50449
G01 X0.22246 Y0.52069
G01 X0.24764 Y0.53190
G01 X0.27460 Y0.53763
G01 X0.30217 Y0.53763
G01 X0.32913 Y0.53190
G01 X0.35431 Y0.52069
G01 X0.37661 Y0.50449
G01 X0.39506 Y0.48400
G01 X0.40884 Y0.46013
G01 X0.41736 Y0.43391
G01 X0.42024 Y0.40650
G01 X0.41736 Y0.37908
G01 X0.40884 Y0.35287
G01 X0.39506 Y0.32899
G01 X0.37661 Y0.30851
G01 X0.35431 Y0.29231
G01 X0.32913 Y0.28109
G01 X0.30217 Y0.27536
G01 X0.27460 Y0.27536
G01 X0.24764 Y0.28109
G01 X0.22246 Y0.29231
G01 X0.20016 Y0.30851
G01 X0.18171 Y0.32899
G01 X0.16793 Y0.35287
G01 X0.15941 Y0.37908
G01 X0.15653 Y0.40650
G01 X0.15851 Y0.40650
G01 X0.16133 Y0.43350
G01 X0.16973 Y0.45933
G01 X0.18330 Y0.48284
G01 X0.20147 Y0.50302
G01 X0.22344 Y0.51898
G01 X0.24825 Y0.53003
G01 X0.27481 Y0.53568
G01 X0.30196 Y0.53568
G01 X0.32852 Y0.53003
G01 X0.35333 Y0.51898
G01 X0.37530 Y0.50302
G01 X0.39347 Y0.48284
G01 X0.40704 Y0.45933
G01 X0.41544 Y0.43350
G01 X0.41827 Y0.40650
G01 X0.41544 Y0.37949
G01 X0.40704 Y0.35367
G01 X0.39347 Y0.33015
G01 X0.37530 Y0.30997
G01 X0.35333 Y0.29401
G01 X0.32852 Y0.28296
G01 X0.30196 Y0.27732
G01 X0.27481 Y0.27732
G01 X0.24825 Y0.28296
G01 X0.22344 Y0.29401
G01 X0.20147 Y0.30997
G01 X0.18330 Y0.33015
G01 X0.16973 Y0.35367
G01 X0.16133 Y0.37949
G01 X0.15851 Y0.40650
G04 P0 ( dwell for no time -- G64 should not smooth over this point )
G00 Z0.07874 ( retract )

G00 X0.14469 Y0.40631 ( rapid move to begin. )
G01 F3.93701
( Mill infeed pass 1/1 )
G01 Z-0.00157
G04 P0 ( dwell for no time -- G64 should not smooth over this point )
G01 F7.87402
G01 X0.14469 Y0.40631
G01 X0.14782 Y0.37662
G01 X0.15696 Y0.34843
G01 X0.17213 Y0.32203
G01 X0.19223 Y0.29971
G01 X0.21619 Y0.28227
G01 X0.24398 Y0.26983
G01 X0.27336 Y0.26358
G01 X0.30279 Y0.26355
G01 X0.33298 Y0.26990
G01 X0.36058 Y0.28228
G01 X0.38469 Y0.29985
G01 X0.40438 Y0.32171
G01 X0.41966 Y0.34805
G01 X0.42895 Y0.37662
G01 X0.43209 Y0.40650
G01 X0.42884 Y0.43677
G01 X0.41966 Y0.46495
G01 X0.40487 Y0.49062
G01 X0.38483 Y0.51300
G01 X0.36024 Y0.53095
G01 X0.33279 Y0.54316
G01 X0.30341 Y0.54941
G01 X0.27357 Y0.54942
G01 X0.24398 Y0.54317
G01 X0.21637 Y0.53081
G01 X0.19208 Y0.51314
G01 X0.17190 Y0.49062
G01 X0.15696 Y0.46456
G01 X0.14782 Y0.43637
G01 X0.14469 Y0.40631
G01 X0.14273 Y0.40631
G01 X0.14590 Y0.43678
G01 X0.15531 Y0.46575
G01 X0.17054 Y0.49212
G01 X0.19033 Y0.51417
G01 X0.19125 Y0.51499
G01 X0.21522 Y0.53241
G01 X0.21629 Y0.53302
G01 X0.24338 Y0.54504
G01 X0.27276 Y0.55128
G01 X0.27398 Y0.55141
G01 X0.30361 Y0.55137
G01 X0.33340 Y0.54504
G01 X0.36122 Y0.53265
G01 X0.38586 Y0.51475
G01 X0.40623 Y0.49212
G01 X0.42146 Y0.46575
G01 X0.43087 Y0.43678
G01 X0.43405 Y0.40650
G01 X0.43087 Y0.37621
G01 X0.42146 Y0.34725
G01 X0.40623 Y0.32088
G01 X0.38644 Y0.29883
G01 X0.38553 Y0.29800
G01 X0.36122 Y0.28035
G01 X0.33417 Y0.26825
G01 X0.33299 Y0.26787
G01 X0.30402 Y0.26171
G01 X0.30279 Y0.26158
G01 X0.27316 Y0.26163
G01 X0.24337 Y0.26796
G01 X0.21555 Y0.28034
G01 X0.19091 Y0.29824
G01 X0.17054 Y0.32088
G01 X0.15531 Y0.34725
G01 X0.14590 Y0.37621
G01 X0.14273 Y0.40631
G04 P0 ( dwell for no time -- G64 should not smooth over this point )
G00 Z0.07874 ( retract )

G00 X0.01968 Y0.01968 ( rapid move to begin. )
G01 F3.93701
( Mill infeed pass 1/1 )
G01 Z-0.00157
G04 P0 ( dwell for no time -- G64 should not smooth over this point )
G01 F7.87402
G01 X0.01968 Y0.01968
G01 X2.91929 Y0.01968
G01 X2.91987 Y0.01911
G01 X2.91929 Y0.01968
G01 X2.91929 Y2.80118
G01 X2.91987 Y2.80176
G01 X2.91929 Y2.80118
G01 X0.01968 Y2.80118
G01 X0.01911 Y2.80176
G01 X0.01968 Y2.80118
G01 X0.01968 Y0.01968
G01 X0.01772 Y0.01772
G01 X0.01772 Y2.80315
G01 X2.92126 Y2.80315
G01 X2.92126 Y0.01772
G01 X0.01772 Y0.01772
G04 P0 ( dwell for no time -- G64 should not smooth over this point )
G00 Z0.07874 ( retract )

G00 X0.00787 Y0.01280 ( rapid move to begin. )
G01 F3.93701
( Mill infeed pass 1/1 )
G01 Z-0.00157
G04 P0 ( dwell for no time -- G64 should not smooth over this point )
G01 F7.87402
G01 X0.00787 Y0.01280
G01 X0.00795 Y0.01203
G01 X0.00846 Y0.01059
G01 X0.00931 Y0.00932
G01 X0.01059 Y0.00846
G01 X0.01178 Y0.00801
G01 X0.01279 Y0.00787
G01 X2.92618 Y0.00787
G01 X2.92720 Y0.00801
G01 X2.92838 Y0.00846
G01 X2.92966 Y0.00932
G01 X2.93051 Y0.01059
G01 X2.93097 Y0.01178
G01 X2.93110 Y0.01280
G01 X2.93110 Y2.80807
G01 X2.93097 Y2.80909
G01 X2.93051 Y2.81027
G01 X2.92966 Y2.81155
G01 X2.92838 Y2.81241
G01 X2.92695 Y2.81292
G01 X2.92618 Y2.81299
G01 X0.01279 Y2.81299
G01 X0.01129 Y2.81269
G01 X0.00954 Y2.81176
G01 X0.00846 Y2.81027
G01 X0.00795 Y2.80884
G01 X0.00787 Y2.80807
G01 X0.00787 Y0.01280
G01 X0.00591 Y0.01280
G01 X0.00591 Y2.80807
G01 X0.00602 Y2.80922
G01 X0.00635 Y2.81033
G01 X0.00706 Y2.81185
G01 X0.00761 Y2.81260
G01 X0.00901 Y2.81380
G01 X0.00984 Y2.81422
G01 X0.01164 Y2.81485
G01 X0.01279 Y2.81496
G01 X2.92618 Y2.81496
G01 X2.92733 Y2.81485
G01 X2.92914 Y2.81422
G01 X2.92996 Y2.81380
G01 X2.93137 Y2.81260
G01 X2.93191 Y2.81185
G01 X2.93262 Y2.81033
G01 X2.93302 Y2.80884
G01 X2.93307 Y2.80807
G01 X2.93307 Y0.01280
G01 X2.93287 Y0.01127
G01 X2.93233 Y0.00984
G01 X2.93179 Y0.00882
G01 X2.93105 Y0.00792
G01 X2.93016 Y0.00719
G01 X2.92914 Y0.00664
G01 X2.92771 Y0.00611
G01 X2.92618 Y0.00591
G01 X0.01279 Y0.00591
G01 X0.01202 Y0.00596
G01 X0.01053 Y0.00636
G01 X0.00901 Y0.00707
G01 X0.00826 Y0.00761
G01 X0.00706 Y0.00901
G01 X0.00664 Y0.00984
G01 X0.00602 Y0.01164
G01 X0.00591 Y0.01280

G04 P0 ( dwell for no time -- G64 should not smooth over this point )
G00 Z0.393701 ( retract )

M5 ( Spindle off. )
G04 P1.000000
M9 ( Coolant off. )
M2 ( Program end. )

