( pcb2gcode 2.5.0 )
( Software-independent Gcode )

G94 ( Inches per minute feed rate. )
G20 ( Units == INCHES. )

G90 ( Absolute coordinates. )
G00 S12000 ( RPM spindle speed. )
G01 F7.87402 ( Feedrate. )


G00 Z0.39370 (Retract to tool change height)
T0
M5      (Spindle stop.)
G04 P1.00000 (Wait for spindle to stop)
(MSG, Change tool bit to mill diameter 0.00787in)
M0      (Temporary machine stop.)
M3 ( Spindle on clockwise. )
G04 P1.00000 (Wait for spindle to get up to speed)
G04 P0 ( dwell for no time -- G64 should not smooth over this point )
G00 Z0.07874 ( retract )

G00 X0.40311 Y2.33465 ( rapid move to begin. )
G01 F3.93701
( Mill infeed pass 1/1 )
G01 Z-0.00591
G04 P0 ( dwell for no time -- G64 should not smooth over this point )
G01 F7.87402
G01 X0.40311 Y2.33465
G01 X0.40404 Y2.32582
G01 X0.40641 Y2.31807
G01 X0.40823 Y2.31463
G01 X0.40823 Y2.30138
G01 X0.40853 Y2.29851
G01 X0.40942 Y2.29577
G01 X0.41086 Y2.29328
G01 X0.41279 Y2.29114
G01 X0.41477 Y2.28967
G01 X0.41775 Y2.28827
G01 X0.42016 Y2.28774
G01 X0.42180 Y2.28760
G01 X0.47227 Y2.28767
G01 X0.47547 Y2.28842
G01 X0.47772 Y2.28945
G01 X0.47973 Y2.29088
G01 X0.48197 Y2.29328
G01 X0.48356 Y2.29616
G01 X0.48431 Y2.29851
G01 X0.48458 Y2.30097
G01 X0.48461 Y2.31463
G01 X0.48643 Y2.31807
G01 X0.48889 Y2.32620
G01 X0.48971 Y2.33426
G01 X0.48972 Y2.33797
G01 X0.56121 Y2.40945
G01 X0.92319 Y2.40945
G01 X0.92319 Y2.13780
G01 X0.92396 Y2.12973
G01 X0.92665 Y2.12087
G01 X0.93072 Y2.11343
G01 X0.93616 Y2.10691
G01 X0.94277 Y2.10159
G01 X0.95029 Y2.09766
G01 X0.95805 Y2.09532
G01 X0.96688 Y2.09451
G01 X0.97494 Y2.09532
G01 X0.98342 Y2.09795
G01 X0.99022 Y2.10159
G01 X0.99683 Y2.10691
G01 X1.00227 Y2.11343
G01 X1.00634 Y2.12087
G01 X1.00903 Y2.12973
G01 X1.00980 Y2.13780
G01 X1.00980 Y2.40945
G01 X1.16480 Y2.40945
G01 X1.26768 Y2.30657
G01 X1.26768 Y2.29498
G01 X1.26798 Y2.29212
G01 X1.26887 Y2.28938
G01 X1.27008 Y2.28723
G01 X1.27256 Y2.28448
G01 X1.27457 Y2.28305
G01 X1.27720 Y2.28188
G01 X1.27961 Y2.28134
G01 X1.28125 Y2.28121
G01 X1.36224 Y2.28120
G01 X1.48264 Y2.16080
G01 X1.48264 Y2.01969
G01 X1.48347 Y2.01124
G01 X1.48580 Y2.00348
G01 X1.48974 Y1.99596
G01 X1.49561 Y1.98880
G01 X1.50222 Y1.98348
G01 X1.50902 Y1.97984
G01 X1.51712 Y1.97730
G01 X1.52556 Y1.97640
G01 X1.53439 Y1.97721
G01 X1.54287 Y1.97984
G01 X1.55031 Y1.98391
G01 X1.55683 Y1.98935
G01 X1.56215 Y1.99596
G01 X1.56579 Y2.00276
G01 X1.56842 Y2.01124
G01 X1.56923 Y2.01930
G01 X1.56925 Y2.17874
G01 X1.56848 Y2.18681
G01 X1.56608 Y2.19495
G01 X1.56172 Y2.20311
G01 X1.55657 Y2.20936
G01 X1.41080 Y2.35513
G01 X1.40588 Y2.35935
G01 X1.39956 Y2.36323
G01 X1.39326 Y2.36578
G01 X1.38664 Y2.36732
G01 X1.38018 Y2.36782
G01 X1.32892 Y2.36782
G01 X1.21336 Y2.48338
G01 X1.20646 Y2.48896
G01 X1.19895 Y2.49290
G01 X1.19118 Y2.49523
G01 X1.18274 Y2.49606
G01 X0.54327 Y2.49606
G01 X0.53444 Y2.49514
G01 X0.52634 Y2.49260
G01 X0.51954 Y2.48896
G01 X0.51264 Y2.48338
G01 X0.41553 Y2.38624
G01 X0.41021 Y2.37964
G01 X0.40657 Y2.37283
G01 X0.40404 Y2.36473
G01 X0.40311 Y2.35591
G01 X0.40311 Y2.33465
G01 X0.40114 Y2.33465
G01 X0.40114 Y2.35591
G01 X0.40201 Y2.36474
G01 X0.40459 Y2.37323
G01 X0.40847 Y2.38056
G01 X0.40912 Y2.38153
G01 X0.41440 Y2.38792
G01 X0.51125 Y2.48477
G01 X0.51765 Y2.49006
G01 X0.51861 Y2.49070
G01 X0.52649 Y2.49478
G01 X0.53443 Y2.49716
G01 X0.54327 Y2.49803
G01 X1.18274 Y2.49803
G01 X1.19100 Y2.49725
G01 X1.19213 Y2.49702
G01 X1.20006 Y2.49459
G01 X1.20739 Y2.49070
G01 X1.20835 Y2.49006
G01 X1.21475 Y2.48477
G01 X1.32974 Y2.36978
G01 X1.32968 Y2.36963
G01 X1.32974 Y2.36978
G01 X1.38018 Y2.36978
G01 X1.38680 Y2.36928
G01 X1.39372 Y2.36769
G01 X1.40031 Y2.36504
G01 X1.40715 Y2.36085
G01 X1.41219 Y2.35652
G01 X1.55796 Y2.21076
G01 X1.56324 Y2.20436
G01 X1.56389 Y2.20340
G01 X1.56797 Y2.19552
G01 X1.57043 Y2.18700
G01 X1.57122 Y2.17874
G01 X1.57122 Y2.01969
G01 X1.57043 Y2.01143
G01 X1.57021 Y2.01029
G01 X1.56777 Y2.00236
G01 X1.56389 Y1.99503
G01 X1.56324 Y1.99407
G01 X1.55796 Y1.98767
G01 X1.55156 Y1.98239
G01 X1.55060 Y1.98174
G01 X1.54327 Y1.97786
G01 X1.53534 Y1.97542
G01 X1.53420 Y1.97520
G01 X1.52594 Y1.97441
G01 X1.51768 Y1.97520
G01 X1.51655 Y1.97542
G01 X1.50862 Y1.97786
G01 X1.50129 Y1.98174
G01 X1.50033 Y1.98239
G01 X1.49393 Y1.98767
G01 X1.48864 Y1.99407
G01 X1.48800 Y1.99503
G01 X1.48412 Y2.00236
G01 X1.48168 Y2.01029
G01 X1.48070 Y2.01911
G01 X1.48067 Y2.15999
G01 X1.48082 Y2.16005
G01 X1.48067 Y2.15999
G01 X1.36142 Y2.27923
G01 X1.36149 Y2.27938
G01 X1.36142 Y2.27923
G01 X1.28115 Y2.27924
G01 X1.27920 Y2.27942
G01 X1.27659 Y2.28000
G01 X1.27358 Y2.28134
G01 X1.27140 Y2.28289
G01 X1.26911 Y2.28524
G01 X1.26838 Y2.28624
G01 X1.26707 Y2.28858
G01 X1.26605 Y2.29171
G01 X1.26571 Y2.29498
G01 X1.26571 Y2.30576
G01 X1.26585 Y2.30582
G01 X1.26571 Y2.30576
G01 X1.16398 Y2.40748
G01 X1.16404 Y2.40763
G01 X1.16398 Y2.40748
G01 X1.01177 Y2.40748
G01 X1.01119 Y2.40806
G01 X1.01177 Y2.40748
G01 X1.01177 Y2.13780
G01 X1.01099 Y2.12954
G01 X1.01076 Y2.12840
G01 X1.00832 Y2.12047
G01 X1.00444 Y2.11314
G01 X0.99890 Y2.10621
G01 X0.99808 Y2.10539
G01 X0.99115 Y2.09985
G01 X0.98382 Y2.09597
G01 X0.97589 Y2.09353
G01 X0.96707 Y2.09255
G01 X0.95824 Y2.09331
G01 X0.95710 Y2.09353
G01 X0.94917 Y2.09597
G01 X0.94184 Y2.09985
G01 X0.93491 Y2.10539
G01 X0.93409 Y2.10621
G01 X0.92855 Y2.11314
G01 X0.92467 Y2.12047
G01 X0.92223 Y2.12840
G01 X0.92201 Y2.12954
G01 X0.92122 Y2.13780
G01 X0.92122 Y2.40748
G01 X0.92180 Y2.40806
G01 X0.92122 Y2.40748
G01 X0.56202 Y2.40748
G01 X0.56196 Y2.40763
G01 X0.56202 Y2.40748
G01 X0.49169 Y2.33715
G01 X0.49157 Y2.33721
G01 X0.49169 Y2.33715
G01 X0.49166 Y2.33407
G01 X0.49082 Y2.32581
G01 X0.48825 Y2.31732
G01 X0.48652 Y2.31415
G01 X0.48654 Y2.30076
G01 X0.48623 Y2.29810
G01 X0.48543 Y2.29555
G01 X0.48357 Y2.29212
G01 X0.48088 Y2.28929
G01 X0.47870 Y2.28774
G01 X0.47627 Y2.28662
G01 X0.47248 Y2.28572
G01 X0.42170 Y2.28564
G01 X0.41975 Y2.28581
G01 X0.41714 Y2.28640
G01 X0.41362 Y2.28808
G01 X0.41147 Y2.28968
G01 X0.40927 Y2.29212
G01 X0.40762 Y2.29497
G01 X0.40660 Y2.29810
G01 X0.40626 Y2.30138
G01 X0.40631 Y2.31415
G01 X0.40459 Y2.31732
G01 X0.40215 Y2.32525
G01 X0.40193 Y2.32639
G01 X0.40114 Y2.33465
G04 P0 ( dwell for no time -- G64 should not smooth over this point )
G00 Z0.07874 ( retract )

G00 X0.10823 Y2.32579 ( rapid move to begin. )
G01 F3.93701
( Mill infeed pass 1/1 )
G01 Z-0.00591
G04 P0 ( dwell for no time -- G64 should not smooth over this point )
G01 F7.87402
G01 X0.10823 Y2.32579
G01 X0.10917 Y2.31745
G01 X0.11153 Y2.31026
G01 X0.11530 Y2.30369
G01 X0.12086 Y2.29741
G01 X0.12732 Y2.29272
G01 X0.13462 Y2.28947
G01 X0.14284 Y2.28779
G01 X0.15082 Y2.28787
G01 X0.15822 Y2.28947
G01 X0.16514 Y2.29253
G01 X0.17197 Y2.29741
G01 X0.17754 Y2.30369
G01 X0.18130 Y2.31026
G01 X0.18367 Y2.31745
G01 X0.18458 Y2.32538
G01 X0.18461 Y2.34350
G01 X0.18367 Y2.35184
G01 X0.18130 Y2.35904
G01 X0.17754 Y2.36561
G01 X0.17226 Y2.37159
G01 X0.16514 Y2.37676
G01 X0.15822 Y2.37982
G01 X0.15041 Y2.38148
G01 X0.14243 Y2.38148
G01 X0.13501 Y2.37993
G01 X0.12698 Y2.37635
G01 X0.12086 Y2.37188
G01 X0.11578 Y2.36627
G01 X0.11138 Y2.35865
G01 X0.10906 Y2.35144
G01 X0.10825 Y2.34392
G01 X0.10823 Y2.32579
G01 X0.10626 Y2.32579
G01 X0.10626 Y2.34350
G01 X0.10714 Y2.35185
G01 X0.10951 Y2.35926
G01 X0.11001 Y2.36039
G01 X0.11393 Y2.36711
G01 X0.11955 Y2.37335
G01 X0.12634 Y2.37828
G01 X0.13343 Y2.38147
G01 X0.13461 Y2.38186
G01 X0.14222 Y2.38344
G01 X0.15000 Y2.38347
G01 X0.15123 Y2.38334
G01 X0.15883 Y2.38170
G01 X0.16650 Y2.37828
G01 X0.17281 Y2.37374
G01 X0.17372 Y2.37291
G01 X0.17890 Y2.36711
G01 X0.18310 Y2.35984
G01 X0.18570 Y2.35185
G01 X0.18657 Y2.34350
G01 X0.18654 Y2.32517
G01 X0.18570 Y2.31744
G01 X0.18332 Y2.31003
G01 X0.18282 Y2.30890
G01 X0.17890 Y2.30218
G01 X0.17329 Y2.29595
G01 X0.16650 Y2.29101
G01 X0.15940 Y2.28782
G01 X0.15823 Y2.28744
G01 X0.15061 Y2.28585
G01 X0.14222 Y2.28585
G01 X0.13401 Y2.28760
G01 X0.12689 Y2.29073
G01 X0.12582 Y2.29135
G01 X0.11955 Y2.29595
G01 X0.11432 Y2.30170
G01 X0.11359 Y2.30270
G01 X0.11001 Y2.30890
G01 X0.10951 Y2.31003
G01 X0.10714 Y2.31744
G01 X0.10626 Y2.32579
G04 P0 ( dwell for no time -- G64 should not smooth over this point )
G00 Z0.07874 ( retract )

G00 X0.18854 Y2.01969 ( rapid move to begin. )
G01 F3.93701
( Mill infeed pass 1/1 )
G01 Z-0.00591
G04 P0 ( dwell for no time -- G64 should not smooth over this point )
G01 F7.87402
G01 X0.18854 Y2.01969
G01 X0.18936 Y2.02746
G01 X0.19178 Y2.03490
G01 X0.19569 Y2.04167
G01 X0.20048 Y2.04704
G01 X0.20140 Y2.04787
G01 X0.20673 Y2.05174
G01 X0.20780 Y2.05236
G01 X0.21439 Y2.05526
G01 X0.22142 Y2.05678
G01 X0.22265 Y2.05691
G01 X0.22985 Y2.05688
G01 X0.23750 Y2.05526
G01 X0.24465 Y2.05208
G01 X0.25097 Y2.04748
G01 X0.25620 Y2.04167
G01 X0.26011 Y2.03490
G01 X0.26253 Y2.02746
G01 X0.26335 Y2.01969
G01 X0.26253 Y2.01191
G01 X0.26011 Y2.00447
G01 X0.25620 Y1.99770
G01 X0.25141 Y1.99233
G01 X0.25049 Y1.99150
G01 X0.24516 Y1.98763
G01 X0.24409 Y1.98701
G01 X0.23750 Y1.98412
G01 X0.23046 Y1.98259
G01 X0.22924 Y1.98246
G01 X0.22204 Y1.98249
G01 X0.21439 Y1.98412
G01 X0.20724 Y1.98730
G01 X0.20092 Y1.99189
G01 X0.19569 Y1.99770
G01 X0.19178 Y2.00447
G01 X0.18936 Y2.01191
G01 X0.18854 Y2.01969
G01 X0.19051 Y2.01969
G01 X0.19139 Y2.02745
G01 X0.19358 Y2.03410
G01 X0.19728 Y2.04051
G01 X0.20256 Y2.04628
G01 X0.20823 Y2.05037
G01 X0.21461 Y2.05324
G01 X0.22224 Y2.05492
G01 X0.23006 Y2.05486
G01 X0.23689 Y2.05338
G01 X0.24329 Y2.05056
G01 X0.24965 Y2.04602
G01 X0.25461 Y2.04051
G01 X0.25846 Y2.03371
G01 X0.26067 Y2.02665
G01 X0.26138 Y2.01969
G01 X0.26067 Y2.01273
G01 X0.25831 Y2.00527
G01 X0.25461 Y1.99886
G01 X0.24965 Y1.99335
G01 X0.24329 Y1.98881
G01 X0.23689 Y1.98599
G01 X0.23006 Y1.98451
G01 X0.22265 Y1.98443
G01 X0.21500 Y1.98599
G01 X0.20823 Y1.98900
G01 X0.20224 Y1.99335
G01 X0.19705 Y1.99920
G01 X0.19358 Y2.00527
G01 X0.19139 Y2.01192
G01 X0.19051 Y2.01969
G04 P0 ( dwell for no time -- G64 should not smooth over this point )
G00 Z0.07874 ( retract )

G00 X0.38854 Y2.01969 ( rapid move to begin. )
G01 F3.93701
( Mill infeed pass 1/1 )
G01 Z-0.00591
G04 P0 ( dwell for no time -- G64 should not smooth over this point )
G01 F7.87402
G01 X0.38854 Y2.01969
G01 X0.38936 Y2.02746
G01 X0.39178 Y2.03490
G01 X0.39569 Y2.04167
G01 X0.40048 Y2.04704
G01 X0.40140 Y2.04787
G01 X0.40673 Y2.05174
G01 X0.40780 Y2.05236
G01 X0.41439 Y2.05526
G01 X0.42142 Y2.05678
G01 X0.42265 Y2.05691
G01 X0.42985 Y2.05688
G01 X0.43750 Y2.05526
G01 X0.44465 Y2.05208
G01 X0.45097 Y2.04748
G01 X0.45620 Y2.04167
G01 X0.46011 Y2.03490
G01 X0.46253 Y2.02746
G01 X0.46335 Y2.01969
G01 X0.46253 Y2.01191
G01 X0.46011 Y2.00447
G01 X0.45620 Y1.99770
G01 X0.45141 Y1.99233
G01 X0.45049 Y1.99150
G01 X0.44516 Y1.98763
G01 X0.44409 Y1.98701
G01 X0.43750 Y1.98412
G01 X0.43046 Y1.98259
G01 X0.42924 Y1.98246
G01 X0.42204 Y1.98249
G01 X0.41439 Y1.98412
G01 X0.40724 Y1.98730
G01 X0.40092 Y1.99189
G01 X0.39569 Y1.99770
G01 X0.39178 Y2.00447
G01 X0.38936 Y2.01191
G01 X0.38854 Y2.01969
G01 X0.39051 Y2.01969
G01 X0.39139 Y2.02745
G01 X0.39358 Y2.03410
G01 X0.39728 Y2.04051
G01 X0.40256 Y2.04628
G01 X0.40823 Y2.05037
G01 X0.41461 Y2.05324
G01 X0.42224 Y2.05492
G01 X0.43006 Y2.05486
G01 X0.43689 Y2.05338
G01 X0.44329 Y2.05056
G01 X0.44965 Y2.04602
G01 X0.45461 Y2.04051
G01 X0.45846 Y2.03371
G01 X0.46067 Y2.02665
G01 X0.46138 Y2.01969
G01 X0.46067 Y2.01273
G01 X0.45831 Y2.00527
G01 X0.45461 Y1.99886
G01 X0.44965 Y1.99335
G01 X0.44329 Y1.98881
G01 X0.43689 Y1.98599
G01 X0.43006 Y1.98451
G01 X0.42265 Y1.98443
G01 X0.41500 Y1.98599
G01 X0.40823 Y1.98900
G01 X0.40224 Y1.99335
G01 X0.39705 Y1.99920
G01 X0.39358 Y2.00527
G01 X0.39139 Y2.01192
G01 X0.39051 Y2.01969
G04 P0 ( dwell for no time -- G64 should not smooth over this point )
G00 Z0.07874 ( retract )

G00 X0.48854 Y2.01969 ( rapid move to begin. )
G01 F3.93701
( Mill infeed pass 1/1 )
G01 Z-0.00591
G04 P0 ( dwell for no time -- G64 should not smooth over this point )
G01 F7.87402
G01 X0.48854 Y2.01969
G01 X0.48936 Y2.02746
G01 X0.49178 Y2.03490
G01 X0.49569 Y2.04167
G01 X0.50048 Y2.04704
G01 X0.50140 Y2.04787
G01 X0.50673 Y2.05174
G01 X0.50780 Y2.05236
G01 X0.51439 Y2.05526
G01 X0.52142 Y2.05678
G01 X0.52265 Y2.05691
G01 X0.52985 Y2.05688
G01 X0.53750 Y2.05526
G01 X0.54465 Y2.05208
G01 X0.55097 Y2.04748
G01 X0.55620 Y2.04167
G01 X0.56011 Y2.03490
G01 X0.56253 Y2.02746
G01 X0.56335 Y2.01969
G01 X0.56253 Y2.01191
G01 X0.56011 Y2.00447
G01 X0.55620 Y1.99770
G01 X0.55141 Y1.99233
G01 X0.55049 Y1.99150
G01 X0.54516 Y1.98763
G01 X0.54409 Y1.98701
G01 X0.53750 Y1.98412
G01 X0.53046 Y1.98259
G01 X0.52924 Y1.98246
G01 X0.52204 Y1.98249
G01 X0.51439 Y1.98412
G01 X0.50724 Y1.98730
G01 X0.50092 Y1.99189
G01 X0.49569 Y1.99770
G01 X0.49178 Y2.00447
G01 X0.48936 Y2.01191
G01 X0.48854 Y2.01969
G01 X0.49051 Y2.01969
G01 X0.49139 Y2.02745
G01 X0.49358 Y2.03410
G01 X0.49728 Y2.04051
G01 X0.50256 Y2.04628
G01 X0.50823 Y2.05037
G01 X0.51461 Y2.05324
G01 X0.52224 Y2.05492
G01 X0.53006 Y2.05486
G01 X0.53689 Y2.05338
G01 X0.54329 Y2.05056
G01 X0.54965 Y2.04602
G01 X0.55461 Y2.04051
G01 X0.55846 Y2.03371
G01 X0.56067 Y2.02665
G01 X0.56138 Y2.01969
G01 X0.56067 Y2.01273
G01 X0.55831 Y2.00527
G01 X0.55461 Y1.99886
G01 X0.54965 Y1.99335
G01 X0.54329 Y1.98881
G01 X0.53689 Y1.98599
G01 X0.53006 Y1.98451
G01 X0.52265 Y1.98443
G01 X0.51500 Y1.98599
G01 X0.50823 Y1.98900
G01 X0.50224 Y1.99335
G01 X0.49705 Y1.99920
G01 X0.49358 Y2.00527
G01 X0.49139 Y2.01192
G01 X0.49051 Y2.01969
G04 P0 ( dwell for no time -- G64 should not smooth over this point )
G00 Z0.07874 ( retract )

G00 X0.58854 Y2.01969 ( rapid move to begin. )
G01 F3.93701
( Mill infeed pass 1/1 )
G01 Z-0.00591
G04 P0 ( dwell for no time -- G64 should not smooth over this point )
G01 F7.87402
G01 X0.58854 Y2.01969
G01 X0.58936 Y2.02746
G01 X0.59178 Y2.03490
G01 X0.59569 Y2.04167
G01 X0.60048 Y2.04704
G01 X0.60140 Y2.04787
G01 X0.60673 Y2.05174
G01 X0.60780 Y2.05236
G01 X0.61439 Y2.05526
G01 X0.62142 Y2.05678
G01 X0.62265 Y2.05691
G01 X0.62985 Y2.05688
G01 X0.63750 Y2.05526
G01 X0.64465 Y2.05208
G01 X0.65097 Y2.04748
G01 X0.65620 Y2.04167
G01 X0.66011 Y2.03490
G01 X0.66253 Y2.02746
G01 X0.66335 Y2.01969
G01 X0.66253 Y2.01191
G01 X0.66011 Y2.00447
G01 X0.65620 Y1.99770
G01 X0.65141 Y1.99233
G01 X0.65049 Y1.99150
G01 X0.64516 Y1.98763
G01 X0.64409 Y1.98701
G01 X0.63750 Y1.98412
G01 X0.63046 Y1.98259
G01 X0.62924 Y1.98246
G01 X0.62204 Y1.98249
G01 X0.61439 Y1.98412
G01 X0.60724 Y1.98730
G01 X0.60092 Y1.99189
G01 X0.59569 Y1.99770
G01 X0.59178 Y2.00447
G01 X0.58936 Y2.01191
G01 X0.58854 Y2.01969
G01 X0.59051 Y2.01969
G01 X0.59139 Y2.02745
G01 X0.59358 Y2.03410
G01 X0.59728 Y2.04051
G01 X0.60256 Y2.04628
G01 X0.60823 Y2.05037
G01 X0.61461 Y2.05324
G01 X0.62224 Y2.05492
G01 X0.63006 Y2.05486
G01 X0.63689 Y2.05338
G01 X0.64329 Y2.05056
G01 X0.64965 Y2.04602
G01 X0.65461 Y2.04051
G01 X0.65846 Y2.03371
G01 X0.66067 Y2.02665
G01 X0.66138 Y2.01969
G01 X0.66067 Y2.01273
G01 X0.65831 Y2.00527
G01 X0.65461 Y1.99886
G01 X0.64965 Y1.99335
G01 X0.64329 Y1.98881
G01 X0.63689 Y1.98599
G01 X0.63006 Y1.98451
G01 X0.62265 Y1.98443
G01 X0.61500 Y1.98599
G01 X0.60823 Y1.98900
G01 X0.60224 Y1.99335
G01 X0.59705 Y1.99920
G01 X0.59358 Y2.00527
G01 X0.59139 Y2.01192
G01 X0.59051 Y2.01969
G04 P0 ( dwell for no time -- G64 should not smooth over this point )
G00 Z0.07874 ( retract )

G00 X0.68854 Y2.01969 ( rapid move to begin. )
G01 F3.93701
( Mill infeed pass 1/1 )
G01 Z-0.00591
G04 P0 ( dwell for no time -- G64 should not smooth over this point )
G01 F7.87402
G01 X0.68854 Y2.01969
G01 X0.68936 Y2.02746
G01 X0.69178 Y2.03490
G01 X0.69569 Y2.04167
G01 X0.70048 Y2.04704
G01 X0.70140 Y2.04787
G01 X0.70673 Y2.05174
G01 X0.70780 Y2.05236
G01 X0.71439 Y2.05526
G01 X0.72142 Y2.05678
G01 X0.72265 Y2.05691
G01 X0.72985 Y2.05688
G01 X0.73750 Y2.05526
G01 X0.74465 Y2.05208
G01 X0.75097 Y2.04748
G01 X0.75620 Y2.04167
G01 X0.76011 Y2.03490
G01 X0.76253 Y2.02746
G01 X0.76334 Y2.01969
G01 X0.76253 Y2.01191
G01 X0.76011 Y2.00447
G01 X0.75620 Y1.99770
G01 X0.75141 Y1.99233
G01 X0.75049 Y1.99150
G01 X0.74516 Y1.98763
G01 X0.74409 Y1.98701
G01 X0.73750 Y1.98412
G01 X0.73046 Y1.98259
G01 X0.72924 Y1.98246
G01 X0.72204 Y1.98249
G01 X0.71439 Y1.98412
G01 X0.70724 Y1.98730
G01 X0.70092 Y1.99189
G01 X0.69569 Y1.99770
G01 X0.69178 Y2.00447
G01 X0.68936 Y2.01191
G01 X0.68854 Y2.01969
G01 X0.69051 Y2.01969
G01 X0.69139 Y2.02745
G01 X0.69358 Y2.03410
G01 X0.69728 Y2.04051
G01 X0.70256 Y2.04628
G01 X0.70823 Y2.05037
G01 X0.71461 Y2.05324
G01 X0.72224 Y2.05492
G01 X0.73005 Y2.05486
G01 X0.73689 Y2.05338
G01 X0.74329 Y2.05056
G01 X0.74965 Y2.04602
G01 X0.75461 Y2.04051
G01 X0.75846 Y2.03371
G01 X0.76067 Y2.02665
G01 X0.76138 Y2.01969
G01 X0.76067 Y2.01273
G01 X0.75831 Y2.00527
G01 X0.75461 Y1.99886
G01 X0.74965 Y1.99335
G01 X0.74329 Y1.98881
G01 X0.73650 Y1.98588
G01 X0.72965 Y1.98445
G01 X0.72265 Y1.98443
G01 X0.71499 Y1.98599
G01 X0.70823 Y1.98900
G01 X0.70194 Y1.99365
G01 X0.69728 Y1.99886
G01 X0.69376 Y2.00491
G01 X0.69129 Y2.01232
G01 X0.69051 Y2.01969
G04 P0 ( dwell for no time -- G64 should not smooth over this point )
G00 Z0.07874 ( retract )

G00 X0.78854 Y2.01969 ( rapid move to begin. )
G01 F3.93701
( Mill infeed pass 1/1 )
G01 Z-0.00591
G04 P0 ( dwell for no time -- G64 should not smooth over this point )
G01 F7.87402
G01 X0.78854 Y2.01969
G01 X0.78936 Y2.02746
G01 X0.79178 Y2.03490
G01 X0.79569 Y2.04167
G01 X0.80048 Y2.04704
G01 X0.80140 Y2.04787
G01 X0.80724 Y2.05208
G01 X0.81381 Y2.05503
G01 X0.81498 Y2.05542
G01 X0.82142 Y2.05678
G01 X0.82265 Y2.05691
G01 X0.82985 Y2.05688
G01 X0.83750 Y2.05526
G01 X0.84465 Y2.05208
G01 X0.85097 Y2.04748
G01 X0.85620 Y2.04167
G01 X0.86011 Y2.03490
G01 X0.86253 Y2.02746
G01 X0.86335 Y2.01969
G01 X0.86253 Y2.01191
G01 X0.86011 Y2.00447
G01 X0.85620 Y1.99770
G01 X0.85141 Y1.99233
G01 X0.85049 Y1.99150
G01 X0.84465 Y1.98730
G01 X0.83808 Y1.98434
G01 X0.83691 Y1.98396
G01 X0.83046 Y1.98259
G01 X0.82924 Y1.98246
G01 X0.82204 Y1.98249
G01 X0.81439 Y1.98412
G01 X0.80724 Y1.98730
G01 X0.80092 Y1.99189
G01 X0.79569 Y1.99770
G01 X0.79178 Y2.00447
G01 X0.78936 Y2.01191
G01 X0.78854 Y2.01969
G01 X0.79051 Y2.01969
G01 X0.79139 Y2.02745
G01 X0.79358 Y2.03410
G01 X0.79728 Y2.04051
G01 X0.80256 Y2.04628
G01 X0.80823 Y2.05037
G01 X0.81461 Y2.05324
G01 X0.82224 Y2.05492
G01 X0.83006 Y2.05486
G01 X0.83689 Y2.05338
G01 X0.84329 Y2.05056
G01 X0.84965 Y2.04602
G01 X0.85461 Y2.04051
G01 X0.85846 Y2.03371
G01 X0.86067 Y2.02665
G01 X0.86138 Y2.01969
G01 X0.86067 Y2.01273
G01 X0.85831 Y2.00527
G01 X0.85461 Y1.99886
G01 X0.84965 Y1.99335
G01 X0.84329 Y1.98881
G01 X0.83689 Y1.98599
G01 X0.83006 Y1.98451
G01 X0.82265 Y1.98443
G01 X0.81500 Y1.98599
G01 X0.80823 Y1.98900
G01 X0.80224 Y1.99335
G01 X0.79705 Y1.99920
G01 X0.79358 Y2.00527
G01 X0.79139 Y2.01192
G01 X0.79051 Y2.01969
G04 P0 ( dwell for no time -- G64 should not smooth over this point )
G00 Z0.07874 ( retract )

G00 X0.88854 Y2.01969 ( rapid move to begin. )
G01 F3.93701
( Mill infeed pass 1/1 )
G01 Z-0.00591
G04 P0 ( dwell for no time -- G64 should not smooth over this point )
G01 F7.87402
G01 X0.88854 Y2.01969
G01 X0.88936 Y2.02746
G01 X0.89178 Y2.03490
G01 X0.89569 Y2.04167
G01 X0.90048 Y2.04704
G01 X0.90140 Y2.04787
G01 X0.90673 Y2.05174
G01 X0.90780 Y2.05236
G01 X0.91439 Y2.05526
G01 X0.92142 Y2.05678
G01 X0.92265 Y2.05691
G01 X0.92985 Y2.05688
G01 X0.93750 Y2.05526
G01 X0.94465 Y2.05208
G01 X0.95097 Y2.04748
G01 X0.95620 Y2.04167
G01 X0.96011 Y2.03490
G01 X0.96253 Y2.02746
G01 X0.96335 Y2.01969
G01 X0.96253 Y2.01191
G01 X0.96011 Y2.00447
G01 X0.95620 Y1.99770
G01 X0.95141 Y1.99233
G01 X0.95049 Y1.99150
G01 X0.94516 Y1.98763
G01 X0.94409 Y1.98701
G01 X0.93750 Y1.98412
G01 X0.93046 Y1.98259
G01 X0.92924 Y1.98246
G01 X0.92204 Y1.98249
G01 X0.91439 Y1.98412
G01 X0.90724 Y1.98730
G01 X0.90092 Y1.99189
G01 X0.89569 Y1.99770
G01 X0.89178 Y2.00447
G01 X0.88936 Y2.01191
G01 X0.88854 Y2.01969
G01 X0.89051 Y2.01969
G01 X0.89139 Y2.02745
G01 X0.89358 Y2.03410
G01 X0.89728 Y2.04051
G01 X0.90256 Y2.04628
G01 X0.90823 Y2.05037
G01 X0.91461 Y2.05324
G01 X0.92224 Y2.05492
G01 X0.93006 Y2.05486
G01 X0.93689 Y2.05338
G01 X0.94329 Y2.05056
G01 X0.94965 Y2.04602
G01 X0.95461 Y2.04051
G01 X0.95846 Y2.03371
G01 X0.96067 Y2.02665
G01 X0.96138 Y2.01969
G01 X0.96067 Y2.01273
G01 X0.95831 Y2.00527
G01 X0.95461 Y1.99886
G01 X0.94965 Y1.99335
G01 X0.94329 Y1.98881
G01 X0.93689 Y1.98599
G01 X0.93006 Y1.98451
G01 X0.92265 Y1.98443
G01 X0.91500 Y1.98599
G01 X0.90823 Y1.98900
G01 X0.90224 Y1.99335
G01 X0.89705 Y1.99920
G01 X0.89358 Y2.00527
G01 X0.89139 Y2.01192
G01 X0.89051 Y2.01969
G04 P0 ( dwell for no time -- G64 should not smooth over this point )
G00 Z0.07874 ( retract )

G00 X0.98854 Y2.01969 ( rapid move to begin. )
G01 F3.93701
( Mill infeed pass 1/1 )
G01 Z-0.00591
G04 P0 ( dwell for no time -- G64 should not smooth over this point )
G01 F7.87402
G01 X0.98854 Y2.01969
G01 X0.98936 Y2.02746
G01 X0.99178 Y2.03490
G01 X0.99569 Y2.04167
G01 X1.00048 Y2.04704
G01 X1.00140 Y2.04787
G01 X1.00673 Y2.05174
G01 X1.00780 Y2.05236
G01 X1.01439 Y2.05526
G01 X1.02142 Y2.05678
G01 X1.02265 Y2.05691
G01 X1.02985 Y2.05688
G01 X1.03750 Y2.05526
G01 X1.04465 Y2.05208
G01 X1.05097 Y2.04748
G01 X1.05620 Y2.04167
G01 X1.06011 Y2.03490
G01 X1.06253 Y2.02746
G01 X1.06335 Y2.01969
G01 X1.06253 Y2.01191
G01 X1.06011 Y2.00447
G01 X1.05620 Y1.99770
G01 X1.05141 Y1.99233
G01 X1.05049 Y1.99150
G01 X1.04516 Y1.98763
G01 X1.04409 Y1.98701
G01 X1.03750 Y1.98412
G01 X1.03046 Y1.98259
G01 X1.02924 Y1.98246
G01 X1.02204 Y1.98249
G01 X1.01439 Y1.98412
G01 X1.00724 Y1.98730
G01 X1.00092 Y1.99189
G01 X0.99569 Y1.99770
G01 X0.99178 Y2.00447
G01 X0.98936 Y2.01191
G01 X0.98854 Y2.01969
G01 X0.99051 Y2.01969
G01 X0.99139 Y2.02745
G01 X0.99358 Y2.03410
G01 X0.99728 Y2.04051
G01 X1.00256 Y2.04628
G01 X1.00823 Y2.05037
G01 X1.01461 Y2.05324
G01 X1.02224 Y2.05492
G01 X1.03006 Y2.05486
G01 X1.03689 Y2.05338
G01 X1.04329 Y2.05056
G01 X1.04965 Y2.04602
G01 X1.05461 Y2.04051
G01 X1.05846 Y2.03371
G01 X1.06067 Y2.02665
G01 X1.06138 Y2.01969
G01 X1.06067 Y2.01273
G01 X1.05831 Y2.00527
G01 X1.05461 Y1.99886
G01 X1.04965 Y1.99335
G01 X1.04329 Y1.98881
G01 X1.03689 Y1.98599
G01 X1.03006 Y1.98451
G01 X1.02265 Y1.98443
G01 X1.01500 Y1.98599
G01 X1.00823 Y1.98900
G01 X1.00224 Y1.99335
G01 X0.99705 Y1.99920
G01 X0.99358 Y2.00527
G01 X0.99139 Y2.01192
G01 X0.99051 Y2.01969
G04 P0 ( dwell for no time -- G64 should not smooth over this point )
G00 Z0.07874 ( retract )

G00 X1.08854 Y2.01969 ( rapid move to begin. )
G01 F3.93701
( Mill infeed pass 1/1 )
G01 Z-0.00591
G04 P0 ( dwell for no time -- G64 should not smooth over this point )
G01 F7.87402
G01 X1.08854 Y2.01969
G01 X1.08936 Y2.02746
G01 X1.09178 Y2.03490
G01 X1.09569 Y2.04167
G01 X1.10048 Y2.04704
G01 X1.10140 Y2.04787
G01 X1.10673 Y2.05174
G01 X1.10780 Y2.05236
G01 X1.11439 Y2.05526
G01 X1.12142 Y2.05678
G01 X1.12265 Y2.05691
G01 X1.12985 Y2.05688
G01 X1.13750 Y2.05526
G01 X1.14465 Y2.05208
G01 X1.15097 Y2.04748
G01 X1.15620 Y2.04167
G01 X1.16011 Y2.03490
G01 X1.16253 Y2.02746
G01 X1.16335 Y2.01969
G01 X1.16253 Y2.01191
G01 X1.16011 Y2.00447
G01 X1.15620 Y1.99770
G01 X1.15141 Y1.99233
G01 X1.15049 Y1.99150
G01 X1.14516 Y1.98763
G01 X1.14409 Y1.98701
G01 X1.13750 Y1.98412
G01 X1.13046 Y1.98259
G01 X1.12924 Y1.98246
G01 X1.12204 Y1.98249
G01 X1.11439 Y1.98412
G01 X1.10724 Y1.98730
G01 X1.10092 Y1.99189
G01 X1.09569 Y1.99770
G01 X1.09178 Y2.00447
G01 X1.08936 Y2.01191
G01 X1.08854 Y2.01969
G01 X1.09051 Y2.01969
G01 X1.09139 Y2.02745
G01 X1.09358 Y2.03410
G01 X1.09728 Y2.04051
G01 X1.10256 Y2.04628
G01 X1.10823 Y2.05037
G01 X1.11461 Y2.05324
G01 X1.12224 Y2.05492
G01 X1.13006 Y2.05486
G01 X1.13689 Y2.05338
G01 X1.14329 Y2.05056
G01 X1.14965 Y2.04602
G01 X1.15461 Y2.04051
G01 X1.15846 Y2.03371
G01 X1.16067 Y2.02665
G01 X1.16138 Y2.01969
G01 X1.16067 Y2.01273
G01 X1.15831 Y2.00527
G01 X1.15461 Y1.99886
G01 X1.14965 Y1.99335
G01 X1.14329 Y1.98881
G01 X1.13689 Y1.98599
G01 X1.13006 Y1.98451
G01 X1.12265 Y1.98443
G01 X1.11500 Y1.98599
G01 X1.10823 Y1.98900
G01 X1.10224 Y1.99335
G01 X1.09705 Y1.99920
G01 X1.09358 Y2.00527
G01 X1.09139 Y2.01192
G01 X1.09051 Y2.01969
G04 P0 ( dwell for no time -- G64 should not smooth over this point )
G00 Z0.07874 ( retract )

G00 X1.18854 Y2.01969 ( rapid move to begin. )
G01 F3.93701
( Mill infeed pass 1/1 )
G01 Z-0.00591
G04 P0 ( dwell for no time -- G64 should not smooth over this point )
G01 F7.87402
G01 X1.18854 Y2.01969
G01 X1.18936 Y2.02746
G01 X1.19178 Y2.03490
G01 X1.19569 Y2.04167
G01 X1.20048 Y2.04704
G01 X1.20140 Y2.04787
G01 X1.20673 Y2.05174
G01 X1.20780 Y2.05236
G01 X1.21439 Y2.05526
G01 X1.22142 Y2.05678
G01 X1.22265 Y2.05691
G01 X1.22985 Y2.05688
G01 X1.23750 Y2.05526
G01 X1.24465 Y2.05208
G01 X1.25097 Y2.04748
G01 X1.25620 Y2.04167
G01 X1.26011 Y2.03490
G01 X1.26253 Y2.02746
G01 X1.26335 Y2.01969
G01 X1.26253 Y2.01191
G01 X1.26011 Y2.00447
G01 X1.25620 Y1.99770
G01 X1.25141 Y1.99233
G01 X1.25049 Y1.99150
G01 X1.24516 Y1.98763
G01 X1.24409 Y1.98701
G01 X1.23750 Y1.98412
G01 X1.23046 Y1.98259
G01 X1.22924 Y1.98246
G01 X1.22204 Y1.98249
G01 X1.21439 Y1.98412
G01 X1.20724 Y1.98730
G01 X1.20092 Y1.99189
G01 X1.19569 Y1.99770
G01 X1.19178 Y2.00447
G01 X1.18936 Y2.01191
G01 X1.18854 Y2.01969
G01 X1.19051 Y2.01969
G01 X1.19139 Y2.02745
G01 X1.19358 Y2.03410
G01 X1.19728 Y2.04051
G01 X1.20256 Y2.04628
G01 X1.20823 Y2.05037
G01 X1.21461 Y2.05324
G01 X1.22224 Y2.05492
G01 X1.23006 Y2.05486
G01 X1.23689 Y2.05338
G01 X1.24329 Y2.05056
G01 X1.24965 Y2.04602
G01 X1.25461 Y2.04051
G01 X1.25846 Y2.03371
G01 X1.26067 Y2.02665
G01 X1.26138 Y2.01969
G01 X1.26067 Y2.01273
G01 X1.25831 Y2.00527
G01 X1.25461 Y1.99886
G01 X1.24965 Y1.99335
G01 X1.24329 Y1.98881
G01 X1.23689 Y1.98599
G01 X1.23006 Y1.98451
G01 X1.22265 Y1.98443
G01 X1.21500 Y1.98599
G01 X1.20823 Y1.98900
G01 X1.20224 Y1.99335
G01 X1.19705 Y1.99920
G01 X1.19358 Y2.00527
G01 X1.19139 Y2.01192
G01 X1.19051 Y2.01969
G04 P0 ( dwell for no time -- G64 should not smooth over this point )
G00 Z0.07874 ( retract )

G00 X1.28854 Y2.01969 ( rapid move to begin. )
G01 F3.93701
( Mill infeed pass 1/1 )
G01 Z-0.00591
G04 P0 ( dwell for no time -- G64 should not smooth over this point )
G01 F7.87402
G01 X1.28854 Y2.01969
G01 X1.28936 Y2.02746
G01 X1.29178 Y2.03490
G01 X1.29569 Y2.04167
G01 X1.30048 Y2.04704
G01 X1.30140 Y2.04787
G01 X1.30673 Y2.05174
G01 X1.30780 Y2.05236
G01 X1.31439 Y2.05526
G01 X1.32142 Y2.05678
G01 X1.32265 Y2.05691
G01 X1.32985 Y2.05688
G01 X1.33750 Y2.05526
G01 X1.34465 Y2.05208
G01 X1.35097 Y2.04748
G01 X1.35620 Y2.04167
G01 X1.36011 Y2.03490
G01 X1.36253 Y2.02746
G01 X1.36335 Y2.01969
G01 X1.36253 Y2.01191
G01 X1.36011 Y2.00447
G01 X1.35620 Y1.99770
G01 X1.35141 Y1.99233
G01 X1.35049 Y1.99150
G01 X1.34516 Y1.98763
G01 X1.34409 Y1.98701
G01 X1.33750 Y1.98412
G01 X1.33046 Y1.98259
G01 X1.32924 Y1.98246
G01 X1.32204 Y1.98249
G01 X1.31439 Y1.98412
G01 X1.30724 Y1.98730
G01 X1.30092 Y1.99189
G01 X1.29569 Y1.99770
G01 X1.29178 Y2.00447
G01 X1.28936 Y2.01191
G01 X1.28854 Y2.01969
G01 X1.29051 Y2.01969
G01 X1.29139 Y2.02745
G01 X1.29358 Y2.03410
G01 X1.29728 Y2.04051
G01 X1.30256 Y2.04628
G01 X1.30823 Y2.05037
G01 X1.31461 Y2.05324
G01 X1.32224 Y2.05492
G01 X1.33006 Y2.05486
G01 X1.33689 Y2.05338
G01 X1.34329 Y2.05056
G01 X1.34965 Y2.04602
G01 X1.35461 Y2.04051
G01 X1.35846 Y2.03371
G01 X1.36067 Y2.02665
G01 X1.36138 Y2.01969
G01 X1.36067 Y2.01273
G01 X1.35831 Y2.00527
G01 X1.35461 Y1.99886
G01 X1.34965 Y1.99335
G01 X1.34329 Y1.98881
G01 X1.33689 Y1.98599
G01 X1.33006 Y1.98451
G01 X1.32265 Y1.98443
G01 X1.31500 Y1.98599
G01 X1.30823 Y1.98900
G01 X1.30224 Y1.99335
G01 X1.29705 Y1.99920
G01 X1.29358 Y2.00527
G01 X1.29139 Y2.01192
G01 X1.29051 Y2.01969
G04 P0 ( dwell for no time -- G64 should not smooth over this point )
G00 Z0.07874 ( retract )

G00 X1.38854 Y2.01969 ( rapid move to begin. )
G01 F3.93701
( Mill infeed pass 1/1 )
G01 Z-0.00591
G04 P0 ( dwell for no time -- G64 should not smooth over this point )
G01 F7.87402
G01 X1.38854 Y2.01969
G01 X1.38936 Y2.02746
G01 X1.39178 Y2.03490
G01 X1.39569 Y2.04167
G01 X1.40048 Y2.04704
G01 X1.40140 Y2.04787
G01 X1.40673 Y2.05174
G01 X1.40780 Y2.05236
G01 X1.41439 Y2.05526
G01 X1.42142 Y2.05678
G01 X1.42265 Y2.05691
G01 X1.42985 Y2.05688
G01 X1.43750 Y2.05526
G01 X1.44465 Y2.05208
G01 X1.45097 Y2.04748
G01 X1.45620 Y2.04167
G01 X1.46011 Y2.03490
G01 X1.46253 Y2.02746
G01 X1.46335 Y2.01969
G01 X1.46253 Y2.01191
G01 X1.46011 Y2.00447
G01 X1.45620 Y1.99770
G01 X1.45141 Y1.99233
G01 X1.45049 Y1.99150
G01 X1.44516 Y1.98763
G01 X1.44409 Y1.98701
G01 X1.43750 Y1.98412
G01 X1.43046 Y1.98259
G01 X1.42924 Y1.98246
G01 X1.42204 Y1.98249
G01 X1.41439 Y1.98412
G01 X1.40724 Y1.98730
G01 X1.40092 Y1.99189
G01 X1.39569 Y1.99770
G01 X1.39178 Y2.00447
G01 X1.38936 Y2.01191
G01 X1.38854 Y2.01969
G01 X1.39051 Y2.01969
G01 X1.39139 Y2.02745
G01 X1.39358 Y2.03410
G01 X1.39728 Y2.04051
G01 X1.40256 Y2.04628
G01 X1.40823 Y2.05037
G01 X1.41461 Y2.05324
G01 X1.42224 Y2.05492
G01 X1.43006 Y2.05486
G01 X1.43689 Y2.05338
G01 X1.44329 Y2.05056
G01 X1.44965 Y2.04602
G01 X1.45461 Y2.04051
G01 X1.45846 Y2.03371
G01 X1.46067 Y2.02665
G01 X1.46138 Y2.01969
G01 X1.46067 Y2.01273
G01 X1.45831 Y2.00527
G01 X1.45461 Y1.99886
G01 X1.44965 Y1.99335
G01 X1.44329 Y1.98881
G01 X1.43689 Y1.98599
G01 X1.43006 Y1.98451
G01 X1.42265 Y1.98443
G01 X1.41500 Y1.98599
G01 X1.40823 Y1.98900
G01 X1.40224 Y1.99335
G01 X1.39705 Y1.99920
G01 X1.39358 Y2.00527
G01 X1.39139 Y2.01192
G01 X1.39051 Y2.01969
G04 P0 ( dwell for no time -- G64 should not smooth over this point )
G00 Z0.07874 ( retract )

G00 X1.58854 Y2.01969 ( rapid move to begin. )
G01 F3.93701
( Mill infeed pass 1/1 )
G01 Z-0.00591
G04 P0 ( dwell for no time -- G64 should not smooth over this point )
G01 F7.87402
G01 X1.58854 Y2.01969
G01 X1.58936 Y2.02746
G01 X1.59178 Y2.03490
G01 X1.59569 Y2.04167
G01 X1.60048 Y2.04704
G01 X1.60140 Y2.04787
G01 X1.60673 Y2.05174
G01 X1.60780 Y2.05236
G01 X1.61439 Y2.05526
G01 X1.62142 Y2.05678
G01 X1.62265 Y2.05691
G01 X1.62985 Y2.05688
G01 X1.63750 Y2.05526
G01 X1.64465 Y2.05208
G01 X1.65097 Y2.04748
G01 X1.65620 Y2.04167
G01 X1.66011 Y2.03490
G01 X1.66253 Y2.02746
G01 X1.66335 Y2.01969
G01 X1.66253 Y2.01191
G01 X1.66011 Y2.00447
G01 X1.65620 Y1.99770
G01 X1.65141 Y1.99233
G01 X1.65049 Y1.99150
G01 X1.64516 Y1.98763
G01 X1.64409 Y1.98701
G01 X1.63750 Y1.98412
G01 X1.63046 Y1.98259
G01 X1.62924 Y1.98246
G01 X1.62204 Y1.98249
G01 X1.61439 Y1.98412
G01 X1.60724 Y1.98730
G01 X1.60092 Y1.99189
G01 X1.59569 Y1.99770
G01 X1.59178 Y2.00447
G01 X1.58936 Y2.01191
G01 X1.58854 Y2.01969
G01 X1.59051 Y2.01969
G01 X1.59139 Y2.02745
G01 X1.59358 Y2.03410
G01 X1.59728 Y2.04051
G01 X1.60256 Y2.04628
G01 X1.60823 Y2.05037
G01 X1.61461 Y2.05324
G01 X1.62224 Y2.05492
G01 X1.63006 Y2.05486
G01 X1.63689 Y2.05338
G01 X1.64329 Y2.05056
G01 X1.64965 Y2.04602
G01 X1.65461 Y2.04051
G01 X1.65846 Y2.03371
G01 X1.66067 Y2.02665
G01 X1.66138 Y2.01969
G01 X1.66067 Y2.01273
G01 X1.65831 Y2.00527
G01 X1.65461 Y1.99886
G01 X1.64965 Y1.99335
G01 X1.64329 Y1.98881
G01 X1.63689 Y1.98599
G01 X1.63006 Y1.98451
G01 X1.62265 Y1.98443
G01 X1.61500 Y1.98599
G01 X1.60823 Y1.98900
G01 X1.60224 Y1.99335
G01 X1.59705 Y1.99920
G01 X1.59358 Y2.00527
G01 X1.59139 Y2.01192
G01 X1.59051 Y2.01969
G04 P0 ( dwell for no time -- G64 should not smooth over this point )
G00 Z0.07874 ( retract )

G00 X1.08264 Y1.41969 ( rapid move to begin. )
G01 F3.93701
( Mill infeed pass 1/1 )
G01 Z-0.00591
G04 P0 ( dwell for no time -- G64 should not smooth over this point )
G01 F7.87402
G01 X1.08264 Y1.41969
G01 X1.08356 Y1.41086
G01 X1.08610 Y1.40276
G01 X1.08974 Y1.39596
G01 X1.09561 Y1.38880
G01 X1.10222 Y1.38348
G01 X1.10902 Y1.37984
G01 X1.11788 Y1.37715
G01 X1.12633 Y1.37640
G01 X1.13439 Y1.37721
G01 X1.14287 Y1.37984
G01 X1.15031 Y1.38391
G01 X1.15657 Y1.38906
G01 X1.16172 Y1.39532
G01 X1.16579 Y1.40276
G01 X1.16848 Y1.41162
G01 X1.16925 Y1.41969
G01 X1.16925 Y1.50175
G01 X1.19113 Y1.52362
G01 X2.11982 Y1.52362
G01 X2.33067 Y1.31277
G01 X2.33067 Y1.23622
G01 X2.33097 Y1.23471
G01 X2.33182 Y1.23344
G01 X2.33310 Y1.23258
G01 X2.33461 Y1.23228
G01 X2.41335 Y1.23228
G01 X2.41469 Y1.23252
G01 X2.41588 Y1.23321
G01 X2.41636 Y1.23369
G01 X2.41705 Y1.23487
G01 X2.41728 Y1.23622
G01 X2.41727 Y1.33102
G01 X2.41679 Y1.33718
G01 X2.41525 Y1.34380
G01 X2.41269 Y1.35009
G01 X2.40918 Y1.35591
G01 X2.40460 Y1.36133
G01 X2.16838 Y1.59755
G01 X2.16213 Y1.60271
G01 X2.15468 Y1.60678
G01 X2.14582 Y1.60946
G01 X2.13776 Y1.61024
G01 X1.17319 Y1.61024
G01 X1.16474 Y1.60940
G01 X1.15627 Y1.60678
G01 X1.14882 Y1.60271
G01 X1.14257 Y1.59755
G01 X1.09532 Y1.55031
G01 X1.09017 Y1.54406
G01 X1.08610 Y1.53661
G01 X1.08347 Y1.52813
G01 X1.08264 Y1.51969
G01 X1.08264 Y1.41969
G01 X1.08067 Y1.41969
G01 X1.08067 Y1.51969
G01 X1.08145 Y1.52795
G01 X1.08168 Y1.52908
G01 X1.08412 Y1.53701
G01 X1.08800 Y1.54434
G01 X1.08864 Y1.54530
G01 X1.09393 Y1.55170
G01 X1.14117 Y1.59894
G01 X1.14757 Y1.60423
G01 X1.15534 Y1.60851
G01 X1.16379 Y1.61119
G01 X1.16493 Y1.61142
G01 X1.17319 Y1.61220
G01 X2.13776 Y1.61220
G01 X2.14601 Y1.61142
G01 X2.14715 Y1.61119
G01 X2.15560 Y1.60851
G01 X2.16337 Y1.60423
G01 X2.16977 Y1.59894
G01 X2.40599 Y1.36272
G01 X2.41032 Y1.35769
G01 X2.41409 Y1.35167
G01 X2.41687 Y1.34514
G01 X2.41860 Y1.33825
G01 X2.41923 Y1.33117
G01 X2.41916 Y1.23520
G01 X2.41846 Y1.23327
G01 X2.41714 Y1.23170
G01 X2.41537 Y1.23067
G01 X2.41335 Y1.23032
G01 X2.33461 Y1.23032
G01 X2.33345 Y1.23043
G01 X2.33235 Y1.23077
G01 X2.33133 Y1.23131
G01 X2.33043 Y1.23205
G01 X2.32970 Y1.23294
G01 X2.32915 Y1.23396
G01 X2.32881 Y1.23507
G01 X2.32870 Y1.23622
G01 X2.32870 Y1.31196
G01 X2.32885 Y1.31202
G01 X2.32870 Y1.31196
G01 X2.11900 Y1.52166
G01 X2.11906 Y1.52180
G01 X2.11900 Y1.52166
G01 X1.19194 Y1.52166
G01 X1.19188 Y1.52180
G01 X1.19194 Y1.52166
G01 X1.17122 Y1.50093
G01 X1.17107 Y1.50099
G01 X1.17122 Y1.50093
G01 X1.17122 Y1.41969
G01 X1.17043 Y1.41143
G01 X1.17021 Y1.41029
G01 X1.16752 Y1.40184
G01 X1.16324 Y1.39407
G01 X1.15796 Y1.38767
G01 X1.15156 Y1.38239
G01 X1.15060 Y1.38174
G01 X1.14327 Y1.37786
G01 X1.13534 Y1.37542
G01 X1.12652 Y1.37444
G01 X1.12537 Y1.37444
G01 X1.11655 Y1.37542
G01 X1.10862 Y1.37786
G01 X1.10129 Y1.38174
G01 X1.09436 Y1.38728
G01 X1.09354 Y1.38810
G01 X1.08800 Y1.39503
G01 X1.08412 Y1.40236
G01 X1.08168 Y1.41029
G01 X1.08145 Y1.41143
G01 X1.08067 Y1.41969
G04 P0 ( dwell for no time -- G64 should not smooth over this point )
G00 Z0.07874 ( retract )

G00 X0.98264 Y1.41969 ( rapid move to begin. )
G01 F3.93701
( Mill infeed pass 1/1 )
G01 Z-0.00591
G04 P0 ( dwell for no time -- G64 should not smooth over this point )
G01 F7.87402
G01 X0.98264 Y1.41969
G01 X0.98347 Y1.41124
G01 X0.98580 Y1.40348
G01 X0.99017 Y1.39532
G01 X0.99532 Y1.38906
G01 X1.00222 Y1.38348
G01 X1.00902 Y1.37984
G01 X1.01712 Y1.37730
G01 X1.02633 Y1.37640
G01 X1.03439 Y1.37721
G01 X1.04287 Y1.37984
G01 X1.04967 Y1.38348
G01 X1.05628 Y1.38880
G01 X1.06215 Y1.39596
G01 X1.06579 Y1.40276
G01 X1.06833 Y1.41086
G01 X1.06925 Y1.41969
G01 X1.06925 Y1.61828
G01 X1.11239 Y1.66142
G01 X2.01965 Y1.66142
G01 X2.02809 Y1.66225
G01 X2.03657 Y1.66488
G01 X2.04337 Y1.66852
G01 X2.04998 Y1.67384
G01 X2.05585 Y1.68100
G01 X2.05949 Y1.68780
G01 X2.06203 Y1.69590
G01 X2.06293 Y1.70434
G01 X2.06295 Y2.13386
G01 X2.51216 Y2.13388
G01 X2.52022 Y2.13469
G01 X2.52403 Y2.13583
G01 X2.53736 Y2.13583
G01 X2.54596 Y2.13673
G01 X2.55418 Y2.13940
G01 X2.56131 Y2.14350
G01 X2.56808 Y2.14951
G01 X2.57316 Y2.15650
G01 X2.57668 Y2.16439
G01 X2.57847 Y2.17284
G01 X2.57841 Y2.18189
G01 X2.57668 Y2.18994
G01 X2.57335 Y2.19747
G01 X2.56808 Y2.20483
G01 X2.56166 Y2.21061
G01 X2.55418 Y2.21493
G01 X2.54596 Y2.21760
G01 X2.53736 Y2.21850
G01 X2.52403 Y2.21850
G01 X2.52022 Y2.21964
G01 X2.51216 Y2.22045
G01 X2.01965 Y2.22047
G01 X2.01120 Y2.21964
G01 X2.00738 Y2.21850
G01 X1.99406 Y2.21850
G01 X1.98587 Y2.21767
G01 X1.97724 Y2.21493
G01 X1.96944 Y2.21035
G01 X1.96333 Y2.20483
G01 X1.95848 Y2.19818
G01 X1.95474 Y2.18994
G01 X1.95292 Y2.18108
G01 X1.95294 Y2.17284
G01 X1.95463 Y2.16479
G01 X1.95825 Y2.15650
G01 X1.96363 Y2.14921
G01 X1.96976 Y2.14372
G01 X1.97634 Y2.13990
G01 X1.97634 Y1.74803
G01 X1.09445 Y1.74803
G01 X1.08638 Y1.74726
G01 X1.07824 Y1.74487
G01 X1.07072 Y1.74093
G01 X1.06383 Y1.73535
G01 X0.99532 Y1.66684
G01 X0.99110 Y1.66192
G01 X0.98751 Y1.65615
G01 X0.98467 Y1.64931
G01 X0.98313 Y1.64269
G01 X0.98264 Y1.63622
G01 X0.98264 Y1.41969
G01 X0.98067 Y1.41969
G01 X0.98067 Y1.63622
G01 X0.98117 Y1.64284
G01 X0.98276 Y1.64977
G01 X0.98583 Y1.65718
G01 X0.98960 Y1.66320
G01 X0.99393 Y1.66824
G01 X1.06243 Y1.73674
G01 X1.06883 Y1.74202
G01 X1.06979 Y1.74267
G01 X1.07767 Y1.74675
G01 X1.08619 Y1.74921
G01 X1.09445 Y1.75000
G01 X1.97437 Y1.75000
G01 X1.97495 Y1.74942
G01 X1.97437 Y1.75000
G01 X1.97437 Y2.13876
G01 X1.97463 Y2.13891
G01 X1.97437 Y2.13876
G01 X1.96860 Y2.14213
G01 X1.96231 Y2.14775
G01 X1.96148 Y2.14867
G01 X1.95655 Y2.15551
G01 X1.95309 Y2.16321
G01 X1.95271 Y2.16438
G01 X1.95099 Y2.17264
G01 X1.95095 Y2.18108
G01 X1.95108 Y2.18230
G01 X1.95287 Y2.19055
G01 X1.95627 Y2.19827
G01 X1.95689 Y2.19934
G01 X1.96187 Y2.20614
G01 X1.96812 Y2.21181
G01 X1.96912 Y2.21254
G01 X1.97644 Y2.21673
G01 X1.98445 Y2.21937
G01 X1.98566 Y2.21962
G01 X1.99406 Y2.22047
G01 X2.00710 Y2.22045
G01 X2.01139 Y2.22166
G01 X2.01965 Y2.22244
G01 X2.51177 Y2.22244
G01 X2.52003 Y2.22166
G01 X2.52432 Y2.22045
G01 X2.53736 Y2.22047
G01 X2.54576 Y2.21962
G01 X2.54696 Y2.21937
G01 X2.55440 Y2.21695
G01 X2.55553 Y2.21645
G01 X2.56230 Y2.21254
G01 X2.56330 Y2.21181
G01 X2.56955 Y2.20614
G01 X2.57453 Y2.19934
G01 X2.57515 Y2.19827
G01 X2.57855 Y2.19055
G01 X2.58033 Y2.18230
G01 X2.58046 Y2.18108
G01 X2.58046 Y2.17326
G01 X2.58033 Y2.17203
G01 X2.57855 Y2.16378
G01 X2.57515 Y2.15606
G01 X2.57453 Y2.15499
G01 X2.56955 Y2.14819
G01 X2.56282 Y2.14213
G01 X2.55498 Y2.13760
G01 X2.54696 Y2.13497
G01 X2.54576 Y2.13471
G01 X2.53736 Y2.13386
G01 X2.52432 Y2.13388
G01 X2.52003 Y2.13268
G01 X2.51177 Y2.13189
G01 X2.06492 Y2.13189
G01 X2.06434 Y2.13247
G01 X2.06492 Y2.13189
G01 X2.06489 Y1.70415
G01 X2.06391 Y1.69533
G01 X2.06147 Y1.68740
G01 X2.05759 Y1.68007
G01 X2.05205 Y1.67314
G01 X2.05123 Y1.67232
G01 X2.04430 Y1.66678
G01 X2.03749 Y1.66314
G01 X2.02904 Y1.66046
G01 X2.02790 Y1.66024
G01 X2.01965 Y1.65945
G01 X1.11320 Y1.65945
G01 X1.11314 Y1.65960
G01 X1.11320 Y1.65945
G01 X1.07122 Y1.61747
G01 X1.07107 Y1.61753
G01 X1.07122 Y1.61747
G01 X1.07122 Y1.41969
G01 X1.07043 Y1.41143
G01 X1.07021 Y1.41029
G01 X1.06777 Y1.40236
G01 X1.06389 Y1.39503
G01 X1.05835 Y1.38810
G01 X1.05753 Y1.38728
G01 X1.05060 Y1.38174
G01 X1.04327 Y1.37786
G01 X1.03534 Y1.37542
G01 X1.02652 Y1.37444
G01 X1.02537 Y1.37444
G01 X1.01655 Y1.37542
G01 X1.00862 Y1.37786
G01 X1.00129 Y1.38174
G01 X1.00033 Y1.38239
G01 X0.99393 Y1.38767
G01 X0.98864 Y1.39407
G01 X0.98800 Y1.39503
G01 X0.98392 Y1.40291
G01 X0.98145 Y1.41143
G01 X0.98067 Y1.41969
G04 P0 ( dwell for no time -- G64 should not smooth over this point )
G00 Z0.07874 ( retract )

G00 X0.88264 Y1.32205 ( rapid move to begin. )
G01 F3.93701
( Mill infeed pass 1/1 )
G01 Z-0.00591
G04 P0 ( dwell for no time -- G64 should not smooth over this point )
G01 F7.87402
G01 X0.88264 Y1.32205
G01 X0.88323 Y1.31497
G01 X0.88467 Y1.30896
G01 X0.88723 Y1.30267
G01 X0.89074 Y1.29685
G01 X0.89532 Y1.29143
G01 X0.96569 Y1.22109
G01 X0.97229 Y1.21576
G01 X0.97910 Y1.21212
G01 X0.98720 Y1.20959
G01 X0.99602 Y1.20866
G01 X1.31745 Y1.20866
G01 X1.65466 Y0.87148
G01 X1.66127 Y0.86616
G01 X1.66843 Y0.86235
G01 X1.67618 Y0.85998
G01 X1.68500 Y0.85906
G01 X1.69382 Y0.85998
G01 X1.70157 Y0.86235
G01 X1.70873 Y0.86616
G01 X1.71534 Y0.87148
G01 X1.72078 Y0.87799
G01 X1.72501 Y0.88579
G01 X1.72738 Y0.89354
G01 X1.72831 Y0.90236
G01 X1.72738 Y0.91119
G01 X1.72501 Y0.91894
G01 X1.72121 Y0.92609
G01 X1.71588 Y0.93270
G01 X1.36602 Y1.28259
G01 X1.36059 Y1.28718
G01 X1.35477 Y1.29069
G01 X1.34848 Y1.29324
G01 X1.34186 Y1.29478
G01 X1.33539 Y1.29528
G01 X1.01396 Y1.29528
G01 X0.96925 Y1.33999
G01 X0.96925 Y1.41969
G01 X0.96842 Y1.42813
G01 X0.96579 Y1.43661
G01 X0.96215 Y1.44341
G01 X0.95683 Y1.45002
G01 X0.94967 Y1.45589
G01 X0.94287 Y1.45953
G01 X0.93477 Y1.46207
G01 X0.92633 Y1.46297
G01 X0.91712 Y1.46207
G01 X0.90902 Y1.45953
G01 X0.90222 Y1.45589
G01 X0.89506 Y1.45002
G01 X0.88974 Y1.44341
G01 X0.88580 Y1.43590
G01 X0.88347 Y1.42813
G01 X0.88264 Y1.41969
G01 X0.88264 Y1.32205
G01 X0.88067 Y1.32205
G01 X0.88067 Y1.41969
G01 X0.88145 Y1.42795
G01 X0.88168 Y1.42908
G01 X0.88412 Y1.43701
G01 X0.88800 Y1.44434
G01 X0.88864 Y1.44530
G01 X0.89393 Y1.45170
G01 X0.90033 Y1.45699
G01 X0.90129 Y1.45763
G01 X0.90862 Y1.46151
G01 X0.91655 Y1.46395
G01 X0.91768 Y1.46418
G01 X0.92594 Y1.46496
G01 X0.93420 Y1.46418
G01 X0.93534 Y1.46395
G01 X0.94327 Y1.46151
G01 X0.95060 Y1.45763
G01 X0.95156 Y1.45699
G01 X0.95796 Y1.45170
G01 X0.96324 Y1.44530
G01 X0.96752 Y1.43754
G01 X0.97021 Y1.42908
G01 X0.97043 Y1.42795
G01 X0.97122 Y1.41969
G01 X0.97122 Y1.34080
G01 X0.97107 Y1.34074
G01 X0.97122 Y1.34080
G01 X1.01478 Y1.29724
G01 X1.01471 Y1.29710
G01 X1.01478 Y1.29724
G01 X1.33539 Y1.29724
G01 X1.34202 Y1.29674
G01 X1.34894 Y1.29515
G01 X1.35635 Y1.29208
G01 X1.36237 Y1.28831
G01 X1.36741 Y1.28398
G01 X1.71701 Y0.93438
G01 X1.72230 Y0.92798
G01 X1.72658 Y0.92021
G01 X1.72926 Y0.91176
G01 X1.72949 Y0.91062
G01 X1.73027 Y0.90236
G01 X1.72949 Y0.89410
G01 X1.72926 Y0.89297
G01 X1.72658 Y0.88451
G01 X1.72230 Y0.87674
G01 X1.71658 Y0.86996
G01 X1.70966 Y0.86442
G01 X1.70232 Y0.86053
G01 X1.69439 Y0.85810
G01 X1.69326 Y0.85787
G01 X1.68500 Y0.85709
G01 X1.67674 Y0.85787
G01 X1.67560 Y0.85810
G01 X1.66767 Y0.86053
G01 X1.66034 Y0.86442
G01 X1.65938 Y0.86506
G01 X1.65298 Y0.87035
G01 X1.31664 Y1.20670
G01 X1.31670 Y1.20684
G01 X1.31664 Y1.20670
G01 X0.99602 Y1.20670
G01 X0.98776 Y1.20748
G01 X0.98663 Y1.20771
G01 X0.97924 Y1.20995
G01 X0.97137 Y1.21403
G01 X0.96444 Y1.21957
G01 X0.89393 Y1.29003
G01 X0.88906 Y1.29582
G01 X0.88541 Y1.30191
G01 X0.88304 Y1.30762
G01 X0.88132 Y1.31451
G01 X0.88067 Y1.32205
G04 P0 ( dwell for no time -- G64 should not smooth over this point )
G00 Z0.07874 ( retract )

G00 X0.78264 Y1.20551 ( rapid move to begin. )
G01 F3.93701
( Mill infeed pass 1/1 )
G01 Z-0.00591
G04 P0 ( dwell for no time -- G64 should not smooth over this point )
G01 F7.87402
G01 X0.78264 Y1.20551
G01 X0.78347 Y1.19706
G01 X0.78610 Y1.18859
G01 X0.79016 Y1.18114
G01 X0.79532 Y1.17489
G01 X0.84758 Y1.12266
G01 X0.85418 Y1.11734
G01 X0.86099 Y1.11370
G01 X0.86909 Y1.11116
G01 X0.87791 Y1.11024
G01 X1.15525 Y1.11024
G01 X1.39847 Y0.86702
G01 X1.40472 Y0.86186
G01 X1.41252 Y0.85763
G01 X1.42065 Y0.85516
G01 X1.42948 Y0.85435
G01 X1.43792 Y0.85526
G01 X1.44602 Y0.85779
G01 X1.45315 Y0.86163
G01 X1.45943 Y0.86676
G01 X1.46487 Y0.87327
G01 X1.46894 Y0.88072
G01 X1.47163 Y0.88957
G01 X1.47238 Y0.89725
G01 X1.47163 Y0.90571
G01 X1.46894 Y0.91456
G01 X1.46510 Y0.92170
G01 X1.45998 Y0.92798
G01 X1.20381 Y1.18417
G01 X1.19692 Y1.18975
G01 X1.19011 Y1.19339
G01 X1.18201 Y1.19593
G01 X1.17319 Y1.19685
G01 X0.89585 Y1.19685
G01 X0.86925 Y1.22345
G01 X0.86925 Y1.41969
G01 X0.86842 Y1.42813
G01 X0.86579 Y1.43661
G01 X0.86172 Y1.44406
G01 X0.85657 Y1.45031
G01 X0.85031 Y1.45546
G01 X0.84287 Y1.45953
G01 X0.83439 Y1.46216
G01 X0.82633 Y1.46297
G01 X0.81749 Y1.46216
G01 X0.80973 Y1.45983
G01 X0.80222 Y1.45589
G01 X0.79532 Y1.45031
G01 X0.79016 Y1.44406
G01 X0.78610 Y1.43661
G01 X0.78347 Y1.42813
G01 X0.78264 Y1.41969
G01 X0.78264 Y1.20551
G01 X0.78067 Y1.20551
G01 X0.78067 Y1.41969
G01 X0.78145 Y1.42795
G01 X0.78168 Y1.42908
G01 X0.78412 Y1.43701
G01 X0.78800 Y1.44434
G01 X0.78864 Y1.44530
G01 X0.79393 Y1.45170
G01 X0.80033 Y1.45699
G01 X0.80129 Y1.45763
G01 X0.80862 Y1.46151
G01 X0.81655 Y1.46395
G01 X0.81768 Y1.46418
G01 X0.82594 Y1.46496
G01 X0.83420 Y1.46418
G01 X0.83534 Y1.46395
G01 X0.84327 Y1.46151
G01 X0.85060 Y1.45763
G01 X0.85156 Y1.45699
G01 X0.85796 Y1.45170
G01 X0.86324 Y1.44530
G01 X0.86389 Y1.44434
G01 X0.86777 Y1.43701
G01 X0.87021 Y1.42908
G01 X0.87043 Y1.42795
G01 X0.87122 Y1.41969
G01 X0.87122 Y1.22427
G01 X0.87107 Y1.22420
G01 X0.87122 Y1.22427
G01 X0.89667 Y1.19882
G01 X0.89660 Y1.19867
G01 X0.89667 Y1.19882
G01 X1.17319 Y1.19882
G01 X1.18145 Y1.19803
G01 X1.18258 Y1.19781
G01 X1.18997 Y1.19557
G01 X1.19784 Y1.19149
G01 X1.19881 Y1.19084
G01 X1.20520 Y1.18556
G01 X1.46150 Y0.92922
G01 X1.46674 Y0.92279
G01 X1.47067 Y0.91549
G01 X1.47336 Y0.90703
G01 X1.47358 Y0.90590
G01 X1.47437 Y0.89764
G01 X1.47358 Y0.88938
G01 X1.47336 Y0.88824
G01 X1.47092 Y0.88031
G01 X1.46704 Y0.87298
G01 X1.46639 Y0.87202
G01 X1.46068 Y0.86524
G01 X1.45375 Y0.85970
G01 X1.44642 Y0.85581
G01 X1.43849 Y0.85337
G01 X1.43735 Y0.85315
G01 X1.42909 Y0.85236
G01 X1.42083 Y0.85315
G01 X1.41970 Y0.85337
G01 X1.41177 Y0.85581
G01 X1.40444 Y0.85970
G01 X1.40348 Y0.86034
G01 X1.39708 Y0.86562
G01 X1.15443 Y1.10827
G01 X1.15450 Y1.10842
G01 X1.15443 Y1.10827
G01 X0.87791 Y1.10827
G01 X0.86965 Y1.10905
G01 X0.86852 Y1.10928
G01 X0.86059 Y1.11172
G01 X0.85326 Y1.11560
G01 X0.84633 Y1.12114
G01 X0.79393 Y1.17350
G01 X0.78864 Y1.17989
G01 X0.78800 Y1.18086
G01 X0.78412 Y1.18819
G01 X0.78168 Y1.19612
G01 X0.78145 Y1.19725
G01 X0.78067 Y1.20551
G04 P0 ( dwell for no time -- G64 should not smooth over this point )
G00 Z0.07874 ( retract )

G00 X0.68264 Y1.10866 ( rapid move to begin. )
G01 F3.93701
( Mill infeed pass 1/1 )
G01 Z-0.00591
G04 P0 ( dwell for no time -- G64 should not smooth over this point )
G01 F7.87402
G01 X0.68264 Y1.10866
G01 X0.68323 Y1.10158
G01 X0.68486 Y1.09499
G01 X0.68751 Y1.08873
G01 X0.69110 Y1.08296
G01 X0.69511 Y1.07827
G01 X0.76855 Y1.00481
G01 X0.77480 Y0.99966
G01 X0.78225 Y0.99559
G01 X0.79035 Y0.99305
G01 X0.79917 Y0.99213
G01 X1.03146 Y0.99213
G01 X1.03146 Y0.90984
G01 X1.03223 Y0.90178
G01 X1.03492 Y0.89292
G01 X1.03856 Y0.88612
G01 X1.04388 Y0.87951
G01 X1.05103 Y0.87364
G01 X1.05855 Y0.86970
G01 X1.06631 Y0.86737
G01 X1.07438 Y0.86656
G01 X1.08321 Y0.86737
G01 X1.09169 Y0.87000
G01 X1.09913 Y0.87407
G01 X1.10565 Y0.87951
G01 X1.11097 Y0.88612
G01 X1.11461 Y0.89292
G01 X1.11724 Y0.90140
G01 X1.11807 Y0.90984
G01 X1.11805 Y1.03582
G01 X1.11724 Y1.04388
G01 X1.11461 Y1.05236
G01 X1.11097 Y1.05916
G01 X1.10565 Y1.06577
G01 X1.09913 Y1.07121
G01 X1.09097 Y1.07557
G01 X1.08321 Y1.07791
G01 X1.07476 Y1.07874
G01 X0.81711 Y1.07874
G01 X0.76925 Y1.12660
G01 X0.76925 Y1.41969
G01 X0.76847 Y1.42775
G01 X0.76579 Y1.43661
G01 X0.76172 Y1.44406
G01 X0.75656 Y1.45031
G01 X0.75031 Y1.45546
G01 X0.74286 Y1.45953
G01 X0.73439 Y1.46216
G01 X0.72633 Y1.46297
G01 X0.71749 Y1.46216
G01 X0.70902 Y1.45953
G01 X0.70188 Y1.45569
G01 X0.69532 Y1.45031
G01 X0.68974 Y1.44341
G01 X0.68593 Y1.43626
G01 X0.68347 Y1.42813
G01 X0.68264 Y1.41969
G01 X0.68264 Y1.10866
G01 X0.68067 Y1.10866
G01 X0.68067 Y1.41969
G01 X0.68154 Y1.42852
G01 X0.68411 Y1.43701
G01 X0.68800 Y1.44434
G01 X0.68864 Y1.44530
G01 X0.69393 Y1.45170
G01 X0.70079 Y1.45733
G01 X0.70862 Y1.46151
G01 X0.71655 Y1.46395
G01 X0.71768 Y1.46418
G01 X0.72594 Y1.46496
G01 X0.73420 Y1.46418
G01 X0.73534 Y1.46395
G01 X0.74379 Y1.46127
G01 X0.75156 Y1.45699
G01 X0.75796 Y1.45170
G01 X0.76324 Y1.44530
G01 X0.76752 Y1.43754
G01 X0.76797 Y1.43647
G01 X0.77043 Y1.42795
G01 X0.77122 Y1.41969
G01 X0.77122 Y1.12742
G01 X0.77107 Y1.12735
G01 X0.77122 Y1.12742
G01 X0.81793 Y1.08071
G01 X0.81786 Y1.08056
G01 X0.81793 Y1.08071
G01 X1.07476 Y1.08071
G01 X1.08302 Y1.07992
G01 X1.09154 Y1.07746
G01 X1.09942 Y1.07338
G01 X1.10038 Y1.07273
G01 X1.10678 Y1.06745
G01 X1.11206 Y1.06105
G01 X1.11271 Y1.06009
G01 X1.11659 Y1.05276
G01 X1.11903 Y1.04483
G01 X1.12001 Y1.03601
G01 X1.12004 Y0.90984
G01 X1.11925 Y0.90158
G01 X1.11903 Y0.90045
G01 X1.11634 Y0.89199
G01 X1.11271 Y0.88519
G01 X1.10717 Y0.87826
G01 X1.10038 Y0.87254
G01 X1.09942 Y0.87190
G01 X1.09209 Y0.86802
G01 X1.08416 Y0.86558
G01 X1.08302 Y0.86535
G01 X1.07418 Y0.86460
G01 X1.06537 Y0.86558
G01 X1.05798 Y0.86782
G01 X1.05011 Y0.87190
G01 X1.04318 Y0.87744
G01 X1.04236 Y0.87826
G01 X1.03682 Y0.88519
G01 X1.03318 Y0.89199
G01 X1.03050 Y0.90045
G01 X1.03027 Y0.90158
G01 X1.02949 Y0.90984
G01 X1.02949 Y0.99016
G01 X1.03006 Y0.99074
G01 X1.02949 Y0.99016
G01 X0.79917 Y0.99016
G01 X0.79091 Y0.99094
G01 X0.78978 Y0.99117
G01 X0.78132 Y0.99385
G01 X0.77355 Y0.99813
G01 X0.76716 Y1.00342
G01 X0.69361 Y1.07699
G01 X0.68906 Y1.08244
G01 X0.68583 Y1.08770
G01 X0.68304 Y1.09424
G01 X0.68132 Y1.10112
G01 X0.68067 Y1.10866
G04 P0 ( dwell for no time -- G64 should not smooth over this point )
G00 Z0.07874 ( retract )

G00 X0.55901 Y0.98386 ( rapid move to begin. )
G01 F3.93701
( Mill infeed pass 1/1 )
G01 Z-0.00591
G04 P0 ( dwell for no time -- G64 should not smooth over this point )
G01 F7.87402
G01 X0.55901 Y0.98386
G01 X0.55979 Y0.97579
G01 X0.56218 Y0.96765
G01 X0.56654 Y0.95949
G01 X0.57170 Y0.95324
G01 X0.60153 Y0.92340
G01 X0.60155 Y0.91694
G01 X0.60237 Y0.90888
G01 X0.60483 Y0.90075
G01 X0.60906 Y0.89295
G01 X0.61422 Y0.88670
G01 X0.67713 Y0.82379
G01 X0.67720 Y0.80346
G01 X0.67779 Y0.80205
G01 X0.67828 Y0.80145
G01 X0.67956 Y0.80060
G01 X0.68029 Y0.80037
G01 X0.70850 Y0.80030
G01 X0.71198 Y0.79926
G01 X0.72082 Y0.79844
G01 X0.72888 Y0.79926
G01 X0.73237 Y0.80030
G01 X0.75980 Y0.80030
G01 X0.76131 Y0.80060
G01 X0.76199 Y0.80096
G01 X0.76308 Y0.80205
G01 X0.76366 Y0.80346
G01 X0.76374 Y0.80423
G01 X0.76374 Y0.84033
G01 X0.78246 Y0.85906
G01 X0.93697 Y0.85906
G01 X0.94542 Y0.85989
G01 X0.95318 Y0.86222
G01 X0.96070 Y0.86616
G01 X0.96759 Y0.87174
G01 X0.97275 Y0.87799
G01 X0.97681 Y0.88544
G01 X0.97944 Y0.89391
G01 X0.98026 Y0.90198
G01 X0.97944 Y0.91081
G01 X0.97711 Y0.91857
G01 X0.97318 Y0.92609
G01 X0.96730 Y0.93325
G01 X0.96070 Y0.93857
G01 X0.95389 Y0.94221
G01 X0.94503 Y0.94489
G01 X0.93697 Y0.94567
G01 X0.76453 Y0.94567
G01 X0.75806 Y0.94517
G01 X0.75144 Y0.94363
G01 X0.74515 Y0.94108
G01 X0.73933 Y0.93757
G01 X0.73390 Y0.93299
G01 X0.71216 Y0.91125
G01 X0.68815 Y0.93526
G01 X0.68815 Y0.94134
G01 X0.68765 Y0.94781
G01 X0.68611 Y0.95443
G01 X0.68356 Y0.96072
G01 X0.67969 Y0.96704
G01 X0.67546 Y0.97196
G01 X0.63266 Y1.01474
G01 X0.62605 Y1.02007
G01 X0.61924 Y1.02370
G01 X0.61077 Y1.02633
G01 X0.60271 Y1.02715
G01 X0.59425 Y1.02639
G01 X0.58540 Y1.02370
G01 X0.57826 Y1.01987
G01 X0.57170 Y1.01448
G01 X0.56631 Y1.00792
G01 X0.56248 Y1.00078
G01 X0.55994 Y0.99268
G01 X0.55901 Y0.98386
G01 X0.55705 Y0.98386
G01 X0.55783 Y0.97560
G01 X0.55806 Y0.97446
G01 X0.56074 Y0.96601
G01 X0.56502 Y0.95824
G01 X0.56992 Y0.95227
G01 X0.59957 Y0.92259
G01 X0.59969 Y0.92264
G01 X0.59957 Y0.92259
G01 X0.59960 Y0.91675
G01 X0.60058 Y0.90793
G01 X0.60301 Y0.90000
G01 X0.60690 Y0.89267
G01 X0.60754 Y0.89171
G01 X0.61283 Y0.88531
G01 X0.67516 Y0.82298
G01 X0.67531 Y0.82304
G01 X0.67516 Y0.82298
G01 X0.67516 Y0.80423
G01 X0.67527 Y0.80308
G01 X0.67561 Y0.80197
G01 X0.67615 Y0.80095
G01 X0.67689 Y0.80006
G01 X0.67778 Y0.79932
G01 X0.67880 Y0.79878
G01 X0.67991 Y0.79844
G01 X0.68106 Y0.79833
G01 X0.70821 Y0.79835
G01 X0.71160 Y0.79733
G01 X0.72043 Y0.79646
G01 X0.72927 Y0.79733
G01 X0.73266 Y0.79835
G01 X0.75980 Y0.79833
G01 X0.76095 Y0.79844
G01 X0.76206 Y0.79878
G01 X0.76308 Y0.79932
G01 X0.76398 Y0.80006
G01 X0.76471 Y0.80095
G01 X0.76526 Y0.80197
G01 X0.76559 Y0.80308
G01 X0.76571 Y0.80423
G01 X0.76571 Y0.83952
G01 X0.76556 Y0.83958
G01 X0.76571 Y0.83952
G01 X0.78328 Y0.85709
G01 X0.78322 Y0.85724
G01 X0.78328 Y0.85709
G01 X0.93697 Y0.85709
G01 X0.94523 Y0.85787
G01 X0.94636 Y0.85810
G01 X0.95482 Y0.86078
G01 X0.96259 Y0.86506
G01 X0.96898 Y0.87035
G01 X0.97427 Y0.87674
G01 X0.97491 Y0.87771
G01 X0.97880 Y0.88504
G01 X0.98123 Y0.89297
G01 X0.98146 Y0.89410
G01 X0.98224 Y0.90236
G01 X0.98146 Y0.91062
G01 X0.98123 Y0.91176
G01 X0.97880 Y0.91969
G01 X0.97491 Y0.92702
G01 X0.97427 Y0.92798
G01 X0.96898 Y0.93438
G01 X0.96259 Y0.93966
G01 X0.96162 Y0.94031
G01 X0.95429 Y0.94419
G01 X0.94636 Y0.94663
G01 X0.93755 Y0.94761
G01 X0.76453 Y0.94764
G01 X0.75790 Y0.94713
G01 X0.75098 Y0.94555
G01 X0.74439 Y0.94290
G01 X0.73755 Y0.93870
G01 X0.73251 Y0.93438
G01 X0.71216 Y0.91403
G01 X0.71216 Y0.91321
G01 X0.71216 Y0.91403
G01 X0.69012 Y0.93608
G01 X0.68998 Y0.93602
G01 X0.69012 Y0.93608
G01 X0.69012 Y0.94134
G01 X0.68961 Y0.94796
G01 X0.68774 Y0.95577
G01 X0.68496 Y0.96230
G01 X0.68173 Y0.96757
G01 X0.67717 Y0.97301
G01 X0.63391 Y1.01626
G01 X0.62747 Y1.02150
G01 X0.62017 Y1.02544
G01 X0.61910 Y1.02588
G01 X0.61115 Y1.02826
G01 X0.60290 Y1.02911
G01 X0.60174 Y1.02911
G01 X0.59349 Y1.02826
G01 X0.58554 Y1.02588
G01 X0.58447 Y1.02544
G01 X0.57670 Y1.02116
G01 X0.56992 Y1.01544
G01 X0.56502 Y1.00948
G01 X0.56074 Y1.00171
G01 X0.55806 Y0.99325
G01 X0.55783 Y0.99212
G01 X0.55705 Y0.98386
G04 P0 ( dwell for no time -- G64 should not smooth over this point )
G00 Z0.07874 ( retract )

G00 X0.55903 Y1.28347 ( rapid move to begin. )
G01 F3.93701
( Mill infeed pass 1/1 )
G01 Z-0.00591
G04 P0 ( dwell for no time -- G64 should not smooth over this point )
G01 F7.87402
G01 X0.55903 Y1.28347
G01 X0.55994 Y1.29268
G01 X0.56248 Y1.30078
G01 X0.56611 Y1.30759
G01 X0.57170 Y1.31448
G01 X0.58264 Y1.32542
G01 X0.58264 Y1.41969
G01 X0.58347 Y1.42813
G01 X0.58593 Y1.43626
G01 X0.59017 Y1.44406
G01 X0.59532 Y1.45031
G01 X0.60188 Y1.45569
G01 X0.60902 Y1.45953
G01 X0.61712 Y1.46207
G01 X0.62594 Y1.46299
G01 X0.63401 Y1.46222
G01 X0.64215 Y1.45983
G01 X0.65000 Y1.45569
G01 X0.65628 Y1.45057
G01 X0.66215 Y1.44341
G01 X0.66595 Y1.43626
G01 X0.66842 Y1.42813
G01 X0.66925 Y1.41969
G01 X0.66925 Y1.30748
G01 X0.66866 Y1.30040
G01 X0.66722 Y1.29440
G01 X0.66466 Y1.28810
G01 X0.66115 Y1.28228
G01 X0.65657 Y1.27686
G01 X0.63294 Y1.25324
G01 X0.62669 Y1.24808
G01 X0.61853 Y1.24372
G01 X0.61039 Y1.24133
G01 X0.60232 Y1.24055
G01 X0.59350 Y1.24148
G01 X0.58540 Y1.24401
G01 X0.57826 Y1.24785
G01 X0.57170 Y1.25324
G01 X0.56654 Y1.25949
G01 X0.56248 Y1.26694
G01 X0.55985 Y1.27541
G01 X0.55903 Y1.28347
G01 X0.55708 Y1.28328
G01 X0.55708 Y1.28444
G01 X0.55806 Y1.29325
G01 X0.56030 Y1.30064
G01 X0.56438 Y1.30852
G01 X0.56502 Y1.30948
G01 X0.57031 Y1.31587
G01 X0.58067 Y1.32623
G01 X0.58082 Y1.32617
G01 X0.58067 Y1.32623
G01 X0.58067 Y1.41969
G01 X0.58154 Y1.42852
G01 X0.58392 Y1.43647
G01 X0.58436 Y1.43754
G01 X0.58864 Y1.44530
G01 X0.59393 Y1.45170
G01 X0.60079 Y1.45733
G01 X0.60809 Y1.46127
G01 X0.60916 Y1.46171
G01 X0.61768 Y1.46418
G01 X0.62594 Y1.46496
G01 X0.63478 Y1.46409
G01 X0.64272 Y1.46171
G01 X0.64379 Y1.46127
G01 X0.65110 Y1.45733
G01 X0.65753 Y1.45209
G01 X0.66324 Y1.44530
G01 X0.66389 Y1.44434
G01 X0.66777 Y1.43701
G01 X0.67021 Y1.42908
G01 X0.67043 Y1.42795
G01 X0.67122 Y1.41969
G01 X0.67122 Y1.30748
G01 X0.67057 Y1.29994
G01 X0.66884 Y1.29306
G01 X0.66648 Y1.28735
G01 X0.66283 Y1.28125
G01 X0.65796 Y1.27547
G01 X0.63434 Y1.25184
G01 X0.62794 Y1.24656
G01 X0.62698 Y1.24592
G01 X0.61910 Y1.24184
G01 X0.61058 Y1.23937
G01 X0.60232 Y1.23858
G01 X0.59406 Y1.23937
G01 X0.58554 Y1.24184
G01 X0.58447 Y1.24228
G01 X0.57717 Y1.24621
G01 X0.57074 Y1.25146
G01 X0.56992 Y1.25227
G01 X0.56468 Y1.25871
G01 X0.56074 Y1.26601
G01 X0.56030 Y1.26708
G01 X0.55792 Y1.27503
G01 X0.55708 Y1.28328
G04 P0 ( dwell for no time -- G64 should not smooth over this point )
G00 Z0.07874 ( retract )

G00 X0.39051 Y1.41969 ( rapid move to begin. )
G01 F3.93701
( Mill infeed pass 1/1 )
G01 Z-0.00591
G04 P0 ( dwell for no time -- G64 should not smooth over this point )
G01 F7.87402
G01 X0.39051 Y1.41969
G01 X0.39129 Y1.41232
G01 X0.39358 Y1.40527
G01 X0.39728 Y1.39886
G01 X0.40256 Y1.39309
G01 X0.40823 Y1.38900
G01 X0.41461 Y1.38613
G01 X0.42183 Y1.38451
G01 X0.42965 Y1.38445
G01 X0.43689 Y1.38599
G01 X0.44366 Y1.38900
G01 X0.44995 Y1.39365
G01 X0.45484 Y1.39920
G01 X0.45831 Y1.40527
G01 X0.46050 Y1.41192
G01 X0.46138 Y1.41969
G01 X0.46060 Y1.42705
G01 X0.45831 Y1.43410
G01 X0.45435 Y1.44083
G01 X0.44965 Y1.44602
G01 X0.44401 Y1.45015
G01 X0.43728 Y1.45324
G01 X0.42965 Y1.45492
G01 X0.42224 Y1.45492
G01 X0.41500 Y1.45338
G01 X0.40788 Y1.45015
G01 X0.40194 Y1.44573
G01 X0.39728 Y1.44051
G01 X0.39376 Y1.43446
G01 X0.39129 Y1.42705
G01 X0.39051 Y1.41969
G01 X0.38854 Y1.41969
G01 X0.38936 Y1.41191
G01 X0.39156 Y1.40505
G01 X0.39206 Y1.40392
G01 X0.39535 Y1.39822
G01 X0.39608 Y1.39722
G01 X0.40092 Y1.39189
G01 X0.40673 Y1.38763
G01 X0.40780 Y1.38701
G01 X0.41439 Y1.38412
G01 X0.42142 Y1.38259
G01 X0.42265 Y1.38246
G01 X0.42985 Y1.38249
G01 X0.43750 Y1.38412
G01 X0.44465 Y1.38730
G01 X0.45097 Y1.39189
G01 X0.45620 Y1.39770
G01 X0.46011 Y1.40447
G01 X0.46253 Y1.41191
G01 X0.46335 Y1.41969
G01 X0.46253 Y1.42746
G01 X0.46011 Y1.43490
G01 X0.45620 Y1.44167
G01 X0.45141 Y1.44704
G01 X0.45049 Y1.44787
G01 X0.44516 Y1.45174
G01 X0.44409 Y1.45236
G01 X0.43750 Y1.45526
G01 X0.43046 Y1.45678
G01 X0.42924 Y1.45691
G01 X0.42204 Y1.45688
G01 X0.41439 Y1.45526
G01 X0.40724 Y1.45208
G01 X0.40092 Y1.44748
G01 X0.39569 Y1.44167
G01 X0.39178 Y1.43490
G01 X0.38936 Y1.42746
G01 X0.38854 Y1.41969
G04 P0 ( dwell for no time -- G64 should not smooth over this point )
G00 Z0.07874 ( retract )

G00 X0.29051 Y1.41969 ( rapid move to begin. )
G01 F3.93701
( Mill infeed pass 1/1 )
G01 Z-0.00591
G04 P0 ( dwell for no time -- G64 should not smooth over this point )
G01 F7.87402
G01 X0.29051 Y1.41969
G01 X0.29129 Y1.41232
G01 X0.29358 Y1.40527
G01 X0.29728 Y1.39886
G01 X0.30256 Y1.39309
G01 X0.30823 Y1.38900
G01 X0.31461 Y1.38613
G01 X0.32183 Y1.38451
G01 X0.32965 Y1.38445
G01 X0.33689 Y1.38599
G01 X0.34366 Y1.38900
G01 X0.34995 Y1.39365
G01 X0.35484 Y1.39920
G01 X0.35831 Y1.40527
G01 X0.36050 Y1.41192
G01 X0.36138 Y1.41969
G01 X0.36060 Y1.42705
G01 X0.35831 Y1.43410
G01 X0.35435 Y1.44083
G01 X0.34965 Y1.44602
G01 X0.34401 Y1.45015
G01 X0.33728 Y1.45324
G01 X0.32965 Y1.45492
G01 X0.32224 Y1.45492
G01 X0.31500 Y1.45338
G01 X0.30788 Y1.45015
G01 X0.30194 Y1.44573
G01 X0.29728 Y1.44051
G01 X0.29376 Y1.43446
G01 X0.29129 Y1.42705
G01 X0.29051 Y1.41969
G01 X0.28854 Y1.41969
G01 X0.28936 Y1.41191
G01 X0.29156 Y1.40505
G01 X0.29206 Y1.40392
G01 X0.29535 Y1.39822
G01 X0.29608 Y1.39722
G01 X0.30092 Y1.39189
G01 X0.30673 Y1.38763
G01 X0.30780 Y1.38701
G01 X0.31439 Y1.38412
G01 X0.32142 Y1.38259
G01 X0.32265 Y1.38246
G01 X0.32985 Y1.38249
G01 X0.33750 Y1.38412
G01 X0.34465 Y1.38730
G01 X0.35097 Y1.39189
G01 X0.35620 Y1.39770
G01 X0.36011 Y1.40447
G01 X0.36253 Y1.41191
G01 X0.36335 Y1.41969
G01 X0.36253 Y1.42746
G01 X0.36011 Y1.43490
G01 X0.35620 Y1.44167
G01 X0.35141 Y1.44704
G01 X0.35049 Y1.44787
G01 X0.34516 Y1.45174
G01 X0.34409 Y1.45236
G01 X0.33750 Y1.45526
G01 X0.33046 Y1.45678
G01 X0.32924 Y1.45691
G01 X0.32204 Y1.45688
G01 X0.31439 Y1.45526
G01 X0.30724 Y1.45208
G01 X0.30092 Y1.44748
G01 X0.29569 Y1.44167
G01 X0.29178 Y1.43490
G01 X0.28936 Y1.42746
G01 X0.28854 Y1.41969
G04 P0 ( dwell for no time -- G64 should not smooth over this point )
G00 Z0.07874 ( retract )

G00 X0.19051 Y1.38819 ( rapid move to begin. )
G01 F3.93701
( Mill infeed pass 1/1 )
G01 Z-0.00591
G04 P0 ( dwell for no time -- G64 should not smooth over this point )
G01 F7.87402
G01 X0.19051 Y1.38819
G01 X0.19081 Y1.38668
G01 X0.19166 Y1.38541
G01 X0.19294 Y1.38455
G01 X0.19445 Y1.38425
G01 X0.25744 Y1.38425
G01 X0.25895 Y1.38455
G01 X0.26022 Y1.38541
G01 X0.26108 Y1.38668
G01 X0.26138 Y1.38819
G01 X0.26138 Y1.45118
G01 X0.26108 Y1.45269
G01 X0.26022 Y1.45397
G01 X0.25895 Y1.45482
G01 X0.25744 Y1.45512
G01 X0.19445 Y1.45512
G01 X0.19294 Y1.45482
G01 X0.19166 Y1.45397
G01 X0.19081 Y1.45269
G01 X0.19051 Y1.45118
G01 X0.19051 Y1.38819
G01 X0.18854 Y1.38819
G01 X0.18854 Y1.45118
G01 X0.18866 Y1.45233
G01 X0.18899 Y1.45344
G01 X0.18954 Y1.45446
G01 X0.19027 Y1.45536
G01 X0.19117 Y1.45609
G01 X0.19219 Y1.45664
G01 X0.19330 Y1.45697
G01 X0.19445 Y1.45709
G01 X0.25744 Y1.45709
G01 X0.25859 Y1.45697
G01 X0.25970 Y1.45664
G01 X0.26072 Y1.45609
G01 X0.26162 Y1.45536
G01 X0.26235 Y1.45446
G01 X0.26290 Y1.45344
G01 X0.26323 Y1.45233
G01 X0.26335 Y1.45118
G01 X0.26335 Y1.38819
G01 X0.26323 Y1.38704
G01 X0.26290 Y1.38593
G01 X0.26235 Y1.38491
G01 X0.26162 Y1.38401
G01 X0.26072 Y1.38328
G01 X0.25970 Y1.38273
G01 X0.25859 Y1.38240
G01 X0.25744 Y1.38228
G01 X0.19445 Y1.38228
G01 X0.19330 Y1.38240
G01 X0.19219 Y1.38273
G01 X0.19117 Y1.38328
G01 X0.19027 Y1.38401
G01 X0.18954 Y1.38491
G01 X0.18899 Y1.38593
G01 X0.18866 Y1.38704
G01 X0.18854 Y1.38819
G04 P0 ( dwell for no time -- G64 should not smooth over this point )
G00 Z0.07874 ( retract )

G00 X0.26374 Y1.07480 ( rapid move to begin. )
G01 F3.93701
( Mill infeed pass 1/1 )
G01 Z-0.00591
G04 P0 ( dwell for no time -- G64 should not smooth over this point )
G01 F7.87402
G01 X0.26374 Y1.07480
G01 X0.26467 Y1.06598
G01 X0.26704 Y1.05823
G01 X0.26886 Y1.05478
G01 X0.26886 Y1.04154
G01 X0.26916 Y1.03867
G01 X0.27005 Y1.03593
G01 X0.27149 Y1.03344
G01 X0.27342 Y1.03130
G01 X0.27575 Y1.02960
G01 X0.27838 Y1.02843
G01 X0.28079 Y1.02790
G01 X0.28243 Y1.02776
G01 X0.33249 Y1.02781
G01 X0.33610 Y1.02858
G01 X0.33835 Y1.02960
G01 X0.34068 Y1.03130
G01 X0.34260 Y1.03344
G01 X0.34386 Y1.03556
G01 X0.34494 Y1.03867
G01 X0.34524 Y1.04154
G01 X0.34524 Y1.05478
G01 X0.34706 Y1.05823
G01 X0.34958 Y1.06674
G01 X0.35035 Y1.07480
G01 X0.35035 Y1.11592
G01 X0.55657 Y1.32213
G01 X0.56172 Y1.32839
G01 X0.56579 Y1.33583
G01 X0.56848 Y1.34469
G01 X0.56925 Y1.35276
G01 X0.56925 Y1.56457
G01 X0.56842 Y1.57302
G01 X0.56595 Y1.58114
G01 X0.56215 Y1.58830
G01 X0.55657 Y1.59519
G01 X0.36925 Y1.78251
G01 X0.36925 Y1.81890
G01 X1.76374 Y1.81890
G01 X1.77219 Y1.81973
G01 X1.78066 Y1.82236
G01 X1.78747 Y1.82600
G01 X1.79408 Y1.83132
G01 X1.83373 Y1.87095
G01 X1.83889 Y1.87721
G01 X1.84296 Y1.88465
G01 X1.84564 Y1.89351
G01 X1.84642 Y1.90158
G01 X1.84642 Y2.33071
G01 X2.57257 Y2.33071
G01 X2.60626 Y2.29702
G01 X2.60626 Y1.05337
G01 X2.57257 Y1.01969
G01 X2.01965 Y1.01969
G01 X2.01120 Y1.01885
G01 X2.00272 Y1.01622
G01 X1.99592 Y1.01259
G01 X1.98931 Y1.00726
G01 X1.98344 Y1.00011
G01 X1.97950 Y0.99259
G01 X1.97717 Y0.98483
G01 X1.97634 Y0.97638
G01 X1.97634 Y0.90473
G01 X1.86947 Y0.90473
G01 X1.83345 Y0.94073
G01 X1.82717 Y0.94585
G01 X1.81932 Y0.94998
G01 X1.81156 Y0.95232
G01 X1.80350 Y0.95313
G01 X1.79466 Y0.95232
G01 X1.78619 Y0.94969
G01 X1.77938 Y0.94605
G01 X1.77277 Y0.94073
G01 X1.76690 Y0.93357
G01 X1.76297 Y0.92605
G01 X1.76064 Y0.91829
G01 X1.75982 Y0.90946
G01 X1.76063 Y0.90140
G01 X1.76297 Y0.89364
G01 X1.76690 Y0.88612
G01 X1.77223 Y0.87951
G01 X1.80702 Y0.84469
G01 X1.74580 Y0.78347
G01 X0.99602 Y0.78347
G01 X0.98956 Y0.78297
G01 X0.98294 Y0.78143
G01 X0.97664 Y0.77888
G01 X0.97082 Y0.77537
G01 X0.96563 Y0.77099
G01 X0.90635 Y0.71173
G01 X0.90119 Y0.70547
G01 X0.89712 Y0.69802
G01 X0.89459 Y0.68993
G01 X0.89403 Y0.68504
G01 X0.72043 Y0.68504
G01 X0.71198 Y0.68421
G01 X0.70351 Y0.68158
G01 X0.69637 Y0.67774
G01 X0.68981 Y0.67236
G01 X0.68423 Y0.66546
G01 X0.68033 Y0.65805
G01 X0.67910 Y0.65437
G01 X0.67802 Y0.65046
G01 X0.67734 Y0.64586
G01 X0.67713 Y0.64194
G01 X0.67734 Y0.63761
G01 X0.67802 Y0.63300
G01 X0.67910 Y0.62910
G01 X0.68033 Y0.62542
G01 X0.68423 Y0.61800
G01 X0.69010 Y0.61085
G01 X0.69637 Y0.60572
G01 X0.70422 Y0.60159
G01 X0.71198 Y0.59926
G01 X0.72043 Y0.59843
G01 X0.87966 Y0.59843
G01 X0.90635 Y0.57174
G01 X0.91260 Y0.56658
G01 X0.92005 Y0.56252
G01 X0.92814 Y0.55998
G01 X0.93735 Y0.55907
G01 X0.94579 Y0.55998
G01 X0.95389 Y0.56252
G01 X0.96070 Y0.56616
G01 X0.96759 Y0.57174
G01 X0.97318 Y0.57863
G01 X0.97681 Y0.58544
G01 X0.97935 Y0.59354
G01 X0.98026 Y0.60198
G01 X0.98028 Y0.66316
G01 X1.01396 Y0.69685
G01 X1.18894 Y0.69685
G01 X1.18894 Y0.37008
G01 X1.01571 Y0.37008
G01 X1.00924 Y0.36958
G01 X1.00262 Y0.36804
G01 X0.99578 Y0.36521
G01 X0.99001 Y0.36162
G01 X0.98509 Y0.35740
G01 X0.88399 Y0.25630
G01 X0.72043 Y0.25630
G01 X0.71237 Y0.25552
G01 X0.70351 Y0.25284
G01 X0.69606 Y0.24877
G01 X0.68955 Y0.24333
G01 X0.68423 Y0.23672
G01 X0.68059 Y0.22992
G01 X0.67916 Y0.22583
G01 X0.67802 Y0.22172
G01 X0.67734 Y0.21712
G01 X0.67713 Y0.21320
G01 X0.67734 Y0.20887
G01 X0.67802 Y0.20426
G01 X0.67910 Y0.20036
G01 X0.68033 Y0.19668
G01 X0.68423 Y0.18926
G01 X0.68981 Y0.18237
G01 X0.69637 Y0.17698
G01 X0.70351 Y0.17315
G01 X0.71198 Y0.17052
G01 X0.72043 Y0.16969
G01 X0.87060 Y0.16969
G01 X0.90663 Y0.13369
G01 X0.91324 Y0.12836
G01 X0.92005 Y0.12472
G01 X0.92852 Y0.12209
G01 X0.93658 Y0.12128
G01 X0.94503 Y0.12204
G01 X0.95389 Y0.12472
G01 X0.96070 Y0.12836
G01 X0.96730 Y0.13369
G01 X0.97318 Y0.14084
G01 X0.97711 Y0.14836
G01 X0.97944 Y0.15612
G01 X0.98026 Y0.16495
G01 X0.97935 Y0.17339
G01 X0.97681 Y0.18149
G01 X0.97275 Y0.18894
G01 X0.96759 Y0.19519
G01 X0.95648 Y0.20630
G01 X1.03365 Y0.28347
G01 X1.23263 Y0.28348
G01 X1.24107 Y0.28439
G01 X1.24917 Y0.28693
G01 X1.25597 Y0.29057
G01 X1.26287 Y0.29615
G01 X1.26845 Y0.30304
G01 X1.27209 Y0.30985
G01 X1.27463 Y0.31795
G01 X1.27555 Y0.32677
G01 X1.27555 Y0.69685
G01 X1.52358 Y0.69685
G01 X1.52358 Y0.52362
G01 X1.52418 Y0.51655
G01 X1.52581 Y0.50995
G01 X1.52817 Y0.50424
G01 X1.53168 Y0.49842
G01 X1.53627 Y0.49300
G01 X1.60280 Y0.42647
G01 X1.60905 Y0.42131
G01 X1.61650 Y0.41724
G01 X1.62460 Y0.41471
G01 X1.63343 Y0.41378
G01 X1.95013 Y0.41378
G01 X1.98902 Y0.37489
G01 X1.99592 Y0.36931
G01 X2.00272 Y0.36567
G01 X2.01082 Y0.36313
G01 X2.01926 Y0.36222
G01 X2.02809 Y0.36304
G01 X2.03657 Y0.36567
G01 X2.04402 Y0.36973
G01 X2.05027 Y0.37489
G01 X2.05585 Y0.38178
G01 X2.05975 Y0.38920
G01 X2.06098 Y0.39288
G01 X2.06205 Y0.39679
G01 X2.06274 Y0.40139
G01 X2.06295 Y0.40531
G01 X2.06274 Y0.40964
G01 X2.06205 Y0.41424
G01 X2.06098 Y0.41815
G01 X2.05975 Y0.42183
G01 X2.05585 Y0.42924
G01 X2.05027 Y0.43614
G01 X1.99869 Y0.48771
G01 X1.99180 Y0.49330
G01 X1.98428 Y0.49723
G01 X1.97652 Y0.49956
G01 X1.96807 Y0.50040
G01 X1.65136 Y0.50040
G01 X1.61020 Y0.54156
G01 X1.61020 Y0.69685
G01 X1.76374 Y0.69685
G01 X1.77256 Y0.69778
G01 X1.78066 Y0.70031
G01 X1.78747 Y0.70395
G01 X1.79436 Y0.70954
G01 X1.90294 Y0.81811
G01 X2.01965 Y0.81811
G01 X2.02809 Y0.81894
G01 X2.03657 Y0.82157
G01 X2.04337 Y0.82521
G01 X2.04998 Y0.83054
G01 X2.05542 Y0.83705
G01 X2.05975 Y0.84510
G01 X2.06098 Y0.84878
G01 X2.06205 Y0.85269
G01 X2.06274 Y0.85729
G01 X2.06295 Y0.86142
G01 X2.06295 Y0.93307
G01 X2.59051 Y0.93307
G01 X2.59858 Y0.93385
G01 X2.60743 Y0.93653
G01 X2.61424 Y0.94017
G01 X2.62085 Y0.94550
G01 X2.68019 Y1.00481
G01 X2.68577 Y1.01171
G01 X2.68941 Y1.01851
G01 X2.69195 Y1.02661
G01 X2.69287 Y1.03543
G01 X2.69287 Y2.31496
G01 X2.69204 Y2.32341
G01 X2.68971 Y2.33117
G01 X2.68577 Y2.33869
G01 X2.68045 Y2.34530
G01 X2.62113 Y2.40464
G01 X2.61488 Y2.40980
G01 X2.60672 Y2.41416
G01 X2.59896 Y2.41649
G01 X2.59090 Y2.41731
G01 X1.80311 Y2.41732
G01 X1.79466 Y2.41649
G01 X1.78619 Y2.41386
G01 X1.77938 Y2.41022
G01 X1.77277 Y2.40490
G01 X1.76690 Y2.39775
G01 X1.76326 Y2.39094
G01 X1.76073 Y2.38284
G01 X1.75982 Y2.37440
G01 X1.75980 Y1.91951
G01 X1.74580 Y1.90551
G01 X0.36925 Y1.90551
G01 X0.36925 Y2.06001
G01 X0.37704 Y2.06780
G01 X0.38126 Y2.07273
G01 X0.38485 Y2.07849
G01 X0.38769 Y2.08534
G01 X0.38913 Y2.09135
G01 X0.38943 Y2.09449
G01 X0.86846 Y2.09451
G01 X0.87652 Y2.09532
G01 X0.88499 Y2.09795
G01 X0.89244 Y2.10202
G01 X0.89869 Y2.10717
G01 X0.90428 Y2.11407
G01 X0.90821 Y2.12159
G01 X0.91054 Y2.12935
G01 X0.91136 Y2.13818
G01 X0.91054 Y2.14624
G01 X0.90792 Y2.15472
G01 X0.90428 Y2.16152
G01 X0.89895 Y2.16813
G01 X0.89180 Y2.17400
G01 X0.88499 Y2.17764
G01 X0.87689 Y2.18018
G01 X0.86807 Y2.18110
G01 X0.76374 Y2.18110
G01 X0.76374 Y2.32451
G01 X0.76291 Y2.33296
G01 X0.76057 Y2.34072
G01 X0.75664 Y2.34824
G01 X0.75528 Y2.35021
G01 X0.75126 Y2.35490
G01 X0.74949 Y2.35662
G01 X0.74438 Y2.36059
G01 X0.74186 Y2.36213
G01 X0.73724 Y2.36441
G01 X0.73359 Y2.36576
G01 X0.72911 Y2.36693
G01 X0.72496 Y2.36758
G01 X0.72005 Y2.36780
G01 X0.71591 Y2.36758
G01 X0.71176 Y2.36693
G01 X0.70727 Y2.36576
G01 X0.70400 Y2.36458
G01 X0.69901 Y2.36213
G01 X0.69614 Y2.36035
G01 X0.69167 Y2.35687
G01 X0.68988 Y2.35520
G01 X0.68559 Y2.35021
G01 X0.68447 Y2.34863
G01 X0.68059 Y2.34143
G01 X0.67816 Y2.33386
G01 X0.67713 Y2.32451
G01 X0.67713 Y2.18110
G01 X0.38972 Y2.18110
G01 X0.38972 Y2.33465
G01 X0.38889 Y2.34310
G01 X0.38656 Y2.35086
G01 X0.38220 Y2.35902
G01 X0.37931 Y2.36253
G01 X0.37731 Y2.36595
G01 X0.37226 Y2.37159
G01 X0.36551 Y2.37658
G01 X0.35860 Y2.37968
G01 X0.35041 Y2.38148
G01 X0.34243 Y2.38148
G01 X0.33462 Y2.37982
G01 X0.32732 Y2.37658
G01 X0.32057 Y2.37159
G01 X0.31552 Y2.36595
G01 X0.31352 Y2.36253
G01 X0.31064 Y2.35902
G01 X0.30641 Y2.35122
G01 X0.30394 Y2.34310
G01 X0.30311 Y2.33465
G01 X0.30311 Y2.11637
G01 X0.29532 Y2.10858
G01 X0.29110 Y2.10365
G01 X0.28751 Y2.09789
G01 X0.28467 Y2.09104
G01 X0.28313 Y2.08442
G01 X0.28265 Y2.07826
G01 X0.28264 Y1.76457
G01 X0.28347 Y1.75612
G01 X0.28610 Y1.74765
G01 X0.29017 Y1.74020
G01 X0.29532 Y1.73395
G01 X0.48264 Y1.54663
G01 X0.48264 Y1.37070
G01 X0.27642 Y1.16448
G01 X0.27127 Y1.15823
G01 X0.26720 Y1.15078
G01 X0.26452 Y1.14193
G01 X0.26374 Y1.13386
G01 X0.26374 Y1.07480
G01 X0.26177 Y1.07480
G01 X0.26180 Y1.13444
G01 X0.26278 Y1.14325
G01 X0.26502 Y1.15064
G01 X0.26910 Y1.15852
G01 X0.26975 Y1.15948
G01 X0.27503 Y1.16587
G01 X0.48067 Y1.37151
G01 X0.48082 Y1.37145
G01 X0.48067 Y1.37151
G01 X0.48067 Y1.54581
G01 X0.48082 Y1.54588
G01 X0.48067 Y1.54581
G01 X0.29393 Y1.73255
G01 X0.28864 Y1.73895
G01 X0.28800 Y1.73991
G01 X0.28412 Y1.74724
G01 X0.28154 Y1.75574
G01 X0.28067 Y1.76457
G01 X0.28067 Y2.07795
G01 X0.28117 Y2.08458
G01 X0.28276 Y2.09150
G01 X0.28583 Y2.09891
G01 X0.28960 Y2.10493
G01 X0.29393 Y2.10997
G01 X0.30114 Y2.11718
G01 X0.30128 Y2.11713
G01 X0.30114 Y2.11718
G01 X0.30114 Y2.33465
G01 X0.30201 Y2.34348
G01 X0.30439 Y2.35143
G01 X0.30484 Y2.35250
G01 X0.30877 Y2.35980
G01 X0.31190 Y2.36365
G01 X0.31393 Y2.36711
G01 X0.31955 Y2.37335
G01 X0.32634 Y2.37828
G01 X0.33343 Y2.38147
G01 X0.33461 Y2.38186
G01 X0.34161 Y2.38334
G01 X0.34284 Y2.38347
G01 X0.35061 Y2.38344
G01 X0.35823 Y2.38186
G01 X0.35940 Y2.38147
G01 X0.36594 Y2.37856
G01 X0.36701 Y2.37794
G01 X0.37329 Y2.37335
G01 X0.37852 Y2.36759
G01 X0.38094 Y2.36365
G01 X0.38406 Y2.35980
G01 X0.38800 Y2.35250
G01 X0.38844 Y2.35143
G01 X0.39082 Y2.34348
G01 X0.39169 Y2.33465
G01 X0.39169 Y2.18307
G01 X0.39112 Y2.18249
G01 X0.39169 Y2.18307
G01 X0.67516 Y2.18307
G01 X0.67573 Y2.18249
G01 X0.67516 Y2.18307
G01 X0.67516 Y2.32451
G01 X0.67605 Y2.33331
G01 X0.67842 Y2.34133
G01 X0.68285 Y2.34976
G01 X0.68409 Y2.35148
G01 X0.68853 Y2.35663
G01 X0.69046 Y2.35843
G01 X0.69544 Y2.36226
G01 X0.69814 Y2.36390
G01 X0.70275 Y2.36618
G01 X0.70678 Y2.36766
G01 X0.71126 Y2.36884
G01 X0.71570 Y2.36954
G01 X0.72043 Y2.36978
G01 X0.72517 Y2.36954
G01 X0.72869 Y2.36900
G01 X0.73464 Y2.36749
G01 X0.73811 Y2.36618
G01 X0.74273 Y2.36390
G01 X0.74542 Y2.36226
G01 X0.75040 Y2.35843
G01 X0.75276 Y2.35618
G01 X0.75677 Y2.35148
G01 X0.75801 Y2.34976
G01 X0.76201 Y2.34236
G01 X0.76246 Y2.34129
G01 X0.76484 Y2.33334
G01 X0.76571 Y2.32451
G01 X0.76571 Y2.18307
G01 X0.76513 Y2.18249
G01 X0.76571 Y2.18307
G01 X0.86807 Y2.18307
G01 X0.87633 Y2.18229
G01 X0.87746 Y2.18206
G01 X0.88540 Y2.17962
G01 X0.89273 Y2.17574
G01 X0.89369 Y2.17510
G01 X0.90008 Y2.16981
G01 X0.90537 Y2.16341
G01 X0.90965 Y2.15565
G01 X0.91233 Y2.14719
G01 X0.91256 Y2.14606
G01 X0.91334 Y2.13780
G01 X0.91256 Y2.12954
G01 X0.91233 Y2.12840
G01 X0.90990 Y2.12047
G01 X0.90601 Y2.11314
G01 X0.90537 Y2.11218
G01 X0.90008 Y2.10578
G01 X0.89369 Y2.10050
G01 X0.89273 Y2.09985
G01 X0.88540 Y2.09597
G01 X0.87746 Y2.09353
G01 X0.87633 Y2.09331
G01 X0.86807 Y2.09252
G01 X0.39125 Y2.09252
G01 X0.39089 Y2.09296
G01 X0.39125 Y2.09252
G01 X0.39104 Y2.09089
G01 X0.38960 Y2.08488
G01 X0.38653 Y2.07747
G01 X0.38276 Y2.07145
G01 X0.37843 Y2.06641
G01 X0.37122 Y2.05920
G01 X0.37108 Y2.05925
G01 X0.37122 Y2.05920
G01 X0.37122 Y1.90748
G01 X0.37064 Y1.90690
G01 X0.37122 Y1.90748
G01 X1.74499 Y1.90748
G01 X1.74505 Y1.90733
G01 X1.74499 Y1.90748
G01 X1.75784 Y1.92033
G01 X1.75798 Y1.92027
G01 X1.75784 Y1.92033
G01 X1.75786 Y2.37460
G01 X1.75885 Y2.38341
G01 X1.76109 Y2.39080
G01 X1.76517 Y2.39867
G01 X1.76581 Y2.39964
G01 X1.77110 Y2.40603
G01 X1.77749 Y2.41132
G01 X1.77845 Y2.41196
G01 X1.78578 Y2.41585
G01 X1.79372 Y2.41828
G01 X1.79485 Y2.41851
G01 X1.80311 Y2.41929
G01 X2.59109 Y2.41926
G01 X2.59991 Y2.41828
G01 X2.60784 Y2.41585
G01 X2.61517 Y2.41196
G01 X2.62210 Y2.40642
G01 X2.68158 Y2.34698
G01 X2.68687 Y2.34058
G01 X2.69115 Y2.33281
G01 X2.69383 Y2.32436
G01 X2.69406 Y2.32322
G01 X2.69484 Y2.31496
G01 X2.69484 Y1.03543
G01 X2.69406 Y1.02717
G01 X2.69383 Y1.02604
G01 X2.69139 Y1.01811
G01 X2.68751 Y1.01078
G01 X2.68687 Y1.00982
G01 X2.68158 Y1.00342
G01 X2.62210 Y0.94398
G01 X2.61517 Y0.93844
G01 X2.60836 Y0.93480
G01 X2.59991 Y0.93211
G01 X2.59877 Y0.93189
G01 X2.59051 Y0.93110
G01 X2.06492 Y0.93110
G01 X2.06434 Y0.93168
G01 X2.06492 Y0.93110
G01 X2.06492 Y0.86142
G01 X2.06471 Y0.85719
G01 X2.06395 Y0.85217
G01 X2.06287 Y0.84826
G01 X2.06162 Y0.84448
G01 X2.05759 Y0.83676
G01 X2.05694 Y0.83580
G01 X2.05123 Y0.82901
G01 X2.04430 Y0.82348
G01 X2.03749 Y0.81984
G01 X2.02904 Y0.81715
G01 X2.02790 Y0.81693
G01 X2.01965 Y0.81614
G01 X1.90375 Y0.81614
G01 X1.90369 Y0.81629
G01 X1.90375 Y0.81614
G01 X1.79575 Y0.70814
G01 X1.78936 Y0.70286
G01 X1.78840 Y0.70222
G01 X1.78107 Y0.69833
G01 X1.77313 Y0.69589
G01 X1.77200 Y0.69567
G01 X1.76374 Y0.69488
G01 X1.61216 Y0.69488
G01 X1.61159 Y0.69546
G01 X1.61216 Y0.69488
G01 X1.61216 Y0.54238
G01 X1.61201 Y0.54231
G01 X1.61216 Y0.54238
G01 X1.65218 Y0.50236
G01 X1.65212 Y0.50221
G01 X1.65218 Y0.50236
G01 X1.96807 Y0.50236
G01 X1.97633 Y0.50158
G01 X1.97746 Y0.50135
G01 X1.98540 Y0.49892
G01 X1.99273 Y0.49503
G01 X1.99369 Y0.49439
G01 X2.00008 Y0.48910
G01 X2.05166 Y0.43753
G01 X2.05694 Y0.43113
G01 X2.05759 Y0.43017
G01 X2.06162 Y0.42245
G01 X2.06287 Y0.41867
G01 X2.06395 Y0.41476
G01 X2.06471 Y0.40974
G01 X2.06491 Y0.40582
G01 X2.06471 Y0.40128
G01 X2.06395 Y0.39626
G01 X2.06287 Y0.39235
G01 X2.06162 Y0.38858
G01 X2.05759 Y0.38086
G01 X2.05694 Y0.37989
G01 X2.05166 Y0.37350
G01 X2.04526 Y0.36821
G01 X2.03749 Y0.36393
G01 X2.02904 Y0.36125
G01 X2.02022 Y0.36027
G01 X2.01907 Y0.36027
G01 X2.01025 Y0.36125
G01 X2.00232 Y0.36368
G01 X1.99499 Y0.36757
G01 X1.99403 Y0.36821
G01 X1.98763 Y0.37350
G01 X1.94932 Y0.41181
G01 X1.94938 Y0.41196
G01 X1.94932 Y0.41181
G01 X1.63343 Y0.41181
G01 X1.62517 Y0.41260
G01 X1.62403 Y0.41282
G01 X1.61558 Y0.41551
G01 X1.60781 Y0.41979
G01 X1.60141 Y0.42507
G01 X1.53488 Y0.49161
G01 X1.53000 Y0.49740
G01 X1.52635 Y0.50349
G01 X1.52399 Y0.50920
G01 X1.52226 Y0.51609
G01 X1.52161 Y0.52362
G01 X1.52161 Y0.69488
G01 X1.52219 Y0.69546
G01 X1.52161 Y0.69488
G01 X1.27752 Y0.69488
G01 X1.27694 Y0.69546
G01 X1.27752 Y0.69488
G01 X1.27752 Y0.32677
G01 X1.27673 Y0.31851
G01 X1.27651 Y0.31738
G01 X1.27407 Y0.30945
G01 X1.27019 Y0.30212
G01 X1.26954 Y0.30115
G01 X1.26426 Y0.29476
G01 X1.25786 Y0.28947
G01 X1.25690 Y0.28883
G01 X1.24957 Y0.28494
G01 X1.24164 Y0.28251
G01 X1.23282 Y0.28153
G01 X1.03446 Y0.28150
G01 X1.03440 Y0.28165
G01 X1.03446 Y0.28150
G01 X0.95926 Y0.20630
G01 X0.95845 Y0.20630
G01 X0.95926 Y0.20630
G01 X0.96898 Y0.19658
G01 X0.97427 Y0.19019
G01 X0.97491 Y0.18922
G01 X0.97880 Y0.18189
G01 X0.98123 Y0.17396
G01 X0.98146 Y0.17283
G01 X0.98224 Y0.16457
G01 X0.98146 Y0.15631
G01 X0.98123 Y0.15517
G01 X0.97880 Y0.14724
G01 X0.97491 Y0.13991
G01 X0.96937 Y0.13298
G01 X0.96855 Y0.13216
G01 X0.96162 Y0.12663
G01 X0.95429 Y0.12274
G01 X0.94636 Y0.12030
G01 X0.93755 Y0.11932
G01 X0.93639 Y0.11932
G01 X0.92757 Y0.12030
G01 X0.91964 Y0.12274
G01 X0.91231 Y0.12663
G01 X0.90538 Y0.13216
G01 X0.86979 Y0.16772
G01 X0.86985 Y0.16787
G01 X0.86979 Y0.16772
G01 X0.72043 Y0.16772
G01 X0.71217 Y0.16850
G01 X0.71104 Y0.16873
G01 X0.70258 Y0.17141
G01 X0.69528 Y0.17535
G01 X0.68842 Y0.18098
G01 X0.68313 Y0.18737
G01 X0.68249 Y0.18834
G01 X0.67846 Y0.19606
G01 X0.67721 Y0.19983
G01 X0.67613 Y0.20374
G01 X0.67537 Y0.20876
G01 X0.67517 Y0.21330
G01 X0.67537 Y0.21722
G01 X0.67613 Y0.22225
G01 X0.67730 Y0.22645
G01 X0.67885 Y0.23084
G01 X0.68249 Y0.23765
G01 X0.68803 Y0.24458
G01 X0.69481 Y0.25029
G01 X0.69578 Y0.25094
G01 X0.70365 Y0.25502
G01 X0.71217 Y0.25748
G01 X0.72043 Y0.25827
G01 X0.88318 Y0.25827
G01 X0.88324 Y0.25812
G01 X0.88318 Y0.25827
G01 X0.98369 Y0.35879
G01 X0.98873 Y0.36311
G01 X0.99475 Y0.36689
G01 X1.00216 Y0.36996
G01 X1.00909 Y0.37154
G01 X1.01571 Y0.37205
G01 X1.18697 Y0.37205
G01 X1.18755 Y0.37147
G01 X1.18697 Y0.37205
G01 X1.18697 Y0.69488
G01 X1.18755 Y0.69546
G01 X1.18697 Y0.69488
G01 X1.01478 Y0.69488
G01 X1.01471 Y0.69503
G01 X1.01478 Y0.69488
G01 X0.98224 Y0.66235
G01 X0.98209 Y0.66241
G01 X0.98224 Y0.66235
G01 X0.98221 Y0.60178
G01 X0.98123 Y0.59297
G01 X0.97880 Y0.58504
G01 X0.97491 Y0.57771
G01 X0.97427 Y0.57674
G01 X0.96898 Y0.57035
G01 X0.96259 Y0.56506
G01 X0.96162 Y0.56442
G01 X0.95429 Y0.56053
G01 X0.94636 Y0.55810
G01 X0.93755 Y0.55712
G01 X0.93639 Y0.55712
G01 X0.92757 Y0.55810
G01 X0.91964 Y0.56053
G01 X0.91231 Y0.56442
G01 X0.91135 Y0.56506
G01 X0.90495 Y0.57035
G01 X0.87884 Y0.59646
G01 X0.87891 Y0.59661
G01 X0.87884 Y0.59646
G01 X0.72043 Y0.59646
G01 X0.71217 Y0.59724
G01 X0.70365 Y0.59971
G01 X0.70258 Y0.60015
G01 X0.69528 Y0.60409
G01 X0.68885 Y0.60933
G01 X0.68803 Y0.61015
G01 X0.68249 Y0.61708
G01 X0.67846 Y0.62480
G01 X0.67721 Y0.62857
G01 X0.67613 Y0.63248
G01 X0.67537 Y0.63750
G01 X0.67517 Y0.64142
G01 X0.67537 Y0.64596
G01 X0.67613 Y0.65099
G01 X0.67721 Y0.65489
G01 X0.67846 Y0.65867
G01 X0.68249 Y0.66639
G01 X0.68313 Y0.66735
G01 X0.68842 Y0.67375
G01 X0.69528 Y0.67938
G01 X0.70258 Y0.68331
G01 X0.71104 Y0.68600
G01 X0.71217 Y0.68622
G01 X0.72043 Y0.68701
G01 X0.89225 Y0.68701
G01 X0.89267 Y0.68652
G01 X0.89225 Y0.68701
G01 X0.89270 Y0.69050
G01 X0.89539 Y0.69895
G01 X0.89967 Y0.70672
G01 X0.90495 Y0.71312
G01 X0.96401 Y0.77217
G01 X0.96905 Y0.77650
G01 X0.97589 Y0.78069
G01 X0.98248 Y0.78334
G01 X0.98940 Y0.78493
G01 X0.99602 Y0.78543
G01 X1.74499 Y0.78543
G01 X1.74505 Y0.78528
G01 X1.74499 Y0.78543
G01 X1.80424 Y0.84469
G01 X1.80505 Y0.84469
G01 X1.80424 Y0.84469
G01 X1.77110 Y0.87783
G01 X1.76581 Y0.88423
G01 X1.76517 Y0.88519
G01 X1.76109 Y0.89306
G01 X1.75885 Y0.90045
G01 X1.75786 Y0.90927
G01 X1.75786 Y0.91042
G01 X1.75871 Y0.91868
G01 X1.76109 Y0.92662
G01 X1.76517 Y0.93450
G01 X1.76581 Y0.93546
G01 X1.77153 Y0.94225
G01 X1.77749 Y0.94714
G01 X1.78526 Y0.95142
G01 X1.79372 Y0.95411
G01 X1.80253 Y0.95509
G01 X1.80369 Y0.95509
G01 X1.81194 Y0.95425
G01 X1.81989 Y0.95187
G01 X1.82096 Y0.95142
G01 X1.82873 Y0.94714
G01 X1.83512 Y0.94186
G01 X1.87029 Y0.90669
G01 X1.87023 Y0.90654
G01 X1.87029 Y0.90669
G01 X1.97437 Y0.90669
G01 X1.97495 Y0.90612
G01 X1.97437 Y0.90669
G01 X1.97437 Y0.97638
G01 X1.97516 Y0.98464
G01 X1.97762 Y0.99316
G01 X1.98170 Y1.00104
G01 X1.98724 Y1.00796
G01 X1.98806 Y1.00878
G01 X1.99499 Y1.01432
G01 X2.00180 Y1.01796
G01 X2.01025 Y1.02064
G01 X2.01139 Y1.02087
G01 X2.01965 Y1.02165
G01 X2.57176 Y1.02165
G01 X2.57182 Y1.02150
G01 X2.57176 Y1.02165
G01 X2.60429 Y1.05419
G01 X2.60444 Y1.05413
G01 X2.60429 Y1.05419
G01 X2.60429 Y2.29621
G01 X2.60444 Y2.29627
G01 X2.60429 Y2.29621
G01 X2.57176 Y2.32874
G01 X2.57182 Y2.32889
G01 X2.57176 Y2.32874
G01 X1.84838 Y2.32874
G01 X1.84781 Y2.32932
G01 X1.84838 Y2.32874
G01 X1.84838 Y1.90158
G01 X1.84760 Y1.89332
G01 X1.84737 Y1.89218
G01 X1.84469 Y1.88373
G01 X1.84041 Y1.87596
G01 X1.83512 Y1.86956
G01 X1.79532 Y1.82980
G01 X1.78840 Y1.82426
G01 X1.78107 Y1.82038
G01 X1.77313 Y1.81794
G01 X1.77200 Y1.81772
G01 X1.76374 Y1.81693
G01 X0.37122 Y1.81693
G01 X0.37064 Y1.81751
G01 X0.37122 Y1.81693
G01 X0.37122 Y1.78332
G01 X0.37107 Y1.78326
G01 X0.37122 Y1.78332
G01 X0.55796 Y1.59658
G01 X0.56324 Y1.59019
G01 X0.56389 Y1.58922
G01 X0.56777 Y1.58189
G01 X0.57035 Y1.57340
G01 X0.57122 Y1.56457
G01 X0.57122 Y1.35276
G01 X0.57043 Y1.34450
G01 X0.57021 Y1.34336
G01 X0.56752 Y1.33491
G01 X0.56324 Y1.32714
G01 X0.55796 Y1.32074
G01 X0.35232 Y1.11511
G01 X0.35217 Y1.11517
G01 X0.35232 Y1.11511
G01 X0.35232 Y1.07480
G01 X0.35154 Y1.06654
G01 X0.34907 Y1.05802
G01 X0.34716 Y1.05430
G01 X0.34720 Y1.04154
G01 X0.34686 Y1.03826
G01 X0.34584 Y1.03513
G01 X0.34453 Y1.03280
G01 X0.34199 Y1.02983
G01 X0.33933 Y1.02790
G01 X0.33690 Y1.02678
G01 X0.33573 Y1.02640
G01 X0.33249 Y1.02584
G01 X0.28233 Y1.02580
G01 X0.28038 Y1.02597
G01 X0.27777 Y1.02656
G01 X0.27476 Y1.02790
G01 X0.27210 Y1.02983
G01 X0.26990 Y1.03228
G01 X0.26825 Y1.03513
G01 X0.26739 Y1.03766
G01 X0.26689 Y1.04154
G01 X0.26694 Y1.05430
G01 X0.26522 Y1.05748
G01 X0.26278 Y1.06541
G01 X0.26256 Y1.06654
G01 X0.26177 Y1.07480
G04 P0 ( dwell for no time -- G64 should not smooth over this point )
G00 Z0.07874 ( retract )

G00 X0.14565 Y0.70198 ( rapid move to begin. )
G01 F3.93701
( Mill infeed pass 1/1 )
G01 Z-0.00591
G04 P0 ( dwell for no time -- G64 should not smooth over this point )
G01 F7.87402
G01 X0.14565 Y0.70198
G01 X0.14646 Y0.71081
G01 X0.14893 Y0.71894
G01 X0.15273 Y0.72609
G01 X0.15805 Y0.73270
G01 X0.16488 Y0.73837
G01 X0.17201 Y0.74221
G01 X0.18087 Y0.74489
G01 X0.18894 Y0.74567
G01 X0.42358 Y0.74567
G01 X0.43165 Y0.74489
G01 X0.44050 Y0.74221
G01 X0.44795 Y0.73814
G01 X0.45420 Y0.73299
G01 X0.48421 Y0.70298
G01 X0.55388 Y0.77262
G01 X0.56015 Y0.77774
G01 X0.56729 Y0.78158
G01 X0.57539 Y0.78411
G01 X0.58421 Y0.78504
G01 X0.72043 Y0.78504
G01 X0.72850 Y0.78426
G01 X0.73664 Y0.78187
G01 X0.74416 Y0.77794
G01 X0.75105 Y0.77236
G01 X0.75664 Y0.76546
G01 X0.76054 Y0.75805
G01 X0.76170 Y0.75457
G01 X0.76284 Y0.75046
G01 X0.76353 Y0.74586
G01 X0.76373 Y0.74194
G01 X0.76353 Y0.73761
G01 X0.76284 Y0.73300
G01 X0.76170 Y0.72890
G01 X0.76054 Y0.72542
G01 X0.75621 Y0.71736
G01 X0.75105 Y0.71111
G01 X0.74416 Y0.70553
G01 X0.73736 Y0.70189
G01 X0.72926 Y0.69935
G01 X0.72082 Y0.69844
G01 X0.60215 Y0.69843
G01 X0.52566 Y0.62193
G01 X0.52145 Y0.61618
G01 X0.51584 Y0.61110
G01 X0.51209 Y0.60883
G01 X0.50827 Y0.60572
G01 X0.50042 Y0.60159
G01 X0.49304 Y0.59935
G01 X0.48460 Y0.59844
G01 X0.47615 Y0.59920
G01 X0.46800 Y0.60159
G01 X0.46048 Y0.60553
G01 X0.45633 Y0.60884
G01 X0.45291 Y0.61084
G01 X0.44697 Y0.61618
G01 X0.44277 Y0.62193
G01 X0.40564 Y0.65906
G01 X0.18894 Y0.65906
G01 X0.18087 Y0.65983
G01 X0.17273 Y0.66222
G01 X0.16488 Y0.66635
G01 X0.15831 Y0.67174
G01 X0.15273 Y0.67863
G01 X0.14893 Y0.68579
G01 X0.14646 Y0.69391
G01 X0.14565 Y0.70198
G01 X0.14369 Y0.70178
G01 X0.14369 Y0.70294
G01 X0.14453 Y0.71120
G01 X0.14711 Y0.71969
G01 X0.15099 Y0.72702
G01 X0.15164 Y0.72798
G01 X0.15692 Y0.73438
G01 X0.16332 Y0.73966
G01 X0.16428 Y0.74031
G01 X0.17216 Y0.74439
G01 X0.18068 Y0.74685
G01 X0.18894 Y0.74764
G01 X0.42358 Y0.74764
G01 X0.43184 Y0.74685
G01 X0.43298 Y0.74663
G01 X0.44143 Y0.74394
G01 X0.44874 Y0.74001
G01 X0.45560 Y0.73438
G01 X0.48421 Y0.70576
G01 X0.48421 Y0.70495
G01 X0.48421 Y0.70576
G01 X0.55220 Y0.77375
G01 X0.55859 Y0.77903
G01 X0.55956 Y0.77968
G01 X0.56743 Y0.78376
G01 X0.57538 Y0.78614
G01 X0.58421 Y0.78701
G01 X0.72043 Y0.78701
G01 X0.72869 Y0.78622
G01 X0.72983 Y0.78600
G01 X0.73776 Y0.78356
G01 X0.74509 Y0.77968
G01 X0.74605 Y0.77903
G01 X0.75284 Y0.77332
G01 X0.75773 Y0.76735
G01 X0.76201 Y0.75958
G01 X0.76357 Y0.75519
G01 X0.76474 Y0.75099
G01 X0.76549 Y0.74596
G01 X0.76570 Y0.74204
G01 X0.76549 Y0.73750
G01 X0.76474 Y0.73248
G01 X0.76366 Y0.72857
G01 X0.76241 Y0.72480
G01 X0.75837 Y0.71708
G01 X0.75773 Y0.71611
G01 X0.75202 Y0.70933
G01 X0.74509 Y0.70379
G01 X0.73721 Y0.69971
G01 X0.72869 Y0.69724
G01 X0.72043 Y0.69646
G01 X0.60297 Y0.69646
G01 X0.60290 Y0.69661
G01 X0.60297 Y0.69646
G01 X0.52716 Y0.62065
G01 X0.52291 Y0.61486
G01 X0.51715 Y0.60963
G01 X0.51321 Y0.60721
G01 X0.50937 Y0.60409
G01 X0.50206 Y0.60015
G01 X0.50099 Y0.59971
G01 X0.49304 Y0.59733
G01 X0.48479 Y0.59649
G01 X0.48363 Y0.59649
G01 X0.47538 Y0.59733
G01 X0.46743 Y0.59971
G01 X0.46636 Y0.60015
G01 X0.45906 Y0.60409
G01 X0.45521 Y0.60721
G01 X0.45175 Y0.60925
G01 X0.44551 Y0.61486
G01 X0.44127 Y0.62065
G01 X0.40483 Y0.65709
G01 X0.40489 Y0.65724
G01 X0.40483 Y0.65709
G01 X0.18894 Y0.65709
G01 X0.18010 Y0.65796
G01 X0.17216 Y0.66034
G01 X0.16428 Y0.66442
G01 X0.15735 Y0.66996
G01 X0.15653 Y0.67078
G01 X0.15099 Y0.67771
G01 X0.14711 Y0.68504
G01 X0.14453 Y0.69353
G01 X0.14369 Y0.70178
G04 P0 ( dwell for no time -- G64 should not smooth over this point )
G00 Z0.07874 ( retract )

G00 X0.14369 Y0.32462 ( rapid move to begin. )
G01 F3.93701
( Mill infeed pass 1/1 )
G01 Z-0.00591
G04 P0 ( dwell for no time -- G64 should not smooth over this point )
G01 F7.87402
G01 X0.14369 Y0.32462
G01 X0.14453 Y0.31637
G01 X0.14711 Y0.30787
G01 X0.15099 Y0.30054
G01 X0.15653 Y0.29361
G01 X0.15735 Y0.29279
G01 X0.16428 Y0.28726
G01 X0.17216 Y0.28317
G01 X0.18010 Y0.28079
G01 X0.18894 Y0.27992
G01 X0.36768 Y0.27992
G01 X0.37651 Y0.28079
G01 X0.38446 Y0.28317
G01 X0.39233 Y0.28726
G01 X0.39330 Y0.28790
G01 X0.39969 Y0.29318
G01 X0.48421 Y0.37770
G01 X0.48421 Y0.37852
G01 X0.48421 Y0.37770
G01 X0.58094 Y0.28098
G01 X0.58733 Y0.27569
G01 X0.58830 Y0.27505
G01 X0.59617 Y0.27097
G01 X0.60412 Y0.26859
G01 X0.61295 Y0.26772
G01 X0.72043 Y0.26772
G01 X0.72869 Y0.26850
G01 X0.72983 Y0.26873
G01 X0.73776 Y0.27116
G01 X0.74509 Y0.27505
G01 X0.74605 Y0.27569
G01 X0.75245 Y0.28098
G01 X0.75773 Y0.28737
G01 X0.76201 Y0.29514
G01 X0.76357 Y0.29953
G01 X0.76492 Y0.30473
G01 X0.76549 Y0.30876
G01 X0.76570 Y0.31268
G01 X0.76549 Y0.31722
G01 X0.76492 Y0.32125
G01 X0.76357 Y0.32645
G01 X0.76201 Y0.33084
G01 X0.75773 Y0.33861
G01 X0.75245 Y0.34501
G01 X0.74605 Y0.35029
G01 X0.73828 Y0.35457
G01 X0.73721 Y0.35502
G01 X0.72869 Y0.35748
G01 X0.72043 Y0.35827
G01 X0.63171 Y0.35827
G01 X0.63164 Y0.35812
G01 X0.63171 Y0.35827
G01 X0.53323 Y0.45675
G01 X0.53309 Y0.45669
G01 X0.53323 Y0.45675
G01 X0.53323 Y0.46614
G01 X0.53288 Y0.46942
G01 X0.53159 Y0.47310
G01 X0.53022 Y0.47540
G01 X0.52802 Y0.47784
G01 X0.52480 Y0.48006
G01 X0.52235 Y0.48112
G01 X0.51974 Y0.48171
G01 X0.51853 Y0.48184
G01 X0.50472 Y0.48183
G01 X0.50099 Y0.48376
G01 X0.49361 Y0.48600
G01 X0.48479 Y0.48698
G01 X0.48363 Y0.48698
G01 X0.47538 Y0.48614
G01 X0.46743 Y0.48376
G01 X0.46370 Y0.48183
G01 X0.44990 Y0.48184
G01 X0.44869 Y0.48171
G01 X0.44608 Y0.48112
G01 X0.44362 Y0.48006
G01 X0.44041 Y0.47784
G01 X0.43821 Y0.47540
G01 X0.43684 Y0.47310
G01 X0.43554 Y0.46942
G01 X0.43520 Y0.46614
G01 X0.43520 Y0.45675
G01 X0.43534 Y0.45669
G01 X0.43520 Y0.45675
G01 X0.34892 Y0.37047
G01 X0.34899 Y0.37032
G01 X0.34892 Y0.37047
G01 X0.18894 Y0.37047
G01 X0.18068 Y0.36969
G01 X0.17954 Y0.36946
G01 X0.17216 Y0.36722
G01 X0.16428 Y0.36314
G01 X0.16332 Y0.36250
G01 X0.15692 Y0.35721
G01 X0.15164 Y0.35082
G01 X0.15099 Y0.34985
G01 X0.14711 Y0.34252
G01 X0.14453 Y0.33403
G01 X0.14369 Y0.32578
G01 X0.14369 Y0.32462
G01 X0.14565 Y0.32481
G01 X0.14655 Y0.31637
G01 X0.14893 Y0.30863
G01 X0.15273 Y0.30147
G01 X0.15831 Y0.29458
G01 X0.16521 Y0.28899
G01 X0.17201 Y0.28535
G01 X0.18011 Y0.28282
G01 X0.18855 Y0.28191
G01 X0.36768 Y0.28189
G01 X0.37650 Y0.28282
G01 X0.38460 Y0.28535
G01 X0.39174 Y0.28919
G01 X0.39801 Y0.29432
G01 X0.48421 Y0.38049
G01 X0.58233 Y0.28237
G01 X0.58889 Y0.27698
G01 X0.59674 Y0.27285
G01 X0.60489 Y0.27046
G01 X0.61295 Y0.26969
G01 X0.72043 Y0.26969
G01 X0.72850 Y0.27046
G01 X0.73664 Y0.27285
G01 X0.74416 Y0.27679
G01 X0.75105 Y0.28237
G01 X0.75621 Y0.28862
G01 X0.76054 Y0.29668
G01 X0.76170 Y0.30016
G01 X0.76284 Y0.30426
G01 X0.76353 Y0.30887
G01 X0.76373 Y0.31279
G01 X0.76353 Y0.31712
G01 X0.76284 Y0.32172
G01 X0.76170 Y0.32583
G01 X0.76054 Y0.32931
G01 X0.75664 Y0.33672
G01 X0.75105 Y0.34362
G01 X0.74480 Y0.34877
G01 X0.73664 Y0.35313
G01 X0.72888 Y0.35547
G01 X0.72082 Y0.35628
G01 X0.63089 Y0.35630
G01 X0.53126 Y0.45593
G01 X0.53126 Y0.46614
G01 X0.53096 Y0.46901
G01 X0.52988 Y0.47211
G01 X0.52863 Y0.47424
G01 X0.52670 Y0.47638
G01 X0.52400 Y0.47826
G01 X0.52174 Y0.47925
G01 X0.51933 Y0.47978
G01 X0.50424 Y0.47992
G01 X0.50042 Y0.48187
G01 X0.49304 Y0.48411
G01 X0.48460 Y0.48502
G01 X0.47539 Y0.48411
G01 X0.46800 Y0.48187
G01 X0.46418 Y0.47992
G01 X0.44910 Y0.47978
G01 X0.44669 Y0.47925
G01 X0.44442 Y0.47826
G01 X0.44172 Y0.47638
G01 X0.43980 Y0.47424
G01 X0.43854 Y0.47211
G01 X0.43747 Y0.46901
G01 X0.43717 Y0.46614
G01 X0.43717 Y0.45593
G01 X0.34974 Y0.36851
G01 X0.18894 Y0.36851
G01 X0.18011 Y0.36758
G01 X0.17201 Y0.36504
G01 X0.16488 Y0.36121
G01 X0.15831 Y0.35582
G01 X0.15316 Y0.34957
G01 X0.14893 Y0.34177
G01 X0.14655 Y0.33402
G01 X0.14565 Y0.32481
G04 P0 ( dwell for no time -- G64 should not smooth over this point )
G00 Z0.07874 ( retract )

G00 X0.67516 Y0.37549 ( rapid move to begin. )
G01 F3.93701
( Mill infeed pass 1/1 )
G01 Z-0.00591
G04 P0 ( dwell for no time -- G64 should not smooth over this point )
G01 F7.87402
G01 X0.67516 Y0.37549
G01 X0.67527 Y0.37434
G01 X0.67561 Y0.37323
G01 X0.67615 Y0.37221
G01 X0.67689 Y0.37132
G01 X0.67778 Y0.37058
G01 X0.67880 Y0.37004
G01 X0.67991 Y0.36970
G01 X0.68106 Y0.36959
G01 X0.70821 Y0.36960
G01 X0.71217 Y0.36850
G01 X0.72043 Y0.36772
G01 X0.88539 Y0.36772
G01 X0.89365 Y0.36850
G01 X0.89479 Y0.36873
G01 X0.90324 Y0.37141
G01 X0.91005 Y0.37505
G01 X0.91698 Y0.38059
G01 X0.95572 Y0.41929
G01 X0.95566 Y0.41944
G01 X0.95572 Y0.41929
G01 X1.07534 Y0.41932
G01 X1.08416 Y0.42030
G01 X1.09209 Y0.42274
G01 X1.09942 Y0.42663
G01 X1.10038 Y0.42727
G01 X1.10678 Y0.43255
G01 X1.11206 Y0.43895
G01 X1.11271 Y0.43991
G01 X1.11659 Y0.44724
G01 X1.11903 Y0.45517
G01 X1.12001 Y0.46399
G01 X1.12004 Y0.60984
G01 X1.11925 Y0.61810
G01 X1.11903 Y0.61924
G01 X1.11659 Y0.62717
G01 X1.11271 Y0.63450
G01 X1.11206 Y0.63546
G01 X1.10678 Y0.64186
G01 X1.10038 Y0.64714
G01 X1.09942 Y0.64779
G01 X1.09209 Y0.65167
G01 X1.08416 Y0.65411
G01 X1.08302 Y0.65433
G01 X1.07476 Y0.65512
G01 X1.06650 Y0.65433
G01 X1.06537 Y0.65411
G01 X1.05744 Y0.65167
G01 X1.05011 Y0.64779
G01 X1.04914 Y0.64714
G01 X1.04275 Y0.64186
G01 X1.03746 Y0.63546
G01 X1.03682 Y0.63450
G01 X1.03293 Y0.62717
G01 X1.03050 Y0.61924
G01 X1.02952 Y0.61042
G01 X1.02949 Y0.50984
G01 X1.03006 Y0.50927
G01 X1.02949 Y0.50984
G01 X0.93697 Y0.50984
G01 X0.92871 Y0.50906
G01 X0.92019 Y0.50659
G01 X0.91231 Y0.50251
G01 X0.91135 Y0.50187
G01 X0.90495 Y0.49658
G01 X0.86664 Y0.45827
G01 X0.86670 Y0.45812
G01 X0.86664 Y0.45827
G01 X0.72043 Y0.45827
G01 X0.71160 Y0.45740
G01 X0.70821 Y0.45638
G01 X0.68106 Y0.45640
G01 X0.67991 Y0.45628
G01 X0.67880 Y0.45595
G01 X0.67778 Y0.45540
G01 X0.67689 Y0.45467
G01 X0.67615 Y0.45377
G01 X0.67561 Y0.45275
G01 X0.67527 Y0.45164
G01 X0.67516 Y0.45049
G01 X0.67516 Y0.37549
G01 X0.67713 Y0.37549
G01 X0.67713 Y0.45049
G01 X0.67743 Y0.45200
G01 X0.67779 Y0.45268
G01 X0.67888 Y0.45377
G01 X0.67956 Y0.45413
G01 X0.68106 Y0.45443
G01 X0.70850 Y0.45443
G01 X0.71198 Y0.45547
G01 X0.72043 Y0.45630
G01 X0.86745 Y0.45630
G01 X0.90663 Y0.49545
G01 X0.91324 Y0.50078
G01 X0.92076 Y0.50471
G01 X0.92852 Y0.50704
G01 X0.93697 Y0.50788
G01 X1.03146 Y0.50788
G01 X1.03146 Y0.60984
G01 X1.03229 Y0.61829
G01 X1.03492 Y0.62677
G01 X1.03898 Y0.63421
G01 X1.04414 Y0.64047
G01 X1.05039 Y0.64562
G01 X1.05784 Y0.64969
G01 X1.06670 Y0.65238
G01 X1.07515 Y0.65313
G01 X1.08321 Y0.65232
G01 X1.09169 Y0.64969
G01 X1.09913 Y0.64562
G01 X1.10539 Y0.64047
G01 X1.11097 Y0.63357
G01 X1.11490 Y0.62605
G01 X1.11729 Y0.61791
G01 X1.11807 Y0.60984
G01 X1.11807 Y0.46457
G01 X1.11729 Y0.45650
G01 X1.11490 Y0.44836
G01 X1.11097 Y0.44084
G01 X1.10539 Y0.43395
G01 X1.09849 Y0.42836
G01 X1.09169 Y0.42472
G01 X1.08359 Y0.42219
G01 X1.07515 Y0.42128
G01 X0.95491 Y0.42126
G01 X0.91573 Y0.38211
G01 X0.90912 Y0.37679
G01 X0.90232 Y0.37315
G01 X0.89346 Y0.37046
G01 X0.88539 Y0.36969
G01 X0.72043 Y0.36969
G01 X0.71198 Y0.37052
G01 X0.70850 Y0.37156
G01 X0.68029 Y0.37163
G01 X0.67956 Y0.37186
G01 X0.67828 Y0.37271
G01 X0.67743 Y0.37399
G01 X0.67713 Y0.37549
G04 P0 ( dwell for no time -- G64 should not smooth over this point )
G00 Z0.07874 ( retract )

G00 X1.38382 Y0.42520 ( rapid move to begin. )
G01 F3.93701
( Mill infeed pass 1/1 )
G01 Z-0.00591
G04 P0 ( dwell for no time -- G64 should not smooth over this point )
G01 F7.87402
G01 X1.38382 Y0.42520
G01 X1.38460 Y0.41694
G01 X1.38483 Y0.41580
G01 X1.38727 Y0.40787
G01 X1.39115 Y0.40054
G01 X1.39179 Y0.39958
G01 X1.39708 Y0.39318
G01 X1.66519 Y0.12507
G01 X1.67159 Y0.11979
G01 X1.67255 Y0.11915
G01 X1.67988 Y0.11526
G01 X1.68781 Y0.11282
G01 X1.68894 Y0.11260
G01 X1.69720 Y0.11181
G01 X1.97122 Y0.11181
G01 X1.97948 Y0.11260
G01 X1.98061 Y0.11282
G01 X1.98855 Y0.11526
G01 X1.99588 Y0.11915
G01 X1.99684 Y0.11979
G01 X2.00323 Y0.12507
G01 X2.04027 Y0.16211
G01 X2.04021 Y0.16225
G01 X2.04027 Y0.16211
G01 X2.05902 Y0.16211
G01 X2.06017 Y0.16222
G01 X2.06128 Y0.16256
G01 X2.06230 Y0.16310
G01 X2.06319 Y0.16384
G01 X2.06393 Y0.16473
G01 X2.06447 Y0.16575
G01 X2.06481 Y0.16686
G01 X2.06492 Y0.16801
G01 X2.06492 Y0.24301
G01 X2.06481 Y0.24416
G01 X2.06447 Y0.24527
G01 X2.06393 Y0.24629
G01 X2.06319 Y0.24719
G01 X2.06230 Y0.24792
G01 X2.06128 Y0.24847
G01 X2.06017 Y0.24880
G01 X2.05902 Y0.24892
G01 X2.03187 Y0.24890
G01 X2.02790 Y0.25000
G01 X2.01965 Y0.25079
G01 X2.01139 Y0.25000
G01 X2.00742 Y0.24890
G01 X1.98028 Y0.24892
G01 X1.97912 Y0.24880
G01 X1.97802 Y0.24847
G01 X1.97700 Y0.24792
G01 X1.97610 Y0.24719
G01 X1.97537 Y0.24629
G01 X1.97482 Y0.24527
G01 X1.97448 Y0.24416
G01 X1.97437 Y0.24301
G01 X1.97437 Y0.22427
G01 X1.97452 Y0.22421
G01 X1.97437 Y0.22427
G01 X1.95247 Y0.20236
G01 X1.95253 Y0.20221
G01 X1.95247 Y0.20236
G01 X1.71596 Y0.20236
G01 X1.71590 Y0.20221
G01 X1.71596 Y0.20236
G01 X1.47437 Y0.44395
G01 X1.47422 Y0.44389
G01 X1.47437 Y0.44395
G01 X1.47437 Y0.59764
G01 X1.47358 Y0.60590
G01 X1.47336 Y0.60703
G01 X1.47067 Y0.61549
G01 X1.46639 Y0.62326
G01 X1.46111 Y0.62965
G01 X1.45471 Y0.63494
G01 X1.45375 Y0.63558
G01 X1.44642 Y0.63947
G01 X1.43849 Y0.64190
G01 X1.43735 Y0.64213
G01 X1.42909 Y0.64291
G01 X1.42083 Y0.64213
G01 X1.41970 Y0.64190
G01 X1.41177 Y0.63947
G01 X1.40444 Y0.63558
G01 X1.40348 Y0.63494
G01 X1.39708 Y0.62965
G01 X1.39179 Y0.62326
G01 X1.39115 Y0.62230
G01 X1.38727 Y0.61496
G01 X1.38483 Y0.60703
G01 X1.38460 Y0.60590
G01 X1.38382 Y0.59764
G01 X1.38382 Y0.42520
G01 X1.38579 Y0.42520
G01 X1.38579 Y0.59764
G01 X1.38671 Y0.60646
G01 X1.38925 Y0.61456
G01 X1.39332 Y0.62201
G01 X1.39847 Y0.62826
G01 X1.40537 Y0.63385
G01 X1.41288 Y0.63778
G01 X1.42065 Y0.64011
G01 X1.42948 Y0.64093
G01 X1.43792 Y0.64002
G01 X1.44602 Y0.63748
G01 X1.45282 Y0.63385
G01 X1.45972 Y0.62826
G01 X1.46487 Y0.62201
G01 X1.46894 Y0.61456
G01 X1.47157 Y0.60609
G01 X1.47240 Y0.59764
G01 X1.47240 Y0.44314
G01 X1.71514 Y0.20040
G01 X1.95328 Y0.20040
G01 X1.97634 Y0.22345
G01 X1.97641 Y0.24378
G01 X1.97664 Y0.24452
G01 X1.97749 Y0.24580
G01 X1.97877 Y0.24665
G01 X1.98028 Y0.24695
G01 X2.00771 Y0.24695
G01 X2.01120 Y0.24799
G01 X2.01926 Y0.24880
G01 X2.02809 Y0.24799
G01 X2.03158 Y0.24695
G01 X2.05902 Y0.24695
G01 X2.06052 Y0.24665
G01 X2.06180 Y0.24580
G01 X2.06265 Y0.24452
G01 X2.06295 Y0.24301
G01 X2.06295 Y0.16801
G01 X2.06265 Y0.16651
G01 X2.06180 Y0.16523
G01 X2.06120 Y0.16474
G01 X2.05978 Y0.16415
G01 X2.03945 Y0.16408
G01 X2.00156 Y0.12621
G01 X1.99495 Y0.12088
G01 X1.98814 Y0.11724
G01 X1.97929 Y0.11456
G01 X1.97122 Y0.11378
G01 X1.69720 Y0.11378
G01 X1.68876 Y0.11461
G01 X1.68099 Y0.11695
G01 X1.67348 Y0.12088
G01 X1.66658 Y0.12647
G01 X1.39847 Y0.39458
G01 X1.39332 Y0.40083
G01 X1.38925 Y0.40828
G01 X1.38662 Y0.41675
G01 X1.38579 Y0.42520
G04 P0 ( dwell for no time -- G64 should not smooth over this point )
G00 Z0.07874 ( retract )

G00 X1.63975 Y0.60178 ( rapid move to begin. )
G01 F3.93701
( Mill infeed pass 1/1 )
G01 Z-0.00591
G04 P0 ( dwell for no time -- G64 should not smooth over this point )
G01 F7.87402
G01 X1.63975 Y0.60178
G01 X1.63975 Y0.60294
G01 X1.64073 Y0.61176
G01 X1.64317 Y0.61969
G01 X1.64706 Y0.62702
G01 X1.64770 Y0.62798
G01 X1.65298 Y0.63438
G01 X1.65938 Y0.63966
G01 X1.66034 Y0.64031
G01 X1.66767 Y0.64419
G01 X1.67560 Y0.64663
G01 X1.67674 Y0.64685
G01 X1.68500 Y0.64764
G01 X1.77838 Y0.64757
G01 X1.78298 Y0.65038
G01 X1.78957 Y0.65303
G01 X1.79649 Y0.65462
G01 X1.80311 Y0.65512
G01 X1.94932 Y0.65512
G01 X1.94938 Y0.65497
G01 X1.94932 Y0.65512
G01 X1.97437 Y0.68017
G01 X1.97452 Y0.68011
G01 X1.97437 Y0.68017
G01 X1.97437 Y0.69892
G01 X1.97448 Y0.70007
G01 X1.97482 Y0.70118
G01 X1.97537 Y0.70220
G01 X1.97610 Y0.70309
G01 X1.97700 Y0.70383
G01 X1.97802 Y0.70437
G01 X1.97912 Y0.70471
G01 X1.98028 Y0.70482
G01 X2.00742 Y0.70481
G01 X2.01139 Y0.70591
G01 X2.01965 Y0.70669
G01 X2.02790 Y0.70591
G01 X2.03187 Y0.70481
G01 X2.05902 Y0.70482
G01 X2.06017 Y0.70471
G01 X2.06128 Y0.70437
G01 X2.06230 Y0.70383
G01 X2.06319 Y0.70309
G01 X2.06393 Y0.70220
G01 X2.06447 Y0.70118
G01 X2.06481 Y0.70007
G01 X2.06492 Y0.69892
G01 X2.06492 Y0.62392
G01 X2.06481 Y0.62277
G01 X2.06447 Y0.62166
G01 X2.06393 Y0.62064
G01 X2.06319 Y0.61974
G01 X2.06230 Y0.61901
G01 X2.06128 Y0.61846
G01 X2.06017 Y0.61813
G01 X2.05902 Y0.61801
G01 X2.04027 Y0.61801
G01 X2.04021 Y0.61816
G01 X2.04027 Y0.61801
G01 X1.99965 Y0.57744
G01 X1.99273 Y0.57190
G01 X1.98485 Y0.56782
G01 X1.97746 Y0.56558
G01 X1.97633 Y0.56535
G01 X1.96807 Y0.56457
G01 X1.82035 Y0.56464
G01 X1.81576 Y0.56183
G01 X1.80917 Y0.55918
G01 X1.80225 Y0.55759
G01 X1.79563 Y0.55709
G01 X1.68500 Y0.55709
G01 X1.67674 Y0.55787
G01 X1.67560 Y0.55810
G01 X1.66767 Y0.56053
G01 X1.66034 Y0.56442
G01 X1.65341 Y0.56996
G01 X1.65260 Y0.57078
G01 X1.64706 Y0.57771
G01 X1.64317 Y0.58504
G01 X1.64073 Y0.59297
G01 X1.63975 Y0.60178
G01 X1.64171 Y0.60198
G01 X1.64252 Y0.59391
G01 X1.64515 Y0.58544
G01 X1.64879 Y0.57863
G01 X1.65412 Y0.57203
G01 X1.66063 Y0.56658
G01 X1.66808 Y0.56252
G01 X1.67693 Y0.55983
G01 X1.68500 Y0.55906
G01 X1.79563 Y0.55906
G01 X1.80210 Y0.55955
G01 X1.80871 Y0.56109
G01 X1.81501 Y0.56365
G01 X1.81982 Y0.56654
G01 X1.96807 Y0.56654
G01 X1.97689 Y0.56746
G01 X1.98499 Y0.57000
G01 X1.99180 Y0.57364
G01 X1.99841 Y0.57896
G01 X2.03945 Y0.61998
G01 X2.05902 Y0.61998
G01 X2.06052 Y0.62028
G01 X2.06120 Y0.62064
G01 X2.06229 Y0.62173
G01 X2.06288 Y0.62315
G01 X2.06295 Y0.62392
G01 X2.06295 Y0.69892
G01 X2.06288 Y0.69969
G01 X2.06229 Y0.70111
G01 X2.06120 Y0.70219
G01 X2.06052 Y0.70256
G01 X2.05902 Y0.70285
G01 X2.03158 Y0.70285
G01 X2.02771 Y0.70395
G01 X2.01965 Y0.70473
G01 X2.01158 Y0.70395
G01 X2.00771 Y0.70285
G01 X1.98028 Y0.70285
G01 X1.97877 Y0.70256
G01 X1.97749 Y0.70170
G01 X1.97700 Y0.70111
G01 X1.97641 Y0.69969
G01 X1.97634 Y0.67936
G01 X1.95013 Y0.65315
G01 X1.80311 Y0.65315
G01 X1.79664 Y0.65265
G01 X1.79002 Y0.65112
G01 X1.78373 Y0.64856
G01 X1.77892 Y0.64567
G01 X1.68500 Y0.64567
G01 X1.67655 Y0.64484
G01 X1.66879 Y0.64250
G01 X1.66127 Y0.63857
G01 X1.65438 Y0.63299
G01 X1.64922 Y0.62673
G01 X1.64515 Y0.61929
G01 X1.64262 Y0.61119
G01 X1.64171 Y0.60198
G04 P0 ( dwell for no time -- G64 should not smooth over this point )
G00 Z0.07874 ( retract )

G00 X1.97438 Y0.30520 ( rapid move to begin. )
G01 F3.93701
( Mill infeed pass 1/1 )
G01 Z-0.00591
G04 P0 ( dwell for no time -- G64 should not smooth over this point )
G01 F7.87402
G01 X1.97438 Y0.30520
G01 X1.97458 Y0.30128
G01 X1.97516 Y0.29725
G01 X1.97651 Y0.29205
G01 X1.97806 Y0.28766
G01 X1.98235 Y0.27989
G01 X1.98763 Y0.27350
G01 X1.99403 Y0.26821
G01 X1.99499 Y0.26757
G01 X2.00286 Y0.26349
G01 X2.01139 Y0.26102
G01 X2.01965 Y0.26024
G01 X2.11965 Y0.26024
G01 X2.12790 Y0.26102
G01 X2.13643 Y0.26349
G01 X2.14430 Y0.26757
G01 X2.14526 Y0.26821
G01 X2.15166 Y0.27350
G01 X2.21807 Y0.33991
G01 X2.21807 Y0.34072
G01 X2.21807 Y0.33991
G01 X2.26480 Y0.29318
G01 X2.26983 Y0.28886
G01 X2.27585 Y0.28508
G01 X2.28238 Y0.28230
G01 X2.28927 Y0.28057
G01 X2.29635 Y0.27994
G01 X2.51177 Y0.27992
G01 X2.52003 Y0.28071
G01 X2.52117 Y0.28093
G01 X2.52910 Y0.28337
G01 X2.53643 Y0.28726
G01 X2.54336 Y0.29279
G01 X2.54417 Y0.29361
G01 X2.54971 Y0.30054
G01 X2.55360 Y0.30787
G01 X2.55604 Y0.31580
G01 X2.55626 Y0.31694
G01 X2.55705 Y0.32520
G01 X2.55626 Y0.33346
G01 X2.55604 Y0.33459
G01 X2.55360 Y0.34252
G01 X2.54971 Y0.34985
G01 X2.54417 Y0.35678
G01 X2.54336 Y0.35760
G01 X2.53643 Y0.36314
G01 X2.52910 Y0.36703
G01 X2.52117 Y0.36946
G01 X2.52003 Y0.36969
G01 X2.51177 Y0.37047
G01 X2.31556 Y0.37047
G01 X2.31550 Y0.37032
G01 X2.31556 Y0.37047
G01 X2.28146 Y0.40458
G01 X2.28111 Y0.40450
G01 X2.28146 Y0.40458
G01 X2.28146 Y0.40557
G01 X2.28323 Y0.40964
G01 X2.28488 Y0.41724
G01 X2.28501 Y0.41847
G01 X2.28498 Y0.42625
G01 X2.28339 Y0.43386
G01 X2.28301 Y0.43503
G01 X2.27982 Y0.44213
G01 X2.27488 Y0.44892
G01 X2.26864 Y0.45454
G01 X2.26518 Y0.45656
G01 X2.26084 Y0.45999
