( pcb2gcode 2.5.0 )
( Software-independent Gcode )

( This file uses 6 drill bit sizes. )
( Bit sizes: [0.0275591inch] [0.0314961inch] [0.0393701inch] [0.0433071inch] [0.0468504inch] [0.0511811inch] )

G94       (Inches per minute feed rate.)
G20       (Units == INCHES.)
G91.1     (Incremental arc distance mode.)
G90       (Absolute coordinates.)
G00 S8000     (RPM spindle speed.)

G00 Z0.39370 (Retract)
T1
M5      (Spindle stop.)
G04 P1.00000
(MSG, Change tool bit to drill size 0.0275591inch)
M0      (Temporary machine stop.)
M3      (Spindle on clockwise.)
G0 Z0.07874
G04 P1.00000

G1 F3.93701
G0 X0.49803 Y0.33346
G1 Z-0.09843
G1 Z0.07874
G0 X0.49803 Y0.03346
G1 Z-0.09843
G1 Z0.07874
G0 X1.06890 Y0.35591
G1 Z-0.09843
G1 Z0.07874
G0 X1.06890 Y0.65591
G1 Z-0.09843
G1 Z0.07874
G0 X1.00984 Y0.80866
G1 Z-0.09843
G1 Z0.07874
G0 X0.52520 Y1.42362
G1 Z-0.09843
G1 Z0.07874
G0 X0.82520 Y1.42362
G1 Z-0.09843
G1 Z0.07874
G0 X1.00984 Y1.51457
G1 Z-0.09843
G1 Z0.07874
G0 X1.00984 Y1.21457
G1 Z-0.09843
G1 Z0.07874
G0 X1.00984 Y1.10866
G1 Z-0.09843
G1 Z0.07874
G0 X1.14764 Y1.10866
G1 Z-0.09843
G1 Z0.07874
G0 X1.34449 Y1.10866
G1 Z-0.09843
G1 Z0.07874
G0 X1.52165 Y1.10866
G1 Z-0.09843
G1 Z0.07874
G0 X1.67913 Y1.10866
G1 Z-0.09843
G1 Z0.07874
G0 X1.67913 Y0.80866
G1 Z-0.09843
G1 Z0.07874
G0 X1.62008 Y0.65591
G1 Z-0.09843
G1 Z0.07874
G0 X1.52165 Y0.80866
G1 Z-0.09843
G1 Z0.07874
G0 X1.34449 Y0.80866
G1 Z-0.09843
G1 Z0.07874
G0 X1.14764 Y0.80866
G1 Z-0.09843
G1 Z0.07874
G0 X1.62008 Y0.35591
G1 Z-0.09843
G1 Z0.07874
G0 X2.23031 Y0.01378
G1 Z-0.09843
G1 Z0.07874
G0 X2.23031 Y0.31378
G1 Z-0.09843
G1 Z0.07874
G0 X2.46181 Y1.22677
G1 Z-0.09843
G1 Z0.07874
G0 X2.76181 Y1.22677
G1 Z-0.09843
G1 Z0.07874

G00 Z0.39370 (Retract)
T2
M5      (Spindle stop.)
G04 P1.00000
(MSG, Change tool bit to drill size 0.0314961inch)
M0      (Temporary machine stop.)
M3      (Spindle on clockwise.)
G0 Z0.07874
G04 P1.00000

G1 F3.93701
G0 X0.51772 Y2.46693
G1 Z-0.09843
G1 Z0.07874
G0 X0.51772 Y2.56535
G1 Z-0.09843
G1 Z0.07874
G0 X1.65945 Y2.56535
G1 Z-0.09843
G1 Z0.07874
G0 X1.65945 Y2.46693
G1 Z-0.09843
G1 Z0.07874

G00 Z0.39370 (Retract)
T3
M5      (Spindle stop.)
G04 P1.00000
(MSG, Change tool bit to drill size 0.0393701inch)
M0      (Temporary machine stop.)
M3      (Spindle on clockwise.)
G0 Z0.07874
G04 P1.00000

G1 F3.93701
G0 X0.69252 Y1.65984
G1 Z-0.09843
G1 Z0.07874
G0 X0.79252 Y1.65984
G1 Z-0.09843
G1 Z0.07874
G0 X0.89252 Y1.65984
G1 Z-0.09843
G1 Z0.07874
G0 X0.99252 Y1.65984
G1 Z-0.09843
G1 Z0.07874
G0 X1.09252 Y1.65984
G1 Z-0.09843
G1 Z0.07874
G0 X1.19252 Y1.65984
G1 Z-0.09843
G1 Z0.07874
G0 X1.29252 Y1.65984
G1 Z-0.09843
G1 Z0.07874
G0 X1.39252 Y1.65984
G1 Z-0.09843
G1 Z0.07874
G0 X1.49252 Y1.65984
G1 Z-0.09843
G1 Z0.07874
G0 X1.59252 Y1.65984
G1 Z-0.09843
G1 Z0.07874
G0 X1.69252 Y1.65984
G1 Z-0.09843
G1 Z0.07874
G0 X1.79252 Y1.65984
G1 Z-0.09843
G1 Z0.07874
G0 X1.89252 Y1.65984
G1 Z-0.09843
G1 Z0.07874
G0 X1.99252 Y1.65984
G1 Z-0.09843
G1 Z0.07874
G0 X2.09252 Y1.65984
G1 Z-0.09843
G1 Z0.07874
G0 X2.58465 Y1.43937
G1 Z-0.09843
G1 Z0.07874
G0 X2.58465 Y1.73858
G1 Z-0.09843
G1 Z0.07874
G0 X2.09252 Y2.25984
G1 Z-0.09843
G1 Z0.07874
G0 X1.99252 Y2.25984
G1 Z-0.09843
G1 Z0.07874
G0 X1.89252 Y2.25984
G1 Z-0.09843
G1 Z0.07874
G0 X1.79252 Y2.25984
G1 Z-0.09843
G1 Z0.07874
G0 X1.69252 Y2.25984
G1 Z-0.09843
G1 Z0.07874
G0 X1.59252 Y2.25984
G1 Z-0.09843
G1 Z0.07874
G0 X1.49252 Y2.25984
G1 Z-0.09843
G1 Z0.07874
G0 X1.39252 Y2.25984
G1 Z-0.09843
G1 Z0.07874
G0 X1.29252 Y2.25984
G1 Z-0.09843
G1 Z0.07874
G0 X1.19252 Y2.25984
G1 Z-0.09843
G1 Z0.07874
G0 X1.09252 Y2.25984
G1 Z-0.09843
G1 Z0.07874
G0 X0.99252 Y2.25984
G1 Z-0.09843
G1 Z0.07874
G0 X0.89252 Y2.25984
G1 Z-0.09843
G1 Z0.07874
G0 X0.79252 Y2.25984
G1 Z-0.09843
G1 Z0.07874
G0 X0.69252 Y2.25984
G1 Z-0.09843
G1 Z0.07874

G00 Z0.39370 (Retract)
T4
M5      (Spindle stop.)
G04 P1.00000
(MSG, Change tool bit to drill size 0.0433071inch)
M0      (Temporary machine stop.)
M3      (Spindle on clockwise.)
G0 Z0.07874
G04 P1.00000

G1 F3.93701
G0 X0.79331 Y0.39685
G1 Z-0.09843
G1 Z0.07874
G0 X0.79331 Y0.49685
G1 Z-0.09843
G1 Z0.07874
G0 X0.79331 Y0.59685
G1 Z-0.09843
G1 Z0.07874
G0 X0.79331 Y0.84961
G1 Z-0.09843
G1 Z0.07874
G0 X0.79331 Y0.94961
G1 Z-0.09843
G1 Z0.07874
G0 X0.79331 Y1.04961
G1 Z-0.09843
G1 Z0.07874
G0 X1.83661 Y0.39685
G1 Z-0.09843
G1 Z0.07874
G0 X1.83661 Y0.49685
G1 Z-0.09843
G1 Z0.07874
G0 X1.83661 Y0.59685
G1 Z-0.09843
G1 Z0.07874
G0 X1.87598 Y0.87244
G1 Z-0.09843
G1 Z0.07874
G0 X1.87598 Y0.97244
G1 Z-0.09843
G1 Z0.07874
G0 X1.87598 Y1.07244
G1 Z-0.09843
G1 Z0.07874

G00 Z0.39370 (Retract)
T5
M5      (Spindle stop.)
G04 P1.00000
(MSG, Change tool bit to drill size 0.0468504inch)
M0      (Temporary machine stop.)
M3      (Spindle on clockwise.)
G0 Z0.07874
G04 P1.00000

G1 F3.93701
G0 X1.04449 Y2.56535
G1 Z-0.09843
G1 Z0.07874
G0 X1.14449 Y2.56535
G1 Z-0.09843
G1 Z0.07874
G0 X1.24449 Y2.56535
G1 Z-0.09843
G1 Z0.07874
G0 X1.34449 Y2.56535
G1 Z-0.09843
G1 Z0.07874

G00 Z0.39370 (Retract)
T6
M5      (Spindle stop.)
G04 P1.00000
(MSG, Change tool bit to drill size 0.0511811inch)
M0      (Temporary machine stop.)
M3      (Spindle on clockwise.)
G0 Z0.07874
G04 P1.00000

G1 F3.93701
G0 X0.43898 Y0.59685
G1 Z-0.09843
G1 Z0.07874
G0 X0.43898 Y0.79370
G1 Z-0.09843
G1 Z0.07874
G0 X0.43898 Y0.99055
G1 Z-0.09843
G1 Z0.07874
G0 X0.43898 Y1.18740
G1 Z-0.09843
G1 Z0.07874
G0 X0.22244 Y1.46299
G1 Z-0.09843
G1 Z0.07874
G0 X0.22244 Y1.95512
G1 Z-0.09843
G1 Z0.07874
G0 X0.02559 Y1.95512
G1 Z-0.09843
G1 Z0.07874
G0 X0.02559 Y1.46299
G1 Z-0.09843
G1 Z0.07874
G0 X1.23622 Y0.22362
G1 Z-0.09843
G1 Z0.07874
G0 X1.43307 Y0.22362
G1 Z-0.09843
G1 Z0.07874
G0 X2.19094 Y0.49843
G1 Z-0.09843
G1 Z0.07874
G0 X2.19094 Y0.69528
G1 Z-0.09843
G1 Z0.07874
G0 X2.19094 Y0.89213
G1 Z-0.09843
G1 Z0.07874
G0 X2.19094 Y1.08898
G1 Z-0.09843
G1 Z0.07874

G00 Z0.394 ( All done -- retract )

M5      (Spindle off.)
G04 P1.000000
M9      (Coolant off.)
M2      (Program end.)

